luts/Fujifilm Classic Negative - Vivid Green.cube
#Created by: Pixelmator Pro
#Color profile: "sRGB IEC61966-2.1"
TITLE "Fujifilm Classic Negative - Vivid Green"
#Data domain
#LUT size
LUT_3D_SIZE 7
DOMAIN_MIN 0.000000 0.000000 0.000000
DOMAIN_MAX 0.882353 0.882353 0.882353
0.0372 0.0412 0.0440
0.1745 0.0078 0.0281
0.3406 0.0000 0.0547
0.5159 0.0000 0.0871
0.6954 0.0000 0.1135
0.8651 0.0124 0.1436
1.0000 0.1359 0.2186
0.0000 0.1197 0.0862
0.1139 0.1467 0.0503
0.3181 0.1581 0.0329
0.5102 0.1619 0.0422
0.6910 0.1672 0.0812
0.8538 0.1884 0.1459
1.0000 0.2186 0.2092
0.0000 0.2468 0.1870
0.0000 0.2681 0.1907
0.2362 0.3043 0.1047
0.4551 0.3253 0.0481
0.6532 0.3342 0.0820
0.8251 0.3480 0.1499
0.9874 0.3522 0.1910
0.0000 0.3836 0.2949
0.0000 0.3950 0.3013
0.0000 0.4464 0.2641
0.3618 0.4666 0.1697
0.5784 0.4873 0.1247
0.7777 0.4917 0.1469
0.9569 0.4915 0.1653
0.0000 0.5201 0.4023
0.0000 0.5277 0.4065
0.0000 0.5502 0.4122
0.0884 0.6243 0.2999
0.4861 0.6178 0.2487
0.6986 0.6344 0.1993
0.8985 0.6369 0.1687
0.0000 0.6528 0.5072
0.0000 0.6583 0.5102
0.0000 0.6729 0.5175
0.0000 0.7141 0.4956
0.3074 0.7724 0.3580
0.6163 0.7612 0.3143
0.8198 0.7699 0.2772
0.0000 0.7836 0.6091
0.0000 0.7879 0.6113
0.0000 0.7996 0.6169
0.0000 0.8216 0.6226
0.0000 0.8839 0.5472
0.4789 0.9126 0.4117
0.7500 0.8978 0.3734
0.0124 0.0205 0.1498
0.1623 0.0158 0.1711
0.3484 0.0000 0.1959
0.5275 0.0000 0.2119
0.7042 0.0000 0.2253
0.8699 0.0305 0.2437
1.0000 0.1462 0.2869
0.0000 0.1510 0.1558
0.1535 0.1569 0.1700
0.3540 0.1586 0.1822
0.5337 0.1564 0.1908
0.7011 0.1710 0.2121
0.8590 0.1942 0.2431
1.0000 0.2248 0.2805
0.0000 0.2707 0.2118
0.0000 0.2904 0.2235
0.2586 0.3136 0.1791
0.4771 0.3244 0.1660
0.6649 0.3373 0.1953
0.8299 0.3522 0.2402
0.9918 0.3535 0.2620
0.0000 0.3983 0.3096
0.0000 0.4099 0.3161
0.0000 0.4528 0.3022
0.3744 0.4711 0.2203
0.5889 0.4884 0.2040
0.7833 0.4929 0.2301
0.9600 0.4935 0.2419
0.0000 0.5297 0.4120
0.0000 0.5374 0.4162
0.0000 0.5575 0.4262
0.1215 0.6247 0.3370
0.4943 0.6197 0.2830
0.7056 0.6348 0.2500
0.9037 0.6356 0.2350
0.0000 0.6595 0.5139
0.0000 0.6650 0.5169
0.0000 0.6796 0.5241
0.0000 0.7171 0.5100
0.3192 0.7722 0.3860
0.6224 0.7609 0.3443
0.8244 0.7697 0.3112
0.0000 0.7885 0.6140
0.0000 0.7928 0.6162
0.0000 0.8044 0.6217
0.0000 0.8248 0.6304
0.0000 0.8852 0.5614
0.4859 0.9119 0.4341
0.7543 0.8971 0.3970
0.0000 0.0331 0.3008
0.1501 0.0217 0.3148
0.3258 0.0275 0.3411
0.5297 0.0000 0.3740
0.7081 0.0022 0.3832
0.8692 0.0859 0.3954
1.0000 0.1641 0.4088
0.0000 0.1613 0.3035
0.1354 0.1535 0.3321
0.3278 0.1650 0.3467
0.5303 0.1730 0.3723
0.7038 0.1890 0.3819
0.8648 0.2120 0.3954
1.0000 0.2384 0.4064
0.0000 0.3075 0.3114
0.0000 0.3263 0.3339
0.3072 0.3264 0.3373
0.5226 0.3324 0.3492
0.7024 0.3389 0.3603
0.8532 0.3534 0.3803
1.0000 0.3591 0.3934
0.0000 0.4381 0.3524
0.0000 0.4507 0.3602
0.0843 0.4804 0.3786
0.4127 0.4850 0.3346
0.6264 0.4885 0.3260
0.8066 0.4952 0.3541
0.9687 0.4992 0.3743
0.0000 0.5561 0.4394
0.0000 0.5639 0.4437
0.0000 0.5846 0.4541
0.1879 0.6263 0.4251
0.5180 0.6255 0.3628
0.7256 0.6360 0.3507
0.9172 0.6326 0.3558
0.0000 0.6775 0.5327
0.0000 0.6830 0.5355
0.0000 0.6977 0.5427
0.0000 0.7246 0.5507
0.3470 0.7725 0.4524
0.6390 0.7613 0.4109
0.8372 0.7694 0.3875
0.0000 0.8016 0.6274
0.0000 0.8059 0.6295
0.0000 0.8173 0.6349
0.0000 0.8376 0.6431
0.0000 0.8882 0.6000
0.5046 0.9101 0.4892
0.7660 0.8952 0.4539
0.0000 0.0804 0.4519
0.1326 0.0319 0.4777
0.3089 0.0631 0.4850
0.4929 0.0868 0.5145
0.6905 0.1119 0.5449
0.8538 0.1553 0.5516
1.0000 0.1783 0.5503
0.0000 0.1821 0.4560
0.1119 0.1618 0.4893
0.3081 0.1709 0.4955
0.4937 0.1936 0.5172
0.6869 0.2233 0.5435
0.8498 0.2447 0.5504
1.0000 0.2486 0.5493
0.0000 0.3223 0.4623
0.0788 0.3242 0.4871
0.2886 0.3229 0.5100
0.4895 0.3363 0.5185
0.6871 0.3547 0.5397
0.8502 0.3674 0.5449
1.0000 0.3702 0.5451
0.0000 0.4699 0.4710
0.0000 0.4811 0.4834
0.1917 0.4997 0.5061
0.4619 0.4938 0.5000
0.6708 0.4969 0.5108
0.8519 0.4969 0.5162
0.9984 0.4970 0.5209
0.0000 0.6017 0.4917
0.0000 0.6098 0.4970
0.0000 0.6323 0.5099
0.3057 0.6407 0.5331
0.5668 0.6385 0.4869
0.7726 0.6348 0.4734
0.9432 0.6325 0.4931
0.0000 0.7101 0.5680
0.0000 0.7156 0.5712
0.0000 0.7307 0.5785
0.0000 0.7575 0.5890
0.3934 0.7741 0.5577
0.6706 0.7659 0.5010
0.8615 0.7687 0.4951
0.0000 0.8251 0.6523
0.0000 0.8292 0.6544
0.0000 0.8406 0.6595
0.0000 0.8608 0.6671
0.0000 0.8952 0.6633
0.5295 0.9108 0.5681
0.7872 0.8923 0.5396
0.0000 0.1332 0.6085
0.0946 0.0655 0.6438
0.2985 0.0901 0.6461
0.4689 0.1416 0.6487
0.6484 0.1737 0.6741
0.8313 0.2044 0.6962
1.0000 0.1906 0.7002
0.0000 0.2126 0.6117
0.0814 0.1837 0.6457
0.2938 0.1863 0.6528
0.4690 0.2170 0.6523
0.6462 0.2511 0.6725
0.8308 0.2700 0.6956
1.0000 0.2572 0.6995
0.0000 0.3409 0.6164
0.0412 0.3338 0.6455
0.2717 0.3277 0.6654
0.4664 0.3389 0.6638
0.6475 0.3635 0.6757
0.8323 0.3830 0.6945
0.9913 0.3827 0.6939
0.0000 0.4818 0.6204
0.0000 0.4858 0.6383
0.2550 0.4886 0.6505
0.4473 0.4878 0.6678
0.6412 0.4965 0.6709
0.8354 0.5048 0.6858
0.9859 0.5102 0.6825
0.0000 0.6234 0.6226
0.0000 0.6306 0.6303
0.0000 0.6499 0.6518
0.3745 0.6530 0.6599
0.6191 0.6406 0.6472
0.8183 0.6356 0.6494
0.9801 0.6345 0.6518
0.0000 0.7558 0.6234
0.0000 0.7614 0.6269
0.0000 0.7766 0.6357
0.0000 0.8049 0.6492
0.4867 0.7833 0.6727
0.7240 0.7726 0.6268
0.9087 0.7643 0.6124
0.0000 0.8590 0.6914
0.0000 0.8631 0.6936
0.0000 0.8743 0.6987
0.0000 0.8947 0.7062
0.2755 0.9077 0.7171
0.5754 0.9069 0.6833
0.8202 0.8918 0.6364
0.0000 0.1851 0.7637
0.0249 0.1153 0.8025
0.2840 0.1333 0.8018
0.4600 0.1702 0.7994
0.6222 0.2237 0.7982
0.7982 0.2312 0.8216
0.9713 0.2385 0.8345
0.0000 0.2475 0.7655
0.0135 0.2087 0.8020
0.2807 0.2154 0.8032
0.4594 0.2416 0.7986
0.6215 0.2810 0.7965
0.7978 0.2849 0.8208
0.9694 0.2950 0.8325
0.0000 0.3614 0.7684
0.0000 0.3472 0.7981
0.2639 0.3423 0.8100
0.4540 0.3489 0.8100
0.6231 0.3742 0.8020
0.7956 0.3907 0.8171
0.9644 0.4030 0.8274
0.0000 0.4948 0.7695
0.0000 0.4930 0.7895
0.2670 0.4935 0.7951
0.4373 0.4860 0.8177
0.6225 0.4913 0.8120
0.7968 0.5062 0.8155
0.9604 0.5249 0.8200
0.0000 0.6308 0.7704
0.0000 0.6338 0.7818
0.1930 0.6372 0.7988
0.4248 0.6359 0.7982
0.6079 0.6297 0.8101
0.7895 0.6338 0.8019
0.9594 0.6419 0.8065
0.0000 0.7668 0.7644
0.0000 0.7716 0.7695
0.0000 0.7845 0.7837
0.2622 0.7956 0.7978
0.5514 0.7860 0.7937
0.7739 0.7675 0.7739
0.9485 0.7598 0.7719
0.0000 0.8996 0.7481
0.0000 0.9045 0.7484
0.0000 0.9153 0.7545
0.0000 0.9351 0.7639
0.3893 0.9336 0.7771
0.6579 0.9060 0.7978
0.8688 0.8917 0.7537
0.0000 0.2306 0.9153
0.0000 0.1769 0.9478
0.2732 0.1820 0.9489
0.4532 0.2088 0.9434
0.6160 0.2327 0.9420
0.7738 0.2658 0.9414
0.9359 0.2846 0.9504
0.0000 0.2810 0.9163
0.0000 0.2452 0.9466
0.2738 0.2492 0.9473
0.4535 0.2673 0.9420
0.6162 0.2814 0.9422
0.7729 0.3128 0.9390
0.9345 0.3285 0.9482
0.0000 0.3810 0.9181
0.0000 0.3637 0.9438
0.2754 0.3663 0.9433
0.4485 0.3636 0.9496
0.6163 0.3802 0.9414
0.7713 0.4071 0.9334
0.9309 0.4196 0.9423
0.0000 0.5050 0.9190
0.0000 0.4987 0.9385
0.2613 0.4967 0.9443
0.4328 0.4871 0.9597
0.6137 0.4926 0.9499
0.7731 0.5125 0.9335
0.9260 0.5336 0.9330
0.0000 0.6369 0.9154
0.0000 0.6364 0.9288
0.2574 0.6356 0.9332
0.4384 0.6334 0.9364
0.6009 0.6223 0.9538
0.7732 0.6300 0.9321
0.9273 0.6426 0.9271
0.0000 0.7690 0.9104
0.0000 0.7713 0.9183
0.0950 0.7754 0.9372
0.4145 0.7702 0.9267
0.5959 0.7656 0.9239
0.7652 0.7565 0.9256
0.9236 0.7591 0.9125
0.0000 0.9006 0.8960
0.0000 0.9040 0.8996
0.0000 0.9131 0.9093
0.0000 0.9292 0.9270
0.4906 0.9169 0.9178
0.7129 0.9040 0.9099
0.9143 0.8831 0.8877
