luts/Fujifilm Classic Negative - Vivid Green.cube
#Created by: Pixelmator Pro
#Color profile: "sRGB IEC61966-2.1"
TITLE "Fujifilm Classic Negative - Vivid Green"
#Data domain
DOMAIN_MIN 0.0000 0.0000 0.0000
DOMAIN_MAX 1.0000 1.0000 1.0000
#LUT size
LUT_3D_SIZE 35
0.0372 0.0412 0.0440
0.0463 0.0405 0.0442
0.0654 0.0368 0.0424
0.1000 0.0268 0.0362
0.1387 0.0155 0.0301
0.1745 0.0078 0.0281
0.2090 0.0020 0.0286
0.2415 0.0000 0.0331
0.2739 0.0000 0.0402
0.3069 0.0000 0.0475
0.3406 0.0000 0.0547
0.3748 0.0000 0.0617
0.4096 0.0000 0.0684
0.4447 0.0000 0.0749
0.4802 0.0000 0.0811
0.5159 0.0000 0.0871
0.5519 0.0000 0.0928
0.5880 0.0000 0.0983
0.6241 0.0000 0.1035
0.6599 0.0000 0.1086
0.6954 0.0000 0.1135
0.7305 0.0000 0.1184
0.7652 0.0000 0.1234
0.7994 0.0000 0.1285
0.8332 0.0000 0.1339
0.8651 0.0124 0.1436
0.8948 0.0414 0.1583
0.9239 0.0682 0.1731
0.9524 0.0909 0.1877
0.9802 0.1114 0.2022
1.0000 0.1359 0.2186
1.0000 0.1809 0.2470
1.0000 0.2106 0.2679
1.0000 0.2319 0.2837
1.0000 0.2476 0.2956
0.0321 0.0468 0.0452
0.0416 0.0478 0.0429
0.0597 0.0490 0.0377
0.0934 0.0470 0.0304
0.1308 0.0446 0.0263
0.1669 0.0419 0.0258
0.2024 0.0387 0.0271
0.2378 0.0348 0.0292
0.2733 0.0301 0.0314
0.3089 0.0245 0.0338
0.3449 0.0182 0.0360
0.3811 0.0112 0.0382
0.4174 0.0036 0.0404
0.4528 0.0000 0.0461
0.4877 0.0000 0.0543
0.5229 0.0000 0.0618
0.5584 0.0000 0.0688
0.5941 0.0000 0.0754
0.6298 0.0000 0.0816
0.6652 0.0000 0.0875
0.7004 0.0000 0.0933
0.7351 0.0000 0.0990
0.7695 0.0000 0.1048
0.8019 0.0137 0.1164
0.8331 0.0338 0.1298
0.8637 0.0560 0.1439
0.8935 0.0761 0.1586
0.9227 0.0947 0.1734
0.9512 0.1124 0.1880
0.9791 0.1295 0.2025
1.0000 0.1486 0.2176
1.0000 0.1902 0.2467
1.0000 0.2183 0.2679
1.0000 0.2386 0.2839
1.0000 0.2535 0.2959
0.0187 0.0585 0.0476
0.0283 0.0622 0.0436
0.0512 0.0639 0.0368
0.0829 0.0676 0.0284
0.1214 0.0678 0.0238
0.1588 0.0680 0.0243
0.1953 0.0683 0.0261
0.2316 0.0674 0.0283
0.2679 0.0656 0.0306
0.3043 0.0628 0.0330
0.3409 0.0591 0.0352
0.3775 0.0545 0.0373
0.4142 0.0491 0.0394
0.4509 0.0429 0.0416
0.4877 0.0362 0.0439
0.5245 0.0296 0.0466
0.5611 0.0237 0.0500
0.5974 0.0193 0.0546
0.6328 0.0196 0.0623
0.6676 0.0223 0.0712
0.7018 0.0278 0.0811
0.7353 0.0365 0.0921
0.7681 0.0480 0.1039
0.8002 0.0608 0.1166
0.8316 0.0745 0.1301
0.8622 0.0886 0.1442
0.8921 0.1031 0.1589
0.9213 0.1176 0.1737
0.9499 0.1322 0.1883
0.9779 0.1464 0.2025
1.0000 0.1613 0.2165
1.0000 0.2000 0.2463
1.0000 0.2265 0.2679
1.0000 0.2457 0.2841
1.0000 0.2599 0.2962
0.0000 0.0779 0.0540
0.0000 0.0845 0.0537
0.0269 0.0894 0.0414
0.0690 0.0894 0.0343
0.1063 0.0933 0.0290
0.1462 0.0955 0.0243
0.1854 0.0957 0.0251
0.2232 0.0964 0.0276
0.2605 0.0970 0.0299
0.2977 0.0967 0.0321
0.3350 0.0955 0.0342
0.3722 0.0936 0.0363
0.4095 0.0912 0.0382
0.4468 0.0884 0.0403
0.4840 0.0854 0.0426
0.5210 0.0823 0.0454
0.5579 0.0794 0.0489
0.5943 0.0777 0.0542
0.6298 0.0782 0.0621
0.6648 0.0801 0.0711
0.6991 0.0835 0.0811
0.7327 0.0884 0.0922
0.7656 0.0948 0.1041
0.7979 0.1026 0.1169
0.8293 0.1116 0.1304
0.8601 0.1216 0.1446
0.8901 0.1325 0.1593
0.9194 0.1438 0.1741
0.9481 0.1556 0.1886
0.9766 0.1664 0.2020
1.0000 0.1775 0.2149
1.0000 0.2128 0.2457
1.0000 0.2374 0.2679
1.0000 0.2553 0.2844
1.0000 0.2688 0.2970
0.0000 0.0970 0.0683
0.0000 0.1020 0.0713
0.0000 0.1122 0.0639
0.0386 0.1193 0.0443
0.0907 0.1175 0.0406
0.1299 0.1212 0.0362
0.1707 0.1249 0.0291
0.2117 0.1252 0.0273
0.2509 0.1261 0.0293
0.2893 0.1272 0.0316
0.3274 0.1281 0.0334
0.3654 0.1282 0.0352
0.4033 0.1277 0.0369
0.4410 0.1268 0.0389
0.4787 0.1256 0.0411
0.5163 0.1243 0.0439
0.5536 0.1231 0.0474
0.5901 0.1230 0.0537
0.6259 0.1237 0.0618
0.6610 0.1252 0.0709
0.6955 0.1276 0.0811
0.7293 0.1310 0.0923
0.7624 0.1355 0.1044
0.7948 0.1410 0.1173
0.8264 0.1475 0.1309
0.8573 0.1550 0.1452
0.8875 0.1634 0.1599
0.9170 0.1723 0.1746
0.9458 0.1819 0.1892
0.9748 0.1896 0.2013
1.0000 0.1968 0.2126
1.0000 0.2286 0.2448
1.0000 0.2511 0.2677
1.0000 0.2675 0.2847
1.0000 0.2807 0.2984
0.0000 0.1197 0.0862
0.0000 0.1240 0.0888
0.0000 0.1300 0.0888
0.0000 0.1440 0.0733
0.0612 0.1488 0.0532
0.1139 0.1467 0.0503
0.1541 0.1503 0.0460
0.1955 0.1550 0.0369
0.2374 0.1567 0.0310
0.2783 0.1572 0.0308
0.3181 0.1581 0.0329
0.3569 0.1598 0.0343
0.3955 0.1610 0.0357
0.4340 0.1616 0.0374
0.4722 0.1619 0.0395
0.5102 0.1619 0.0422
0.5478 0.1619 0.0462
0.5846 0.1626 0.0533
0.6208 0.1636 0.0615
0.6563 0.1651 0.0708
0.6910 0.1672 0.0812
0.7251 0.1699 0.0926
0.7584 0.1733 0.1048
0.7909 0.1775 0.1178
0.8228 0.1826 0.1315
0.8538 0.1884 0.1459
0.8842 0.1950 0.1606
0.9138 0.2021 0.1753
0.9428 0.2099 0.1898
0.9726 0.2148 0.2004
1.0000 0.2186 0.2092
1.0000 0.2473 0.2432
1.0000 0.2672 0.2675
1.0000 0.2819 0.2850
1.0000 0.2949 0.3002
0.0000 0.1439 0.1053
0.0000 0.1475 0.1076
0.0000 0.1514 0.1099
0.0000 0.1609 0.1049
0.0088 0.1762 0.0825
0.0851 0.1789 0.0634
0.1376 0.1768 0.0610
0.1787 0.1803 0.0569
0.2206 0.1857 0.0463
0.2632 0.1886 0.0364
0.3057 0.1891 0.0325
0.3463 0.1905 0.0328
0.3864 0.1916 0.0349
0.4254 0.1937 0.0361
0.4644 0.1953 0.0379
0.5030 0.1965 0.0404
0.5408 0.1978 0.0457
0.5779 0.1991 0.0529
0.6144 0.2005 0.0612
0.6502 0.2021 0.0707
0.6854 0.2040 0.0813
0.7198 0.2064 0.0928
0.7534 0.2093 0.1052
0.7863 0.2128 0.1184
0.8184 0.2168 0.1322
0.8496 0.2215 0.1467
0.8802 0.2268 0.1614
0.9101 0.2326 0.1760
0.9393 0.2390 0.1905
0.9699 0.2416 0.1992
1.0000 0.2421 0.2047
1.0000 0.2696 0.2396
1.0000 0.2892 0.2648
1.0000 0.3033 0.2836
1.0000 0.3159 0.3012
0.0000 0.1688 0.1251
0.0000 0.1719 0.1271
0.0000 0.1753 0.1291
0.0000 0.1813 0.1296
0.0000 0.1939 0.1191
0.0329 0.2074 0.0934
0.1094 0.2098 0.0739
0.1618 0.2078 0.0719
0.2036 0.2109 0.0681
0.2462 0.2170 0.0556
0.2892 0.2208 0.0439
0.3323 0.2224 0.0351
0.3746 0.2231 0.0330
0.4152 0.2248 0.0340
0.4553 0.2265 0.0365
0.4942 0.2290 0.0397
0.5325 0.2312 0.0455
0.5702 0.2332 0.0527
0.6071 0.2351 0.0611
0.6432 0.2369 0.0707
0.6787 0.2390 0.0814
0.7134 0.2413 0.0931
0.7474 0.2438 0.1056
0.7806 0.2468 0.1189
0.8130 0.2503 0.1329
0.8447 0.2542 0.1475
0.8755 0.2585 0.1623
0.9057 0.2633 0.1769
0.9351 0.2686 0.1913
0.9668 0.2692 0.1976
0.9992 0.2674 0.2002
1.0000 0.2931 0.2349
1.0000 0.3128 0.2611
1.0000 0.3273 0.2809
1.0000 0.3415 0.3012
0.0000 0.1943 0.1454
0.0000 0.1971 0.1471
0.0000 0.2001 0.1489
0.0000 0.2042 0.1513
0.0000 0.2134 0.1472
0.0000 0.2284 0.1310
0.0579 0.2403 0.1020
0.1338 0.2414 0.0845
0.1863 0.2394 0.0828
0.2288 0.2422 0.0796
0.2718 0.2488 0.0656
0.3153 0.2534 0.0525
0.3590 0.2560 0.0395
0.4024 0.2566 0.0336
0.4438 0.2584 0.0340
0.4840 0.2601 0.0393
0.5231 0.2625 0.0457
0.5612 0.2652 0.0527
0.5986 0.2677 0.0611
0.6353 0.2700 0.0708
0.6712 0.2723 0.0816
0.7063 0.2746 0.0934
0.7406 0.2771 0.1061
0.7741 0.2798 0.1195
0.8068 0.2828 0.1337
0.8388 0.2861 0.1484
0.8700 0.2898 0.1630
0.9005 0.2938 0.1776
0.9303 0.2983 0.1921
0.9631 0.2974 0.1956
0.9958 0.2955 0.1978
1.0000 0.3173 0.2291
1.0000 0.3372 0.2562
1.0000 0.3528 0.2777
1.0000 0.3681 0.3004
0.0000 0.2203 0.1660
0.0000 0.2228 0.1675
0.0000 0.2254 0.1691
0.0000 0.2291 0.1713
0.0000 0.2351 0.1722
0.0000 0.2468 0.1640
0.0000 0.2642 0.1403
0.0827 0.2738 0.1098
0.1585 0.2736 0.0952
0.2111 0.2716 0.0937
0.2541 0.2740 0.0914
0.2977 0.2811 0.0764
0.3414 0.2862 0.0623
0.3856 0.2896 0.0469
0.4291 0.2912 0.0386
0.4714 0.2918 0.0388
0.5116 0.2941 0.0439
0.5511 0.2956 0.0527
0.5891 0.2985 0.0612
0.6262 0.3013 0.0709
0.6626 0.3040 0.0818
0.6982 0.3066 0.0938
0.7330 0.3091 0.1066
0.7669 0.3117 0.1202
0.8000 0.3145 0.1344
0.8322 0.3174 0.1492
0.8638 0.3206 0.1638
0.8947 0.3240 0.1783
0.9256 0.3268 0.1902
0.9588 0.3257 0.1930
0.9918 0.3238 0.1948
1.0000 0.3417 0.2217
1.0000 0.3620 0.2497
1.0000 0.3793 0.2746
1.0000 0.3951 0.2986
0.0000 0.2468 0.1870
0.0000 0.2490 0.1883
0.0000 0.2514 0.1897
0.0000 0.2547 0.1917
0.0000 0.2591 0.1942
0.0000 0.2681 0.1907
0.0000 0.2818 0.1786
0.0000 0.3010 0.1471
0.1078 0.3077 0.1170
0.1834 0.3063 0.1059
0.2362 0.3043 0.1047
0.2797 0.3062 0.1035
0.3237 0.3136 0.0884
0.3675 0.3192 0.0749
0.4116 0.3231 0.0589
0.4551 0.3253 0.0481
0.4979 0.3259 0.0459
0.5386 0.3275 0.0509
0.5779 0.3295 0.0597
0.6164 0.3311 0.0711
0.6532 0.3342 0.0820
0.6892 0.3371 0.0940
0.7244 0.3398 0.1070
0.7589 0.3425 0.1208
0.7924 0.3452 0.1352
0.8251 0.3480 0.1499
0.8570 0.3508 0.1645
0.8882 0.3538 0.1789
0.9205 0.3551 0.1874
0.9541 0.3540 0.1898
0.9874 0.3522 0.1910
1.0000 0.3662 0.2127
1.0000 0.3868 0.2412
1.0000 0.4056 0.2699
1.0000 0.4219 0.2952
0.0000 0.2736 0.2082
0.0000 0.2756 0.2094
0.0000 0.2778 0.2107
0.0000 0.2808 0.2124
0.0000 0.2848 0.2147
0.0000 0.2907 0.2159
0.0000 0.3022 0.2086
0.0000 0.3178 0.1914
0.0301 0.3355 0.1566
0.1361 0.3408 0.1273
0.2087 0.3393 0.1171
0.2615 0.3373 0.1166
0.3053 0.3388 0.1165
0.3493 0.3461 0.1021
0.3930 0.3519 0.0886
0.4371 0.3562 0.0724
0.4806 0.3588 0.0600
0.5234 0.3600 0.0559
0.5650 0.3602 0.0599
0.6041 0.3626 0.0689
0.6424 0.3643 0.0809
0.6795 0.3662 0.0943
0.7152 0.3692 0.1073
0.7500 0.3721 0.1212
0.7840 0.3749 0.1358
0.8173 0.3776 0.1504
0.8497 0.3803 0.1650
0.8813 0.3830 0.1794
0.9150 0.3832 0.1840
0.9489 0.3822 0.1857
0.9825 0.3804 0.1862
1.0000 0.3905 0.2022
1.0000 0.4119 0.2332
1.0000 0.4313 0.2638
1.0000 0.4484 0.2902
0.0000 0.3008 0.2297
0.0000 0.3026 0.2308
0.0000 0.3046 0.2319
0.0000 0.3074 0.2335
0.0000 0.3110 0.2356
0.0000 0.3156 0.2381
0.0000 0.3245 0.2351
0.0000 0.3372 0.2255
0.0000 0.3548 0.2022
0.0674 0.3701 0.1659
0.1640 0.3739 0.1387
0.2342 0.3723 0.1292
0.2867 0.3701 0.1292
0.3308 0.3712 0.1298
0.3745 0.3782 0.1166
0.4182 0.3842 0.1036
0.4621 0.3888 0.0871
0.5057 0.3919 0.0744
0.5483 0.3935 0.0686
0.5901 0.3938 0.0711
0.6298 0.3950 0.0801
0.6678 0.3969 0.0923
0.7049 0.3984 0.1066
0.7406 0.4006 0.1214
0.7751 0.4035 0.1360
0.8087 0.4062 0.1506
0.8417 0.4089 0.1651
0.8744 0.4111 0.1774
0.9091 0.4109 0.1796
0.9434 0.4100 0.1807
0.9773 0.4084 0.1804
1.0000 0.4145 0.1901
1.0000 0.4366 0.2254
1.0000 0.4565 0.2563
1.0000 0.4743 0.2833
0.0000 0.3284 0.2514
0.0000 0.3300 0.2524
0.0000 0.3318 0.2534
0.0000 0.3344 0.2549
0.0000 0.3377 0.2568
0.0000 0.3419 0.2591
0.0000 0.3477 0.2606
0.0000 0.3590 0.2537
0.0000 0.3733 0.2401
0.0000 0.3923 0.2109
0.0995 0.4044 0.1748
0.1915 0.4068 0.1503
0.2595 0.4049 0.1418
0.3118 0.4026 0.1422
0.3561 0.4033 0.1436
0.3995 0.4100 0.1319
0.4430 0.4161 0.1196
0.4870 0.4210 0.1029
0.5303 0.4243 0.0902
0.5728 0.4262 0.0835
0.6144 0.4270 0.0848
0.6549 0.4266 0.0929
0.6926 0.4288 0.1053
0.7294 0.4304 0.1198
0.7654 0.4316 0.1355
0.7998 0.4339 0.1504
0.8332 0.4366 0.1648
0.8673 0.4381 0.1726
0.9025 0.4381 0.1741
0.9373 0.4375 0.1743
0.9718 0.4361 0.1731
1.0000 0.4385 0.1809
1.0000 0.4606 0.2170
1.0000 0.4808 0.2475
1.0000 0.4994 0.2745
0.0000 0.3560 0.2732
0.0000 0.3575 0.2741
0.0000 0.3592 0.2750
0.0000 0.3615 0.2764
0.0000 0.3646 0.2781
0.0000 0.3684 0.2802
0.0000 0.3730 0.2827
0.0000 0.3816 0.2800
0.0000 0.3937 0.2713
0.0000 0.4097 0.2530
0.0000 0.4299 0.2172
0.1294 0.4384 0.1834
0.2188 0.4393 0.1624
0.2849 0.4372 0.1548
0.3368 0.4348 0.1557
0.3811 0.4351 0.1580
0.4244 0.4413 0.1479
0.4678 0.4475 0.1355
0.5115 0.4526 0.1195
0.5545 0.4561 0.1071
0.5968 0.4583 0.1002
0.6382 0.4594 0.1005
0.6786 0.4593 0.1075
0.7171 0.4598 0.1195
0.7536 0.4615 0.1336
0.7893 0.4628 0.1485
0.8242 0.4637 0.1640
0.8600 0.4646 0.1666
0.8956 0.4649 0.1671
0.9308 0.4644 0.1662
0.9654 0.4635 0.1655
0.9967 0.4641 0.1766
1.0000 0.4838 0.2087
1.0000 0.5044 0.2381
1.0000 0.5235 0.2642
0.0000 0.3836 0.2949
0.0000 0.3850 0.2957
0.0000 0.3865 0.2966
0.0000 0.3886 0.2978
0.0000 0.3914 0.2994
0.0000 0.3950 0.3013
0.0000 0.3992 0.3036
0.0000 0.4048 0.3053
0.0000 0.4157 0.2986
0.0000 0.4289 0.2874
0.0000 0.4464 0.2641
0.0138 0.4666 0.2224
0.1585 0.4720 0.1919
0.2460 0.4713 0.1750
0.3102 0.4691 0.1683
0.3618 0.4666 0.1697
0.4060 0.4664 0.1730
0.4490 0.4722 0.1646
0.4923 0.4785 0.1520
0.5356 0.4836 0.1367
0.5784 0.4873 0.1247
0.6206 0.4897 0.1182
0.6617 0.4910 0.1177
0.7018 0.4912 0.1235
0.7410 0.4904 0.1337
0.7777 0.4917 0.1469
0.8140 0.4926 0.1565
0.8514 0.4922 0.1577
0.8884 0.4911 0.1583
0.9240 0.4909 0.1561
0.9569 0.4915 0.1653
0.9886 0.4922 0.1765
1.0000 0.5061 0.2008
1.0000 0.5268 0.2283
1.0000 0.5466 0.2526
0.0000 0.4112 0.3166
0.0000 0.4124 0.3173
0.0000 0.4138 0.3181
0.0000 0.4158 0.3192
0.0000 0.4183 0.3206
0.0000 0.4216 0.3224
0.0000 0.4255 0.3245
0.0000 0.4301 0.3270
0.0000 0.4384 0.3245
0.0000 0.4501 0.3163
0.0000 0.4647 0.3014
0.0000 0.4831 0.2732
0.0789 0.4992 0.2338
0.1874 0.5049 0.2006
0.2730 0.5029 0.1882
0.3355 0.5006 0.1825
0.3866 0.4979 0.1843
0.4307 0.4972 0.1886
0.4734 0.5026 0.1820
0.5165 0.5089 0.1688
0.5596 0.5141 0.1543
0.6021 0.5179 0.1431
0.6440 0.5204 0.1368
0.6849 0.5218 0.1353
0.7250 0.5221 0.1395
0.7640 0.5216 0.1480
0.8035 0.5205 0.1483
0.8415 0.5207 0.1467
0.8790 0.5200 0.1446
0.9144 0.5193 0.1528
0.9481 0.5188 0.1651
0.9802 0.5196 0.1762
1.0000 0.5278 0.1941
1.0000 0.5485 0.2192
1.0000 0.5685 0.2406
0.0000 0.4386 0.3381
0.0000 0.4397 0.3388
0.0000 0.4410 0.3395
0.0000 0.4428 0.3405
0.0000 0.4452 0.3419
0.0000 0.4482 0.3435
0.0000 0.4518 0.3454
0.0000 0.4561 0.3477
0.0000 0.4614 0.3495
0.0000 0.4721 0.3430
0.0000 0.4845 0.3330
0.0000 0.5005 0.3138
0.0000 0.5199 0.2805
0.1224 0.5317 0.2443
0.2193 0.5362 0.2132
0.2999 0.5340 0.2020
0.3608 0.5315 0.1973
0.4115 0.5287 0.1997
0.4554 0.5275 0.2050
0.4977 0.5323 0.2002
0.5406 0.5388 0.1859
0.5833 0.5439 0.1723
0.6257 0.5478 0.1616
0.6673 0.5503 0.1548
0.7082 0.5518 0.1526
0.7487 0.5522 0.1498
0.7898 0.5514 0.1420
0.8304 0.5493 0.1353
0.8678 0.5486 0.1402
0.9030 0.5486 0.1508
0.9374 0.5482 0.1624
0.9710 0.5474 0.1747
1.0000 0.5491 0.1886
1.0000 0.5695 0.2116
1.0000 0.5896 0.2294
0.0000 0.4659 0.3596
0.0000 0.4670 0.3602
0.0000 0.4681 0.3609
0.0000 0.4698 0.3618
0.0000 0.4720 0.3630
0.0000 0.4748 0.3646
0.0000 0.4781 0.3664
0.0000 0.4821 0.3684
0.0000 0.4867 0.3708
0.0000 0.4946 0.3686
0.0000 0.5059 0.3607
0.0000 0.5193 0.3481
0.0000 0.5364 0.3248
0.0000 0.5566 0.2857
0.1577 0.5640 0.2542
0.2501 0.5670 0.2266
0.3266 0.5646 0.2166
0.3862 0.5619 0.2129
0.4363 0.5589 0.2157
0.4799 0.5573 0.2220
0.5218 0.5617 0.2178
0.5645 0.5681 0.2031
0.6071 0.5732 0.1899
0.6494 0.5770 0.1793
0.6907 0.5795 0.1720
0.7330 0.5811 0.1566
0.7748 0.5814 0.1412
0.8149 0.5807 0.1387
0.8536 0.5791 0.1430
0.8913 0.5768 0.1510
0.9262 0.5769 0.1612
0.9602 0.5765 0.1723
0.9933 0.5757 0.1843
1.0000 0.5905 0.2051
1.0000 0.6100 0.2202
0.0000 0.4931 0.3810
0.0000 0.4941 0.3816
0.0000 0.4951 0.3822
0.0000 0.4967 0.3831
0.0000 0.4987 0.3842
0.0000 0.5013 0.3856
0.0000 0.5044 0.3872
0.0000 0.5081 0.3892
0.0000 0.5124 0.3914
0.0000 0.5175 0.3934
0.0000 0.5278 0.3869
0.0000 0.5397 0.3775
0.0000 0.5544 0.3615
0.0000 0.5723 0.3341
0.0000 0.5933 0.2886
0.1908 0.5958 0.2644
0.2802 0.5972 0.2407
0.3533 0.5946 0.2320
0.4116 0.5917 0.2291
0.4611 0.5886 0.2325
0.5044 0.5865 0.2397
0.5462 0.5906 0.2340
0.5887 0.5968 0.2197
0.6312 0.6018 0.2067
0.6738 0.6058 0.1900
0.7165 0.6086 0.1697
0.7579 0.6100 0.1601
0.7982 0.6104 0.1542
0.8377 0.6098 0.1527
0.8762 0.6083 0.1557
0.9136 0.6061 0.1622
0.9492 0.6045 0.1716
0.9828 0.6041 0.1824
1.0000 0.6124 0.1988
1.0000 0.6310 0.2120
0.0000 0.5201 0.4023
0.0000 0.5210 0.4028
0.0000 0.5220 0.4034
0.0000 0.5235 0.4042
0.0000 0.5253 0.4052
0.0000 0.5277 0.4065
0.0000 0.5307 0.4081
0.0000 0.5341 0.4099
0.0000 0.5381 0.4119
0.0000 0.5426 0.4142
0.0000 0.5502 0.4122
0.0000 0.5611 0.4045
0.0000 0.5735 0.3935
0.0000 0.5894 0.3735
0.0000 0.6081 0.3417
0.0884 0.6243 0.2999
0.2228 0.6270 0.2748
0.3099 0.6268 0.2556
0.3800 0.6240 0.2481
0.4372 0.6209 0.2460
0.4861 0.6178 0.2487
0.5292 0.6153 0.2553
0.5708 0.6190 0.2495
0.6134 0.6252 0.2334
0.6563 0.6305 0.2143
0.6986 0.6344 0.1993
0.7403 0.6370 0.1863
0.7812 0.6384 0.1763
0.8213 0.6388 0.1697
0.8604 0.6383 0.1669
0.8985 0.6369 0.1687
0.9356 0.6348 0.1740
0.9717 0.6320 0.1822
1.0000 0.6340 0.1946
1.0000 0.6519 0.2082
0.0000 0.5469 0.4235
0.0000 0.5478 0.4240
0.0000 0.5488 0.4245
0.0000 0.5501 0.4252
0.0000 0.5519 0.4262
0.0000 0.5541 0.4274
0.0000 0.5568 0.4288
0.0000 0.5600 0.4305
0.0000 0.5637 0.4324
0.0000 0.5680 0.4346
0.0000 0.5728 0.4368
0.0000 0.5829 0.4303
0.0000 0.5943 0.4214
0.0000 0.6077 0.4077
0.0000 0.6244 0.3842
0.0000 0.6437 0.3478
0.1434 0.6549 0.3114
0.2541 0.6575 0.2855
0.3397 0.6557 0.2711
0.4073 0.6527 0.2645
0.4629 0.6500 0.2605
0.5114 0.6470 0.2619
0.5543 0.6439 0.2689
0.5960 0.6476 0.2623
0.6385 0.6536 0.2465
0.6809 0.6586 0.2305
0.7226 0.6623 0.2156
0.7641 0.6648 0.2026
0.8045 0.6663 0.1921
0.8443 0.6667 0.1851
0.8829 0.6662 0.1815
0.9206 0.6649 0.1820
0.9574 0.6629 0.1862
0.9931 0.6602 0.1933
1.0000 0.6723 0.2087
0.0000 0.5737 0.4446
0.0000 0.5745 0.4451
0.0000 0.5753 0.4455
0.0000 0.5766 0.4462
0.0000 0.5782 0.4471
0.0000 0.5803 0.4482
0.0000 0.5829 0.4496
0.0000 0.5859 0.4511
0.0000 0.5894 0.4529
0.0000 0.5933 0.4550
0.0000 0.5978 0.4572
0.0000 0.6050 0.4554
0.0000 0.6155 0.4479
0.0000 0.6275 0.4375
0.0000 0.6420 0.4204
0.0000 0.6593 0.3934
0.0000 0.6793 0.3517
0.1887 0.6849 0.3227
0.2869 0.6871 0.2970
0.3700 0.6840 0.2868
0.4343 0.6814 0.2783
0.4889 0.6789 0.2738
0.5372 0.6760 0.2752
0.5802 0.6729 0.2825
0.6216 0.6760 0.2766
0.6636 0.6814 0.2620
0.7055 0.6862 0.2462
0.7468 0.6898 0.2314
0.7878 0.6922 0.2185
0.8278 0.6936 0.2078
0.8671 0.6940 0.2004
0.9054 0.6936 0.1962
0.9427 0.6924 0.1955
0.9790 0.6904 0.1988
1.0000 0.6947 0.2119
0.0000 0.6002 0.4656
0.0000 0.6010 0.4660
0.0000 0.6018 0.4665
0.0000 0.6029 0.4671
0.0000 0.6045 0.4679
0.0000 0.6064 0.4690
0.0000 0.6088 0.4703
0.0000 0.6116 0.4717
0.0000 0.6149 0.4734
0.0000 0.6186 0.4753
0.0000 0.6228 0.4774
0.0000 0.6274 0.4797
0.0000 0.6372 0.4733
0.0000 0.6482 0.4646
0.0000 0.6606 0.4527
0.0000 0.6763 0.4317
0.0000 0.6943 0.4005
0.0194 0.7142 0.3540
0.2307 0.7141 0.3345
0.3234 0.7149 0.3127
0.4003 0.7123 0.3023
0.4618 0.7104 0.2920
0.5154 0.7079 0.2872
0.5634 0.7048 0.2886
0.6062 0.7015 0.2956
0.6474 0.7040 0.2905
0.6888 0.7088 0.2772
0.7302 0.7134 0.2616
0.7711 0.7168 0.2470
0.8116 0.7192 0.2341
0.8511 0.7205 0.2233
0.8899 0.7209 0.2155
0.9278 0.7205 0.2109
0.9646 0.7193 0.2093
1.0000 0.7177 0.2120
0.0000 0.6266 0.4865
0.0000 0.6273 0.4869
0.0000 0.6281 0.4873
0.0000 0.6291 0.4879
0.0000 0.6306 0.4887
0.0000 0.6324 0.4897
0.0000 0.6347 0.4908
0.0000 0.6373 0.4922
0.0000 0.6404 0.4938
0.0000 0.6439 0.4956
0.0000 0.6478 0.4975
0.0000 0.6522 0.4996
0.0000 0.6591 0.4980
0.0000 0.6694 0.4905
0.0000 0.6809 0.4804
0.0000 0.6944 0.4654
0.0000 0.7109 0.4414
0.0000 0.7297 0.4058
0.1302 0.7433 0.3664
0.2703 0.7434 0.3467
0.3578 0.7432 0.3272
0.4294 0.7412 0.3147
0.4894 0.7391 0.3048
0.5423 0.7364 0.3002
0.5897 0.7332 0.3016
0.6325 0.7298 0.3084
0.6733 0.7316 0.3041
0.7141 0.7359 0.2921
0.7549 0.7402 0.2767
0.7955 0.7435 0.2623
0.8353 0.7458 0.2494
0.8744 0.7470 0.2387
0.9126 0.7474 0.2304
0.9500 0.7470 0.2255
0.9864 0.7459 0.2234
0.0000 0.6528 0.5072
0.0000 0.6535 0.5076
0.0000 0.6542 0.5080
0.0000 0.6552 0.5085
0.0000 0.6566 0.5092
0.0000 0.6583 0.5102
0.0000 0.6604 0.5112
0.0000 0.6629 0.5125
0.0000 0.6658 0.5140
0.0000 0.6692 0.5156
0.0000 0.6729 0.5175
0.0000 0.6771 0.5195
0.0000 0.6817 0.5217
0.0000 0.6912 0.5156
0.0000 0.7020 0.5070
0.0000 0.7141 0.4956
0.0000 0.7287 0.4771
0.0000 0.7459 0.4496
0.0000 0.7654 0.4088
0.1899 0.7727 0.3774
0.3074 0.7724 0.3580
0.3908 0.7714 0.3407
0.4586 0.7697 0.3268
0.5172 0.7674 0.3173
0.5693 0.7645 0.3129
