luts/Fujifilm Classic Negative - Vivid Green.cube
#Created by: Pixelmator Pro
#Color profile: "sRGB IEC61966-2.1"
TITLE "Fujifilm Classic Negative - Vivid Green"
#Data domain
#LUT size
LUT_3D_SIZE 5
DOMAIN_MIN 0.000000 0.000000 0.000000
DOMAIN_MAX 0.823529 0.823529 0.823529
0.0372 0.0412 0.0440
0.2415 0.0000 0.0331
0.4802 0.0000 0.0811
0.7305 0.0000 0.1184
0.9524 0.0909 0.1877
0.0000 0.1688 0.1251
0.1618 0.2078 0.0719
0.4553 0.2265 0.0365
0.7134 0.2413 0.0931
0.9351 0.2686 0.1913
0.0000 0.3560 0.2732
0.0000 0.3816 0.2800
0.3368 0.4348 0.1557
0.6382 0.4594 0.1005
0.8956 0.4649 0.1671
0.0000 0.5469 0.4235
0.0000 0.5600 0.4305
0.0000 0.6244 0.3842
0.5114 0.6470 0.2619
0.8045 0.6663 0.1921
0.0000 0.7315 0.5688
0.0000 0.7403 0.5732
0.0000 0.7677 0.5817
0.1998 0.8589 0.4294
0.6965 0.8436 0.3506
0.0000 0.0155 0.2147
0.2264 0.0176 0.2377
0.4918 0.0000 0.2713
0.7432 0.0000 0.2888
0.9565 0.1140 0.3194
0.0000 0.2117 0.2165
0.2140 0.2227 0.2360
0.5004 0.2278 0.2516
0.7353 0.2410 0.2727
0.9438 0.2735 0.3150
0.0000 0.3859 0.3037
0.0000 0.4101 0.3171
0.3635 0.4449 0.2510
0.6591 0.4584 0.2486
0.9044 0.4687 0.2896
0.0000 0.5635 0.4402
0.0000 0.5766 0.4472
0.0000 0.6303 0.4278
0.5257 0.6494 0.3209
0.8154 0.6655 0.2840
0.0000 0.7417 0.5790
0.0000 0.7504 0.5834
0.0000 0.7760 0.5949
0.2317 0.8574 0.4713
0.7056 0.8425 0.3967
0.0000 0.0703 0.4211
0.2084 0.0363 0.4473
0.4602 0.0705 0.4807
0.7300 0.1027 0.5161
0.9522 0.1514 0.5231
0.0000 0.2319 0.4276
0.1867 0.2208 0.4690
0.4616 0.2416 0.4862
0.7250 0.2713 0.5131
0.9493 0.2856 0.5202
0.0000 0.4379 0.4396
0.0000 0.4609 0.4654
0.4311 0.4618 0.4683
0.7161 0.4688 0.4847
0.9461 0.4663 0.4901
0.0000 0.6130 0.4944
0.0000 0.6267 0.5025
0.1255 0.6620 0.5223
0.5746 0.6616 0.4599
0.8538 0.6611 0.4530
0.0000 0.7723 0.6112
0.0000 0.7809 0.6155
0.0000 0.8064 0.6262
0.3097 0.8528 0.5820
0.7337 0.8406 0.5068
0.0000 0.1439 0.6398
0.1809 0.0815 0.6768
0.4340 0.1347 0.6787
0.6779 0.1914 0.7039
0.9338 0.2036 0.7307
0.0000 0.2661 0.6444
0.1598 0.2416 0.6846
0.4322 0.2573 0.6874
0.6758 0.3035 0.7024
0.9321 0.3099 0.7282
0.0000 0.4565 0.6487
0.1311 0.4581 0.6751
0.4097 0.4556 0.6996
0.6765 0.4709 0.7042
0.9250 0.4857 0.7169
0.0000 0.6528 0.6516
0.0000 0.6649 0.6648
0.2976 0.6828 0.6873
0.6507 0.6673 0.6740
0.9131 0.6611 0.6761
0.0000 0.8256 0.6742
0.0000 0.8342 0.6787
0.0000 0.8603 0.6906
0.4685 0.8542 0.7144
0.7901 0.8443 0.6518
0.0000 0.2134 0.8551
0.1451 0.1517 0.8926
0.4211 0.1852 0.8880
0.6490 0.2418 0.8820
0.8838 0.2575 0.9024
0.0000 0.3058 0.8572
0.1425 0.2772 0.8903
0.4202 0.2919 0.8872
0.6495 0.3234 0.8822
0.8810 0.3430 0.8983
0.0000 0.4750 0.8594
0.1406 0.4685 0.8826
0.4002 0.4590 0.9026
0.6509 0.4698 0.8918
0.8765 0.4985 0.8892
0.0000 0.6615 0.8571
0.0000 0.6641 0.8783
0.4008 0.6626 0.8748
0.6368 0.6525 0.8935
0.8750 0.6614 0.8775
0.0000 0.8481 0.8445
0.0000 0.8552 0.8522
0.0000 0.8764 0.8755
0.5676 0.8619 0.8663
0.8604 0.8374 0.8429
