luts/Ofilmpus.cube
#Created by: Pixelmator Pro
#Color profile: "Display P3"
TITLE "Ofilpus"
#Data domain
#LUT size
LUT_3D_SIZE 5
DOMAIN_MIN 0.000000 0.000000 0.000000
DOMAIN_MAX 0.823529 0.823529 0.823529
0.0604 0.0681 0.0683
0.3935 0.0717 0.0835
0.7156 0.2297 0.1968
0.8815 0.5063 0.4201
0.8836 0.5616 0.4915
0.1209 0.3628 0.1124
0.4749 0.4274 0.2495
0.7186 0.4476 0.2852
0.8631 0.5576 0.4331
0.8852 0.6064 0.5097
0.3790 0.6445 0.2453
0.5269 0.6522 0.3000
0.6834 0.6591 0.4819
0.7970 0.6579 0.5091
0.8885 0.6809 0.5318
0.5525 0.7750 0.4058
0.6002 0.7717 0.4192
0.6833 0.7691 0.4747
0.7650 0.7462 0.5815
0.8462 0.7420 0.6077
0.6679 0.8866 0.5463
0.6871 0.8811 0.5448
0.7260 0.8672 0.5469
0.7713 0.8403 0.5768
0.8247 0.8087 0.6403
0.0810 0.1728 0.2395
0.4274 0.1471 0.4116
0.6991 0.2800 0.4155
0.8622 0.4868 0.4799
0.8834 0.5645 0.5229
0.1279 0.3552 0.3271
0.4476 0.4709 0.4357
0.6873 0.4662 0.4346
0.8405 0.5419 0.4847
0.8845 0.5997 0.5392
0.3270 0.6343 0.4015
0.4955 0.6452 0.4193
0.6791 0.6622 0.5304
0.7985 0.6553 0.5341
0.8881 0.6777 0.5601
0.5295 0.7664 0.4675
0.5830 0.7643 0.4745
0.6754 0.7630 0.5124
0.7629 0.7464 0.5991
0.8458 0.7413 0.6166
0.6520 0.8783 0.5631
0.6730 0.8734 0.5617
0.7160 0.8607 0.5633
0.7681 0.8393 0.5890
0.8237 0.8087 0.6491
0.1385 0.3612 0.4747
0.2890 0.3475 0.6271
0.6668 0.3724 0.6354
0.8120 0.4854 0.6209
0.8858 0.5844 0.6093
0.1695 0.4341 0.4697
0.2830 0.4801 0.5658
0.6581 0.4966 0.6302
0.7983 0.5466 0.6185
0.8858 0.6107 0.6125
0.3066 0.6082 0.5528
0.4424 0.6200 0.5691
0.6502 0.6701 0.6291
0.7745 0.6491 0.6158
0.8875 0.6692 0.6224
0.4519 0.7381 0.5821
0.5229 0.7398 0.5821
0.6435 0.7473 0.5938
0.7554 0.7470 0.6430
0.8464 0.7376 0.6409
0.6041 0.8559 0.6063
0.6322 0.8525 0.6052
0.6875 0.8437 0.6061
0.7562 0.8335 0.6226
0.8204 0.8088 0.6740
0.2143 0.5277 0.6474
0.2272 0.5496 0.7315
0.6085 0.5131 0.7720
0.7720 0.5125 0.7454
0.8915 0.6037 0.7233
0.2355 0.5549 0.6333
0.2501 0.5816 0.6930
0.5869 0.5676 0.7510
0.7638 0.5601 0.7383
0.8822 0.6200 0.7190
0.2772 0.6192 0.6130
0.2906 0.6320 0.6307
0.5450 0.6483 0.6860
0.7452 0.6455 0.7228
0.8585 0.6626 0.7079
0.4091 0.7205 0.6617
0.4868 0.7202 0.6634
0.5998 0.7243 0.6747
0.7286 0.7488 0.7116
0.8325 0.7291 0.6982
0.5028 0.8183 0.6782
0.5530 0.8176 0.6766
0.6315 0.8157 0.6743
0.7232 0.8163 0.6812
0.8136 0.8090 0.7143
0.3069 0.6362 0.7681
0.3520 0.6557 0.8239
0.5942 0.6611 0.8701
0.7506 0.6353 0.8736
0.8547 0.6008 0.8383
0.3162 0.6469 0.7504
0.3438 0.6619 0.7982
0.5854 0.6832 0.8696
0.7431 0.6546 0.8711
0.8479 0.6188 0.8315
0.3409 0.6680 0.7099
0.3568 0.6795 0.7363
0.5123 0.7114 0.8332
0.7046 0.6852 0.8397
0.8309 0.6628 0.8148
0.3951 0.7207 0.7050
0.4031 0.7258 0.7124
0.4926 0.7364 0.7308
0.6561 0.7354 0.7697
0.8085 0.7246 0.7941
0.4718 0.8042 0.7421
0.5122 0.8071 0.7452
0.6026 0.8015 0.7453
0.6865 0.7991 0.7519
0.7925 0.8116 0.7801
