luts/Ofilmpus.cube
#Created by: Pixelmator Pro
#Color profile: "Display P3"
TITLE "Ofilpus"
#Data domain
DOMAIN_MIN 0.0000 0.0000 0.0000
DOMAIN_MAX 1.0000 1.0000 1.0000
#LUT size
LUT_3D_SIZE 35
0.0604 0.0681 0.0683
0.1111 0.0694 0.0761
0.1466 0.0678 0.0759
0.1886 0.0643 0.0755
0.2378 0.0606 0.0738
0.2878 0.0640 0.0777
0.3393 0.0676 0.0806
0.3935 0.0717 0.0835
0.4489 0.0757 0.0854
0.5044 0.0844 0.0908
0.5582 0.1098 0.1069
0.6071 0.1365 0.1254
0.6492 0.1646 0.1464
0.6851 0.1961 0.1705
0.7156 0.2297 0.1968
0.7429 0.2655 0.2252
0.7702 0.3004 0.2518
0.7968 0.3380 0.2809
0.8222 0.3793 0.3135
0.8467 0.4223 0.3474
0.8696 0.4733 0.3895
0.8815 0.5063 0.4201
0.8819 0.5199 0.4372
0.8823 0.5310 0.4513
0.8827 0.5401 0.4629
0.8830 0.5474 0.4723
0.8832 0.5532 0.4802
0.8834 0.5579 0.4865
0.8836 0.5616 0.4915
0.8837 0.5645 0.4953
0.8838 0.5664 0.4980
0.8838 0.5676 0.4997
0.8838 0.5680 0.5003
0.8838 0.5696 0.5026
0.8838 0.5722 0.5060
0.0584 0.1065 0.0736
0.1197 0.1201 0.0917
0.1582 0.1270 0.0989
0.2094 0.1229 0.0824
0.2606 0.1195 0.0760
0.3128 0.1181 0.0732
0.3649 0.1191 0.0732
0.4173 0.1220 0.0769
0.4691 0.1282 0.0863
0.5196 0.1387 0.0997
0.5686 0.1530 0.1155
0.6133 0.1720 0.1336
0.6525 0.1951 0.1547
0.6867 0.2225 0.1787
0.7161 0.2527 0.2045
0.7424 0.2849 0.2322
0.7693 0.3166 0.2576
0.7955 0.3514 0.2856
0.8204 0.3894 0.3170
0.8446 0.4304 0.3502
0.8673 0.4779 0.3904
0.8817 0.5126 0.4225
0.8822 0.5253 0.4395
0.8826 0.5358 0.4536
0.8829 0.5444 0.4650
0.8831 0.5511 0.4743
0.8834 0.5565 0.4820
0.8836 0.5609 0.4882
0.8837 0.5644 0.4930
0.8838 0.5670 0.4967
0.8838 0.5688 0.4994
0.8838 0.5698 0.5010
0.8838 0.5700 0.5016
0.8838 0.5716 0.5039
0.8838 0.5741 0.5073
0.0640 0.1364 0.0800
0.1200 0.1503 0.0827
0.1647 0.1584 0.1079
0.2123 0.1687 0.1219
0.2716 0.1659 0.0997
0.3313 0.1596 0.0802
0.3845 0.1568 0.0778
0.4353 0.1588 0.0828
0.4839 0.1644 0.0934
0.5317 0.1733 0.1072
0.5770 0.1856 0.1234
0.6187 0.2023 0.1421
0.6558 0.2238 0.1629
0.6881 0.2484 0.1872
0.7162 0.2754 0.2128
0.7417 0.3048 0.2397
0.7686 0.3329 0.2635
0.7942 0.3649 0.2907
0.8185 0.3999 0.3204
0.8424 0.4387 0.3532
0.8650 0.4828 0.3912
0.8820 0.5192 0.4247
0.8825 0.5310 0.4419
0.8828 0.5409 0.4559
0.8830 0.5488 0.4672
0.8832 0.5550 0.4764
0.8835 0.5601 0.4840
0.8837 0.5642 0.4900
0.8838 0.5674 0.4948
0.8838 0.5698 0.4983
0.8838 0.5713 0.5009
0.8838 0.5722 0.5024
0.8838 0.5722 0.5029
0.8838 0.5739 0.5054
0.8838 0.5761 0.5086
0.0717 0.1716 0.0876
0.1226 0.1831 0.0811
0.1684 0.1950 0.0930
0.2226 0.2049 0.1260
0.2774 0.2205 0.1503
0.3356 0.2185 0.1287
0.3984 0.2126 0.1044
0.4526 0.2076 0.0964
0.5017 0.2070 0.1040
0.5459 0.2139 0.1176
0.5873 0.2251 0.1344
0.6258 0.2399 0.1533
0.6597 0.2583 0.1748
0.6895 0.2797 0.1986
0.7162 0.3037 0.2239
0.7415 0.3285 0.2484
0.7673 0.3537 0.2712
0.7920 0.3823 0.2973
0.8159 0.4136 0.3251
0.8395 0.4498 0.3569
0.8619 0.4895 0.3921
0.8824 0.5277 0.4279
0.8828 0.5387 0.4449
0.8830 0.5480 0.4585
0.8831 0.5552 0.4697
0.8834 0.5609 0.4790
0.8838 0.5654 0.4866
0.8838 0.5688 0.4925
0.8838 0.5715 0.4971
0.8838 0.5736 0.5006
0.8838 0.5749 0.5030
0.8838 0.5754 0.5043
0.8838 0.5752 0.5047
0.8838 0.5770 0.5074
0.8838 0.5790 0.5105
0.0809 0.2140 0.0948
0.1286 0.2232 0.0809
0.1728 0.2351 0.0871
0.2282 0.2473 0.1096
0.2883 0.2587 0.1482
0.3457 0.2792 0.1859
0.3986 0.2788 0.1654
0.4575 0.2742 0.1437
0.5119 0.2693 0.1318
0.5587 0.2673 0.1345
0.5986 0.2715 0.1483
0.6329 0.2825 0.1676
0.6637 0.2985 0.1893
0.6912 0.3164 0.2131
0.7163 0.3364 0.2377
0.7413 0.3560 0.2587
0.7660 0.3780 0.2805
0.7894 0.4031 0.3056
0.8129 0.4312 0.3322
0.8360 0.4631 0.3616
0.8583 0.4974 0.3939
0.8796 0.5341 0.4296
0.8830 0.5482 0.4484
0.8830 0.5566 0.4615
0.8833 0.5634 0.4726
0.8836 0.5688 0.4818
0.8838 0.5729 0.4895
0.8838 0.5761 0.4954
0.8838 0.5784 0.5001
0.8838 0.5798 0.5035
0.8838 0.5802 0.5058
0.8838 0.5798 0.5069
0.8838 0.5792 0.5071
0.8838 0.5810 0.5101
0.8838 0.5827 0.5129
0.0924 0.2618 0.1015
0.1366 0.2690 0.0829
0.1818 0.2782 0.0886
0.2340 0.2932 0.0985
0.2946 0.3032 0.1320
0.3552 0.3156 0.1758
0.4107 0.3387 0.2255
0.4579 0.3408 0.2104
0.5097 0.3377 0.1912
0.5623 0.3334 0.1748
0.6043 0.3312 0.1761
0.6395 0.3329 0.1873
0.6677 0.3420 0.2070
0.6928 0.3562 0.2307
0.7169 0.3712 0.2519
0.7409 0.3867 0.2714
0.7640 0.4054 0.2925
0.7866 0.4270 0.3160
0.8093 0.4512 0.3408
0.8317 0.4783 0.3675
0.8535 0.5072 0.3957
0.8744 0.5408 0.4302
0.8831 0.5591 0.4524
0.8834 0.5669 0.4651
0.8837 0.5731 0.4760
0.8838 0.5780 0.4851
0.8840 0.5818 0.4925
0.8841 0.5847 0.4984
0.8841 0.5867 0.5031
0.8842 0.5879 0.5065
0.8842 0.5883 0.5089
0.8841 0.5879 0.5102
0.8841 0.5868 0.5105
0.8841 0.5877 0.5136
0.8841 0.5882 0.5160
0.1056 0.3120 0.1076
0.1492 0.3178 0.0885
0.1959 0.3235 0.0939
0.2435 0.3363 0.1037
0.3008 0.3507 0.1212
0.3613 0.3600 0.1608
0.4178 0.3726 0.2095
0.4692 0.3966 0.2694
0.5112 0.4009 0.2617
0.5556 0.3996 0.2454
0.5999 0.3967 0.2322
0.6385 0.3940 0.2275
0.6692 0.3936 0.2348
0.6949 0.3980 0.2486
0.7179 0.4076 0.2667
0.7405 0.4201 0.2853
0.7618 0.4353 0.3065
0.7837 0.4529 0.3280
0.8053 0.4730 0.3507
0.8267 0.4950 0.3744
0.8482 0.5197 0.3999
0.8692 0.5487 0.4314
0.8837 0.5715 0.4575
0.8840 0.5783 0.4694
0.8842 0.5837 0.4796
0.8844 0.5881 0.4882
0.8845 0.5916 0.4954
0.8846 0.5942 0.5014
0.8846 0.5961 0.5062
0.8847 0.5971 0.5098
0.8847 0.5974 0.5123
0.8846 0.5969 0.5137
0.8846 0.5963 0.5147
0.8846 0.5971 0.5178
0.8846 0.5975 0.5203
0.1209 0.3628 0.1124
0.1680 0.3671 0.0984
0.2134 0.3701 0.1032
0.2581 0.3808 0.1125
0.3101 0.3948 0.1256
0.3676 0.4066 0.1518
0.4234 0.4151 0.1963
0.4749 0.4274 0.2495
0.5209 0.4489 0.3089
0.5573 0.4576 0.3144
0.5937 0.4573 0.3016
0.6295 0.4546 0.2907
0.6643 0.4505 0.2799
0.6929 0.4472 0.2789
0.7186 0.4476 0.2852
0.7399 0.4556 0.3024
0.7601 0.4672 0.3218
0.7804 0.4804 0.3411
0.8010 0.4957 0.3610
0.8216 0.5128 0.3820
0.8427 0.5340 0.4062
0.8631 0.5576 0.4331
0.8831 0.5833 0.4625
0.8846 0.5902 0.4745
0.8848 0.5950 0.4839
0.8849 0.5990 0.4920
0.8850 0.6022 0.4990
0.8851 0.6047 0.5049
0.8852 0.6064 0.5097
0.8852 0.6074 0.5134
0.8852 0.6077 0.5161
0.8852 0.6073 0.5176
0.8851 0.6071 0.5195
0.8851 0.6076 0.5226
0.8851 0.6078 0.5251
0.1388 0.4134 0.1162
0.1932 0.4159 0.1116
0.2351 0.4177 0.1163
0.2772 0.4255 0.1252
0.3241 0.4371 0.1377
0.3754 0.4506 0.1547
0.4292 0.4599 0.1896
0.4793 0.4673 0.2386
0.5252 0.4784 0.2913
0.5640 0.4973 0.3495
0.5945 0.5069 0.3641
0.6242 0.5063 0.3514
0.6541 0.5030 0.3385
0.6839 0.4991 0.3275
0.7125 0.4949 0.3210
0.7356 0.4941 0.3263
0.7579 0.4994 0.3378
0.7769 0.5086 0.3554
0.7964 0.5199 0.3730
0.8166 0.5336 0.3922
0.8365 0.5494 0.4130
0.8564 0.5674 0.4355
0.8765 0.5902 0.4637
0.8852 0.6026 0.4805
0.8853 0.6067 0.4887
0.8855 0.6101 0.4962
0.8856 0.6130 0.5028
0.8857 0.6152 0.5083
0.8858 0.6168 0.5129
0.8858 0.6178 0.5166
0.8858 0.6182 0.5193
0.8858 0.6179 0.5210
0.8857 0.6181 0.5238
0.8857 0.6185 0.5270
0.8857 0.6186 0.5297
0.1697 0.4617 0.1250
0.2231 0.4632 0.1285
0.2597 0.4647 0.1328
0.2997 0.4693 0.1405
0.3417 0.4785 0.1530
0.3875 0.4900 0.1693
0.4368 0.5023 0.1921
0.4846 0.5084 0.2339
0.5282 0.5148 0.2835
0.5666 0.5236 0.3339
0.5990 0.5385 0.3852
0.6246 0.5482 0.4046
0.6489 0.5477 0.3936
0.6743 0.5447 0.3824
0.7003 0.5409 0.3723
0.7267 0.5365 0.3645
0.7508 0.5334 0.3634
0.7717 0.5375 0.3732
0.7925 0.5452 0.3866
0.8113 0.5548 0.4033
0.8303 0.5663 0.4208
0.8498 0.5806 0.4407
0.8691 0.5983 0.4649
0.8854 0.6149 0.4875
0.8856 0.6183 0.4944
0.8859 0.6214 0.5007
0.8860 0.6240 0.5064
0.8860 0.6260 0.5114
0.8860 0.6276 0.5157
0.8860 0.6285 0.5192
0.8860 0.6289 0.5220
0.8860 0.6287 0.5238
0.8861 0.6294 0.5278
0.8862 0.6298 0.5312
0.8862 0.6299 0.5340
0.2196 0.5070 0.1447
0.2567 0.5082 0.1481
0.2885 0.5096 0.1527
0.3251 0.5120 0.1594
0.3629 0.5189 0.1713
0.4031 0.5280 0.1871
0.4464 0.5381 0.2073
0.4903 0.5463 0.2370
0.5313 0.5507 0.2802
0.5681 0.5551 0.3263
0.6002 0.5613 0.3695
0.6267 0.5730 0.4163
0.6485 0.5826 0.4419
0.6691 0.5818 0.4317
0.6911 0.5793 0.4214
0.7139 0.5754 0.4117
0.7381 0.5715 0.4038
0.7630 0.5687 0.3985
0.7838 0.5695 0.4043
0.8042 0.5757 0.4158
0.8246 0.5844 0.4300
0.8434 0.5948 0.4476
0.8622 0.6075 0.4672
0.8807 0.6243 0.4909
0.8860 0.6308 0.5007
0.8860 0.6333 0.5055
0.8861 0.6354 0.5101
0.8862 0.6370 0.5143
0.8862 0.6383 0.5181
0.8862 0.6392 0.5214
0.8862 0.6397 0.5240
0.8862 0.6400 0.5269
0.8864 0.6408 0.5311
0.8865 0.6412 0.5348
0.8866 0.6413 0.5379
0.2640 0.5493 0.1670
0.2923 0.5499 0.1708
0.3190 0.5506 0.1750
0.3515 0.5521 0.1815
0.3853 0.5564 0.1922
0.4207 0.5628 0.2074
0.4582 0.5705 0.2261
0.4972 0.5793 0.2490
0.5351 0.5837 0.2827
0.5696 0.5860 0.3209
0.6006 0.5889 0.3615
0.6267 0.5931 0.4019
0.6493 0.6019 0.4450
0.6682 0.6100 0.4722
0.6862 0.6099 0.4653
0.7057 0.6073 0.4554
0.7268 0.6040 0.4463
0.7489 0.6002 0.4380
0.7723 0.5969 0.4314
0.7950 0.5972 0.4331
0.8150 0.6018 0.4430
0.8354 0.6093 0.4556
0.8546 0.6189 0.4716
0.8732 0.6323 0.4926
0.8866 0.6432 0.5088
0.8866 0.6448 0.5119
0.8867 0.6463 0.5149
0.8868 0.6477 0.5179
0.8868 0.6489 0.5207
0.8868 0.6498 0.5233
0.8869 0.6504 0.5256
0.8869 0.6511 0.5294
0.8869 0.6520 0.5338
0.8869 0.6525 0.5377
0.8868 0.6527 0.5411
0.3047 0.5861 0.1917
0.3274 0.5865 0.1955
0.3497 0.5869 0.1997
0.3776 0.5876 0.2056
0.4089 0.5895 0.2142
0.4394 0.5942 0.2287
0.4719 0.5995 0.2459
0.5057 0.6058 0.2665
0.5399 0.6133 0.2874
0.5718 0.6147 0.3205
0.6006 0.6151 0.3581
0.6261 0.6168 0.3950
0.6484 0.6192 0.4314
0.6684 0.6254 0.4695
0.6850 0.6323 0.4984
0.7010 0.6326 0.4942
0.7187 0.6304 0.4849
0.7379 0.6275 0.4760
0.7587 0.6239 0.4676
0.7810 0.6205 0.4611
0.8043 0.6201 0.4592
0.8248 0.6240 0.4671
0.8447 0.6307 0.4791
0.8650 0.6407 0.4945
0.8838 0.6537 0.5142
0.8873 0.6569 0.5189
0.8873 0.6579 0.5203
0.8874 0.6590 0.5219
0.8874 0.6599 0.5234
0.8874 0.6607 0.5250
0.8875 0.6614 0.5269
0.8875 0.6624 0.5314
0.8875 0.6632 0.5357
0.8875 0.6637 0.5397
0.8875 0.6640 0.5433
0.3430 0.6177 0.2181
0.3614 0.6180 0.2215
0.3800 0.6182 0.2254
0.4037 0.6183 0.2310
0.4308 0.6193 0.2389
0.4586 0.6218 0.2510
0.4867 0.6255 0.2668
0.5159 0.6303 0.2828
0.5455 0.6357 0.3019
0.5746 0.6396 0.3254
0.6014 0.6398 0.3572
0.6255 0.6392 0.3915
0.6476 0.6393 0.4251
0.6674 0.6410 0.4577
0.6847 0.6452 0.4927
0.6999 0.6512 0.5210
0.7146 0.6517 0.5191
0.7305 0.6498 0.5108
0.7483 0.6470 0.5019
0.7676 0.6436 0.4932
0.7890 0.6405 0.4864
0.8115 0.6392 0.4837
0.8340 0.6428 0.4885
0.8534 0.6493 0.5001
0.8734 0.6596 0.5154
0.8879 0.6688 0.5274
0.8879 0.6692 0.5271
0.8879 0.6698 0.5271
0.8880 0.6704 0.5271
0.8880 0.6709 0.5273
0.8880 0.6718 0.5296
0.8881 0.6727 0.5332
0.8881 0.6735 0.5370
0.8881 0.6742 0.5408
0.8881 0.6746 0.5445
0.3790 0.6445 0.2453
0.3944 0.6447 0.2486
0.4099 0.6446 0.2523
0.4296 0.6447 0.2575
0.4527 0.6450 0.2644
0.4774 0.6461 0.2725
0.5017 0.6490 0.2850
0.5269 0.6522 0.3000
0.5525 0.6561 0.3171
0.5782 0.6602 0.3357
0.6028 0.6614 0.3607
0.6253 0.6601 0.3902
0.6463 0.6590 0.4216
0.6660 0.6584 0.4518
0.6834 0.6591 0.4819
0.6992 0.6626 0.5131
0.7131 0.6672 0.5402
0.7266 0.6680 0.5397
0.7416 0.6665 0.5319
0.7582 0.6639 0.5237
0.7766 0.6606 0.5159
0.7970 0.6579 0.5091
0.8184 0.6561 0.5052
0.8411 0.6594 0.5089
0.8617 0.6658 0.5181
0.8815 0.6766 0.5336
0.8885 0.6805 0.5368
0.8885 0.6807 0.5334
0.8885 0.6809 0.5318
0.8886 0.6814 0.5309
0.8886 0.6822 0.5330
0.8886 0.6830 0.5355
0.8886 0.6837 0.5383
0.8887 0.6844 0.5414
0.8887 0.6850 0.5445
0.4128 0.6680 0.2726
0.4250 0.6679 0.2750
0.4376 0.6677 0.2777
0.4534 0.6681 0.2813
0.4730 0.6681 0.2871
0.4953 0.6683 0.2939
0.5171 0.6699 0.3039
0.5384 0.6719 0.3172
0.5604 0.6747 0.3321
0.5828 0.6777 0.3486
0.6051 0.6807 0.3667
0.6258 0.6795 0.3918
0.6458 0.6780 0.4199
0.6647 0.6762 0.4484
0.6818 0.6748 0.4756
0.6976 0.6752 0.5021
0.7123 0.6773 0.5302
0.7254 0.6818 0.5570
0.7380 0.6826 0.5577
0.7521 0.6811 0.5504
0.7677 0.6791 0.5429
0.7853 0.6761 0.5355
0.8048 0.6730 0.5285
0.8255 0.6718 0.5245
0.8474 0.6743 0.5267
0.8701 0.6825 0.5358
0.8890 0.6919 0.5492
0.8890 0.6916 0.5445
0.8891 0.6916 0.5394
0.8892 0.6920 0.5372
0.8892 0.6925 0.5377
0.8893 0.6931 0.5387
0.8893 0.6938 0.5402
0.8894 0.6945 0.5421
0.8894 0.6953 0.5444
0.4425 0.6892 0.2975
0.4526 0.6889 0.2996
0.4628 0.6889 0.3018
0.4761 0.6888 0.3051
0.4928 0.6888 0.3099
0.5112 0.6886 0.3157
0.5312 0.6891 0.3230
0.5499 0.6903 0.3344
0.5688 0.6918 0.3474
0.5882 0.6941 0.3619
0.6080 0.6963 0.3777
0.6276 0.6976 0.3964
0.6461 0.6958 0.4204
0.6637 0.6934 0.4460
0.6804 0.6911 0.4720
0.6963 0.6898 0.4966
0.7108 0.6893 0.5205
0.7244 0.6910 0.5454
0.7366 0.6946 0.5689
0.7485 0.6957 0.5733
0.7620 0.6944 0.5665
0.7770 0.6925 0.5591
0.7938 0.6896 0.5518
0.8127 0.6866 0.5449
0.8326 0.6855 0.5410
0.8540 0.6878 0.5425
0.8763 0.6965 0.5515
0.8901 0.7030 0.5567
0.8901 0.7026 0.5521
0.8901 0.7026 0.5486
0.8902 0.7029 0.5454
0.8903 0.7033 0.5434
0.8903 0.7038 0.5433
0.8904 0.7045 0.5436
0.8905 0.7052 0.5445
0.4694 0.7084 0.3211
0.4776 0.7082 0.3228
0.4862 0.7078 0.3248
0.4975 0.7076 0.3276
0.5112 0.7076 0.3316
0.5269 0.7074 0.3368
0.5439 0.7072 0.3428
0.5609 0.7074 0.3514
0.5775 0.7083 0.3624
0.5947 0.7097 0.3752
0.6119 0.7113 0.3890
0.6297 0.7132 0.4045
0.6470 0.7126 0.4234
0.6635 0.7102 0.4456
0.6794 0.7071 0.4693
0.6950 0.7048 0.4925
0.7095 0.7029 0.5148
0.7228 0.7024 0.5362
0.7358 0.7033 0.5586
0.7472 0.7064 0.5809
0.7584 0.7075 0.5869
0.7714 0.7064 0.5800
0.7860 0.7045 0.5732
0.8022 0.7020 0.5660
0.8202 0.6991 0.5593
0.8400 0.6975 0.5546
0.8607 0.7003 0.5565
0.8823 0.7093 0.5655
0.8908 0.7133 0.5664
0.8908 0.7129 0.5617
0.8908 0.7128 0.5573
0.8908 0.7130 0.5529
0.8909 0.7135 0.5487
0.8909 0.7141 0.5462
0.8910 0.7147 0.5452
0.4937 0.7261 0.3437
0.5006 0.7258 0.3452
0.5077 0.7255 0.3467
0.5169 0.7253 0.3490
0.5283 0.7251 0.3523
0.5416 0.7249 0.3568
0.5558 0.7242 0.3618
0.5712 0.7241 0.3680
0.5862 0.7242 0.3769
0.6015 0.7247 0.3881
0.6167 0.7259 0.4003
0.6324 0.7274 0.4138
0.6484 0.7286 0.4282
0.6641 0.7260 0.4472
0.6791 0.7229 0.4682
0.6937 0.7200 0.4899
0.7081 0.7173 0.5108
0.7214 0.7155 0.5308
0.7343 0.7142 0.5501
0.7464 0.7148 0.5706
0.7573 0.7172 0.5904
0.7683 0.7186 0.5973
0.7806 0.7175 0.5921
0.7947 0.7156 0.5852
0.8105 0.7133 0.5784
0.8280 0.7109 0.5721
0.8471 0.7096 0.5678
0.8658 0.7115 0.5698
0.8855 0.7203 0.5796
0.8912 0.7227 0.5777
0.8912 0.7223 0.5703
0.8913 0.7221 0.5650
0.8913 0.7223 0.5595
0.8914 0.7229 0.5540
0.8916 0.7237 0.5484
0.5157 0.7429 0.3653
0.5212 0.7428 0.3666
0.5269 0.7425 0.3679
0.5345 0.7421 0.3698
0.5441 0.7417 0.3725
0.5555 0.7413 0.3760
0.5678 0.7409 0.3802
0.5810 0.7401 0.3856
0.5950 0.7399 0.3924
0.6088 0.7399 0.4015
0.6224 0.7406 0.4123
0.6364 0.7413 0.4238
0.6510 0.7418 0.4365
0.6656 0.7416 0.4506
0.6796 0.7385 0.4688
0.6934 0.7350 0.4881
0.7069 0.7317 0.5078
0.7203 0.7289 0.5267
0.7328 0.7267 0.5448
0.7451 0.7252 0.5623
0.7564 0.7256 0.5808
0.7672 0.7276 0.5993
0.7777 0.7288 0.6071
0.7896 0.7279 0.6024
0.8032 0.7262 0.5957
0.8186 0.7239 0.5893
0.8348 0.7220 0.5845
0.8522 0.7210 0.5817
0.8703 0.7228 0.5829
0.8890 0.7311 0.5924
0.8916 0.7318 0.5877
0.8917 0.7315 0.5794
0.8919 0.7315 0.5719
0.8922 0.7318 0.5653
0.8923 0.7322 0.5582
0.5350 0.7594 0.3863
0.5396 0.7591 0.3873
0.5444 0.7587 0.3884
0.5509 0.7583 0.3900
0.5591 0.7579 0.3921
0.5686 0.7575 0.3949
0.5793 0.7570 0.3984
0.5906 0.7560 0.4027
0.6033 0.7554 0.4082
0.6160 0.7549 0.4150
0.6284 0.7550 0.4240
0.6409 0.7552 0.4339
0.6543 0.7550 0.4449
0.6677 0.7555 0.4563
0.6806 0.7535 0.4708
0.6938 0.7502 0.4881
0.7066 0.7464 0.5056
0.7193 0.7429 0.5236
0.7315 0.7400 0.5407
0.7434 0.7375 0.5572
0.7552 0.7360 0.5730
0.7661 0.7361 0.5898
0.7766 0.7374 0.6075
0.7868 0.7384 0.6151
0.7984 0.7377 0.6116
0.8110 0.7362 0.6064
0.8249 0.7341 0.6013
0.8405 0.7324 0.5965
0.8573 0.7317 0.5941
0.8749 0.7340 0.5959
0.8920 0.7413 0.6039
0.8920 0.7404 0.5967
0.8920 0.7400 0.5881
0.8924 0.7404 0.5780
0.8928 0.7408 0.5701
0.5525 0.7750 0.4058
0.5564 0.7748 0.4066
0.5605 0.7745 0.4074
0.5661 0.7741 0.4086
0.5730 0.7736 0.4104
0.5813 0.7731 0.4129
0.5905 0.7725 0.4159
0.6002 0.7717 0.4192
0.6113 0.7706 0.4238
0.6231 0.7698 0.4290
0.6349 0.7694 0.4361
0.6463 0.7691 0.4446
0.6581 0.7690 0.4539
0.6708 0.7690 0.4640
0.6833 0.7691 0.4747
0.6952 0.7653 0.4894
0.7073 0.7615 0.5049
0.7190 0.7572 0.5212
0.7309 0.7537 0.5375
0.7426 0.7506 0.5530
0.7540 0.7478 0.5677
0.7650 0.7462 0.5815
0.7757 0.7456 0.5979
0.7854 0.7463 0.6143
0.7953 0.7476 0.6237
0.8059 0.7470 0.6221
0.8179 0.7455 0.6171
0.8313 0.7439 0.6124
0.8462 0.7420 0.6077
0.8624 0.7417 0.6053
0.8795 0.7452 0.6082
0.8926 0.7499 0.6121
0.8927 0.7490 0.6047
0.8928 0.7486 0.5956
0.8929 0.7491 0.5850
0.5691 0.7911 0.4259
0.5723 0.7909 0.4265
0.5758 0.7906 0.4272
0.5804 0.7902 0.4282
0.5864 0.7897 0.4296
0.5935 0.7891 0.4315
0.6015 0.7884 0.4339
0.6105 0.7876 0.4365
0.6202 0.7863 0.4398
0.6308 0.7852 0.4439
0.6418 0.7843 0.4491
0.6525 0.7835 0.4557
0.6631 0.7831 0.4634
0.6745 0.7826 0.4720
0.6862 0.7822 0.4812
0.6974 0.7807 0.4918
0.7088 0.7767 0.5056
0.7198 0.7722 0.5200
0.7309 0.7678 0.5349
0.7420 0.7640 0.5494
0.7531 0.7610 0.5637
0.7641 0.7578 0.5771
0.7745 0.7561 0.5916
0.7843 0.7549 0.6068
0.7938 0.7557 0.6227
0.8030 0.7566 0.6321
0.8132 0.7561 0.6313
0.8248 0.7548 0.6269
0.8380 0.7533 0.6221
0.8524 0.7518 0.6180
0.8678 0.7510 0.6150
0.8845 0.7553 0.6193
0.8933 0.7578 0.6196
0.8934 0.7571 0.6120
0.8935 0.7567 0.6024
0.5847 0.8071 0.4453
0.5874 0.8068 0.4457
0.5904 0.8065 0.4462
0.5943 0.8061 0.4468
0.5994 0.8056 0.4477
0.6055 0.8049 0.4491
0.6124 0.8042 0.4510
0.6207 0.8032 0.4528
0.6293 0.8018 0.4550
0.6387 0.8006 0.4584
0.6488 0.7996 0.4623
0.6589 0.7985 0.4673
0.6691 0.7975 0.4734
0.6794 0.7967 0.4806
0.6902 0.7959 0.4886
0.7011 0.7956 0.4969
0.7115 0.7921 0.5076
0.7217 0.7877 0.5200
0.7314 0.7826 0.5331
0.7422 0.7783 0.5470
0.7528 0.7743 0.5607
0.7631 0.7704 0.5746
0.7730 0.7673 0.5878
0.7830 0.7648 0.6005
0.7926 0.7636 0.6149
0.8018 0.7642 0.6299
0.8106 0.7650 0.6396
0.8205 0.7648 0.6401
0.8318 0.7638 0.6361
0.8446 0.7625 0.6313
0.8586 0.7614 0.6276
0.8737 0.7613 0.6257
0.8899 0.7653 0.6298
0.8940 0.7657 0.6264
0.8940 0.7650 0.6183
0.5996 0.8233 0.4650
0.6021 0.8230 0.4654
0.6047 0.8227 0.4657
0.6083 0.8223 0.4662
0.6129 0.8218 0.4668
0.6183 0.8211 0.4677
0.6247 0.8202 0.4689
0.6319 0.8193 0.4705
0.6397 0.8180 0.4723
0.6480 0.8167 0.4744
0.6573 0.8154 0.4771
0.6665 0.8142 0.4806
0.6760 0.8126 0.4847
0.6856 0.8114 0.4901
0.6953 0.8103 0.4967
0.7052 0.8094 0.5036
0.7153 0.8081 0.5110
0.7245 0.8032 0.5212
0.7340 0.7984 0.5335
0.7432 0.7926 0.5464
0.7527 0.7874 0.5597
0.7626 0.7834 0.5729
0.7725 0.7794 0.5858
0.7821 0.7763 0.5974
0.7916 0.7737 0.6094
0.8009 0.7725 0.6231
0.8095 0.7725 0.6363
0.8181 0.7735 0.6474
0.8277 0.7734 0.6486
0.8389 0.7725 0.6445
0.8510 0.7714 0.6401
0.8648 0.7704 0.6367
0.8798 0.7715 0.6363
0.8946 0.7745 0.6391
0.8946 0.7735 0.6329
0.6152 0.8397 0.4850
0.6173 0.8394 0.4851
0.6196 0.8390 0.4853
0.6228 0.8386 0.4855
0.6268 0.8380 0.4857
0.6317 0.8372 0.4861
0.6373 0.8363 0.4866
0.6435 0.8353 0.4876
0.6503 0.8341 0.4888
0.6577 0.8329 0.4900
0.6660 0.8314 0.4915
0.6746 0.8300 0.4941
0.6833 0.8283 0.4969
0.6925 0.8267 0.5005
0.7018 0.8254 0.5055
0.7108 0.8241 0.5117
0.7201 0.8225 0.5188
0.7288 0.8184 0.5270
0.7368 0.8129 0.5369
0.7452 0.8075 0.5480
0.7539 0.8018 0.5600
0.7630 0.7967 0.5720
0.7723 0.7922 0.5841
0.7815 0.7884 0.5956
0.7908 0.7852 0.6066
