luts/Ofilmpus.cube
#Created by: Pixelmator Pro
#Color profile: "Display P3"
TITLE "Ofilpus"
#Data domain
#LUT size
LUT_3D_SIZE 7
DOMAIN_MIN 0.000000 0.000000 0.000000
DOMAIN_MAX 0.882353 0.882353 0.882353
0.0604 0.0681 0.0683
0.2878 0.0640 0.0777
0.5582 0.1098 0.1069
0.7429 0.2655 0.2252
0.8696 0.4733 0.3895
0.8830 0.5474 0.4723
0.8838 0.5664 0.4980
0.0924 0.2618 0.1015
0.3552 0.3156 0.1758
0.6043 0.3312 0.1761
0.7409 0.3867 0.2714
0.8535 0.5072 0.3957
0.8838 0.5780 0.4851
0.8842 0.5883 0.5089
0.2196 0.5070 0.1447
0.4031 0.5280 0.1871
0.6002 0.5613 0.3695
0.7139 0.5754 0.4117
0.8246 0.5844 0.4300
0.8860 0.6333 0.5055
0.8862 0.6397 0.5240
0.4128 0.6680 0.2726
0.4953 0.6683 0.2939
0.6051 0.6807 0.3667
0.6976 0.6752 0.5021
0.7677 0.6791 0.5429
0.8701 0.6825 0.5358
0.8892 0.6925 0.5377
0.5350 0.7594 0.3863
0.5686 0.7575 0.3949
0.6284 0.7550 0.4240
0.6938 0.7502 0.4881
0.7552 0.7360 0.5730
0.8110 0.7362 0.6064
0.8920 0.7413 0.6039
0.6152 0.8397 0.4850
0.6317 0.8372 0.4861
0.6660 0.8314 0.4915
0.7108 0.8241 0.5117
0.7539 0.8018 0.5600
0.8001 0.7826 0.6183
0.8457 0.7811 0.6522
0.7118 0.8926 0.6017
0.7172 0.8925 0.5995
0.7312 0.8921 0.5928
0.7539 0.8920 0.5782
0.7812 0.8769 0.5854
0.8049 0.8465 0.6138
0.8413 0.8267 0.6523
0.0699 0.1313 0.1765
0.3151 0.1041 0.3123
0.5790 0.1594 0.3158
0.7280 0.2743 0.3395
0.8518 0.4562 0.4262
0.8828 0.5483 0.4963
0.8837 0.5673 0.5122
0.0980 0.2557 0.2393
0.3323 0.3559 0.3330
0.5751 0.3528 0.3336
0.7221 0.3993 0.3634
0.8387 0.4982 0.4353
0.8838 0.5762 0.5091
0.8839 0.5853 0.5219
0.1714 0.5074 0.3053
0.3754 0.5317 0.3186
0.5975 0.5712 0.4285
0.7157 0.5747 0.4452
0.8143 0.5821 0.4657
0.8861 0.6314 0.5277
0.8865 0.6353 0.5393
0.3854 0.6636 0.3558
0.4724 0.6657 0.3676
0.5972 0.6770 0.4190
0.6960 0.6765 0.5257
0.7672 0.6788 0.5548
0.8679 0.6804 0.5480
0.8889 0.6906 0.5531
0.5211 0.7545 0.4268
0.5568 0.7527 0.4330
0.6215 0.7506 0.4537
0.6907 0.7499 0.5069
0.7540 0.7364 0.5841
0.8103 0.7362 0.6126
0.8919 0.7412 0.6090
0.6061 0.8353 0.5025
0.6228 0.8327 0.5034
0.6596 0.8275 0.5087
0.7067 0.8204 0.5253
0.7523 0.8016 0.5688
0.7993 0.7826 0.6246
0.8452 0.7812 0.6559
0.7057 0.8928 0.6045
0.7113 0.8927 0.6021
0.7256 0.8923 0.5950
0.7495 0.8888 0.5849
0.7792 0.8762 0.5916
0.8039 0.8463 0.6187
0.8409 0.8266 0.6566
0.1015 0.2495 0.3424
0.2012 0.2223 0.4981
0.5628 0.2434 0.5336
0.7162 0.3515 0.5340
0.8180 0.4445 0.5290
0.8838 0.5594 0.5569
0.8837 0.5740 0.5498
0.1221 0.3167 0.3471
0.1926 0.3618 0.4433
0.5585 0.3885 0.5336
0.7073 0.4405 0.5353
0.8076 0.4913 0.5291
0.8839 0.5815 0.5609
0.8844 0.5888 0.5554
0.1816 0.4902 0.4448
0.3351 0.5142 0.4695
0.5673 0.5894 0.5472
0.6947 0.5763 0.5439
0.7884 0.5769 0.5360
0.8857 0.6266 0.5716
0.8857 0.6254 0.5709
0.3310 0.6400 0.4913
0.4163 0.6479 0.4951
0.5676 0.6668 0.5175
0.6892 0.6793 0.5751
0.7667 0.6756 0.5815
0.8604 0.6737 0.5768
0.8883 0.6863 0.5874
0.4793 0.7408 0.5086
0.5222 0.7408 0.5104
0.5983 0.7412 0.5202
0.6806 0.7455 0.5520
0.7505 0.7370 0.6100
0.8084 0.7356 0.6279
0.8917 0.7400 0.6218
0.5808 0.8235 0.5437
0.6008 0.8218 0.5443
0.6413 0.8177 0.5464
0.6942 0.8107 0.5572
0.7474 0.8006 0.5905
0.7970 0.7827 0.6406
0.8441 0.7812 0.6655
0.6835 0.8928 0.6117
0.6901 0.8928 0.6084
0.7082 0.8905 0.6025
0.7368 0.8811 0.6015
0.7706 0.8698 0.6066
0.8013 0.8457 0.6309
0.8399 0.8264 0.6675
0.1489 0.3883 0.5050
0.1508 0.4008 0.5950
0.4980 0.3555 0.6601
0.6856 0.3967 0.6546
0.7903 0.4713 0.6452
0.8807 0.5690 0.6394
0.8859 0.5890 0.6122
0.1673 0.4265 0.5019
0.1776 0.4529 0.5652
0.4735 0.4448 0.6422
0.6803 0.4635 0.6508
0.7832 0.5157 0.6434
0.8734 0.5815 0.6364
0.8859 0.6027 0.6147
0.2019 0.5084 0.5069
0.2133 0.5271 0.5288
0.4509 0.5576 0.5916
0.6710 0.5758 0.6456
0.7676 0.5936 0.6400
0.8570 0.6117 0.6282
0.8860 0.6336 0.6202
0.3305 0.6289 0.5730
0.4037 0.6328 0.5789
0.5291 0.6492 0.6005
0.6640 0.6841 0.6442
0.7529 0.6693 0.6382
0.8370 0.6610 0.6229
0.8875 0.6781 0.6329
0.4124 0.7121 0.5974
0.4617 0.7143 0.5979
0.5511 0.7209 0.6012
0.6538 0.7341 0.6161
0.7429 0.7376 0.6470
0.8067 0.7316 0.6500
0.8912 0.7355 0.6479
0.5285 0.8036 0.6006
0.5548 0.8030 0.5999
0.6062 0.8001 0.6004
0.6687 0.7971 0.6064
0.7352 0.7960 0.6259
0.7926 0.7825 0.6660
0.8428 0.7806 0.6814
0.6386 0.8818 0.6330
0.6516 0.8799 0.6314
0.6780 0.8754 0.6295
0.7127 0.8683 0.6275
0.7547 0.8594 0.6320
0.7959 0.8451 0.6511
0.8373 0.8265 0.6864
0.2033 0.5071 0.6282
0.2081 0.5207 0.6741
0.4291 0.5182 0.7528
0.6530 0.4780 0.7489
0.7591 0.4976 0.7317
0.8492 0.5422 0.7162
0.8889 0.6117 0.6878
0.2164 0.5260 0.6204
0.2237 0.5429 0.6574
0.4167 0.5507 0.7335
0.6416 0.5204 0.7403
0.7543 0.5298 0.7274
0.8442 0.5630 0.7137
0.8890 0.6232 0.6891
0.2413 0.5636 0.6004
0.2519 0.5772 0.6264
0.3969 0.6011 0.6841
0.6120 0.5895 0.7175
0.7429 0.5906 0.7177
0.8323 0.6082 0.7080
0.8890 0.6492 0.6916
0.2859 0.6331 0.6149
0.2945 0.6406 0.6243
0.4280 0.6495 0.6371
0.5861 0.6596 0.6736
0.7309 0.6614 0.7091
0.8135 0.6666 0.7010
0.8894 0.6857 0.6926
0.4046 0.7074 0.6489
0.4533 0.7072 0.6504
0.5323 0.7089 0.6551
0.6222 0.7184 0.6709
0.7195 0.7393 0.7012
0.7955 0.7253 0.6957
0.8726 0.7206 0.6840
0.4568 0.7743 0.6638
0.4933 0.7732 0.6635
0.5537 0.7717 0.6640
0.6276 0.7753 0.6662
0.7096 0.7841 0.6771
0.7847 0.7829 0.6998
0.8428 0.7773 0.7017
0.5728 0.8591 0.6716
0.5928 0.8579 0.6704
0.6306 0.8550 0.6682
0.6765 0.8507 0.6669
0.7282 0.8461 0.6693
0.7855 0.8430 0.6811
0.8342 0.8272 0.7136
0.2606 0.5956 0.7183
0.2724 0.6050 0.7504
0.4252 0.6481 0.8620
0.6264 0.6131 0.8515
0.7402 0.5682 0.8241
0.8231 0.5618 0.8021
0.8957 0.6101 0.7776
0.2693 0.6056 0.7081
0.2789 0.6145 0.7376
0.3752 0.6505 0.8434
0.6131 0.6221 0.8406
0.7341 0.5846 0.8182
0.8186 0.5782 0.7977
0.8929 0.6193 0.7762
0.2895 0.6230 0.6875
0.2988 0.6322 0.7074
0.3343 0.6574 0.7824
0.5857 0.6468 0.8101
0.7170 0.6209 0.8046
0.8074 0.6141 0.7870
0.8834 0.6391 0.7702
0.3136 0.6508 0.6592
0.3222 0.6565 0.6712
0.3474 0.6736 0.7103
0.5465 0.6802 0.7527
0.6855 0.6679 0.7794
0.7911 0.6613 0.7717
0.8685 0.6726 0.7603
0.3715 0.7064 0.6813
0.3769 0.7101 0.6862
0.4372 0.7176 0.6972
0.5550 0.7169 0.7013
0.6582 0.7216 0.7316
0.7762 0.7175 0.7597
0.8507 0.7200 0.7515
0.4333 0.7690 0.7084
0.4816 0.7695 0.7097
0.5467 0.7675 0.7097
0.6123 0.7654 0.7131
0.6836 0.7708 0.7253
0.7645 0.7845 0.7498
0.8367 0.7709 0.7444
0.4868 0.8353 0.7226
0.5255 0.8355 0.7226
0.5767 0.8323 0.7216
0.6271 0.8276 0.7218
0.6880 0.8279 0.7223
0.7597 0.8329 0.7289
0.8288 0.8283 0.7495
0.3453 0.6615 0.8021
0.3697 0.6719 0.8281
0.5070 0.6897 0.8682
0.6058 0.6685 0.8703
0.7038 0.6531 0.8725
0.8060 0.6447 0.8760
0.8750 0.6285 0.8620
0.3463 0.6655 0.7930
0.3673 0.6752 0.8174
0.4963 0.6994 0.8680
0.6043 0.6795 0.8703
0.7025 0.6646 0.8725
0.8046 0.6548 0.8760
0.8719 0.6349 0.8589
0.3529 0.6758 0.7681
0.3648 0.6830 0.7885
0.4253 0.7113 0.8535
0.5956 0.7052 0.8703
0.6978 0.6905 0.8725
0.7975 0.6747 0.8717
0.8644 0.6516 0.8511
0.3675 0.6883 0.7337
0.3754 0.6938 0.7464
0.3995 0.7117 0.7890
0.5494 0.7432 0.8691
0.6830 0.7271 0.8718
0.7763 0.6974 0.8555
0.8521 0.6807 0.8388
0.3928 0.7150 0.7121
0.3966 0.7175 0.7161
0.4094 0.7255 0.7318
0.4800 0.7457 0.7822
0.6347 0.7435 0.8156
0.7444 0.7316 0.8337
0.8366 0.7176 0.8241
0.4473 0.7667 0.7387
0.4506 0.7692 0.7420
0.4595 0.7762 0.7514
0.5622 0.7760 0.7554
0.6332 0.7731 0.7588
0.7143 0.7746 0.7883
0.8228 0.7660 0.8119
0.4966 0.8278 0.7656
0.4993 0.8306 0.7681
0.5516 0.8332 0.7717
0.6162 0.8282 0.7717
0.6719 0.8233 0.7722
0.7354 0.8230 0.7814
0.8136 0.8326 0.8028
