luts/UP-CoolPortra.cube
TITLE "UP-CoolPortra"
#Data domain
DOMAIN_MIN 0.0000 0.0000 0.0000
DOMAIN_MAX 1.0000 1.0000 1.0000
#LUT size
LUT_3D_SIZE 35
0.0943 0.0720 0.0321
0.0943 0.0720 0.0321
0.0943 0.0720 0.0321
0.0950 0.0721 0.0321
0.0968 0.0725 0.0321
0.0990 0.0728 0.0321
0.1026 0.0731 0.0320
0.1092 0.0732 0.0316
0.1209 0.0726 0.0305
0.1398 0.0730 0.0283
0.1677 0.0764 0.0256
0.2074 0.0855 0.0254
0.2513 0.0973 0.0255
0.2993 0.1109 0.0259
0.3429 0.1292 0.0302
0.3861 0.1486 0.0357
0.4290 0.1681 0.0423
0.4707 0.1878 0.0489
0.5114 0.2071 0.0560
0.5500 0.2266 0.0628
0.5871 0.2453 0.0705
0.6224 0.2645 0.0786
0.6560 0.2831 0.0876
0.6879 0.3020 0.0969
0.7177 0.3196 0.1071
0.7453 0.3371 0.1185
0.7697 0.3548 0.1320
0.7920 0.3727 0.1477
0.8119 0.3911 0.1667
0.8305 0.4110 0.1914
0.8477 0.4331 0.2251
0.8640 0.4577 0.2686
0.8796 0.4843 0.3200
0.8797 0.4942 0.3521
0.8797 0.4969 0.3561
0.0943 0.0720 0.0321
0.0950 0.0727 0.0321
0.0964 0.0734 0.0321
0.0979 0.0738 0.0321
0.0996 0.0742 0.0321
0.1022 0.0745 0.0319
0.1069 0.0749 0.0317
0.1152 0.0750 0.0310
0.1295 0.0752 0.0294
0.1508 0.0765 0.0271
0.1812 0.0824 0.0254
0.2198 0.0919 0.0255
0.2632 0.1034 0.0255
0.3092 0.1173 0.0266
0.3515 0.1353 0.0313
0.3940 0.1540 0.0369
0.4360 0.1729 0.0433
0.4769 0.1922 0.0499
0.5169 0.2111 0.0571
0.5547 0.2302 0.0638
0.5913 0.2487 0.0714
0.6261 0.2675 0.0796
0.6592 0.2860 0.0886
0.6908 0.3046 0.0978
0.7201 0.3219 0.1080
0.7473 0.3393 0.1195
0.7713 0.3568 0.1331
0.7933 0.3746 0.1490
0.8130 0.3930 0.1683
0.8314 0.4126 0.1928
0.8484 0.4346 0.2268
0.8646 0.4593 0.2708
0.8796 0.4852 0.3217
0.8797 0.4948 0.3524
0.8797 0.4977 0.3564
0.0951 0.0729 0.0322
0.0962 0.0747 0.0322
0.0986 0.0763 0.0320
0.1015 0.0772 0.0319
0.1040 0.0774 0.0318
0.1081 0.0777 0.0315
0.1143 0.0779 0.0309
0.1244 0.0783 0.0299
0.1407 0.0793 0.0280
0.1638 0.0823 0.0258
0.1959 0.0896 0.0254
0.2339 0.0987 0.0255
0.2768 0.1098 0.0255
0.3201 0.1241 0.0274
0.3609 0.1416 0.0324
0.4026 0.1596 0.0382
0.4436 0.1781 0.0445
0.4837 0.1968 0.0510
0.5229 0.2154 0.0581
0.5600 0.2340 0.0649
0.5960 0.2524 0.0724
0.6302 0.2708 0.0806
0.6628 0.2892 0.0896
0.6939 0.3074 0.0987
0.7227 0.3245 0.1092
0.7494 0.3417 0.1207
0.7731 0.3591 0.1344
0.7947 0.3767 0.1504
0.8142 0.3950 0.1700
0.8324 0.4143 0.1942
0.8492 0.4363 0.2286
0.8653 0.4610 0.2732
0.8796 0.4863 0.3234
0.8797 0.4955 0.3528
0.8797 0.4988 0.3567
0.0971 0.0756 0.0325
0.0980 0.0772 0.0325
0.0994 0.0796 0.0319
0.1042 0.0820 0.0316
0.1111 0.0840 0.0309
0.1175 0.0842 0.0303
0.1283 0.0850 0.0291
0.1426 0.0859 0.0277
0.1610 0.0881 0.0260
0.1861 0.0927 0.0254
0.2175 0.0995 0.0255
0.2546 0.1084 0.0255
0.2963 0.1195 0.0255
0.3356 0.1340 0.0290
0.3751 0.1507 0.0341
0.4149 0.1677 0.0400
0.4546 0.1856 0.0462
0.4934 0.2034 0.0528
0.5313 0.2214 0.0594
0.5674 0.2393 0.0665
0.6025 0.2576 0.0739
0.6359 0.2754 0.0822
0.6677 0.2936 0.0910
0.6981 0.3112 0.1002
0.7263 0.3280 0.1107
0.7524 0.3450 0.1224
0.7756 0.3622 0.1362
0.7967 0.3796 0.1523
0.8159 0.3979 0.1723
0.8338 0.4168 0.1964
0.8504 0.4387 0.2311
0.8663 0.4635 0.2764
0.8796 0.4877 0.3258
0.8797 0.4967 0.3532
0.8797 0.5004 0.3573
0.0995 0.0791 0.0329
0.1004 0.0811 0.0328
0.1015 0.0842 0.0324
0.1058 0.0890 0.0311
0.1155 0.0943 0.0299
0.1345 0.0995 0.0278
0.1483 0.0989 0.0267
0.1675 0.1006 0.0254
0.1925 0.1045 0.0255
0.2188 0.1089 0.0255
0.2491 0.1152 0.0255
0.2836 0.1232 0.0255
0.3202 0.1336 0.0271
0.3564 0.1477 0.0317
0.3940 0.1628 0.0368
0.4320 0.1789 0.0426
0.4694 0.1959 0.0486
0.5068 0.2127 0.0554
0.5427 0.2301 0.0616
0.5775 0.2468 0.0686
0.6113 0.2648 0.0760
0.6434 0.2817 0.0844
0.6742 0.2998 0.0929
0.7037 0.3166 0.1022
0.7311 0.3331 0.1128
0.7562 0.3497 0.1246
0.7788 0.3666 0.1385
0.7993 0.3838 0.1549
0.8180 0.4019 0.1754
0.8356 0.4207 0.2003
0.8518 0.4420 0.2344
0.8675 0.4669 0.2807
0.8796 0.4899 0.3290
0.8797 0.4985 0.3540
0.8797 0.5028 0.3580
0.1022 0.0849 0.0339
0.1034 0.0880 0.0337
0.1050 0.0930 0.0330
0.1086 0.1021 0.0312
0.1170 0.1122 0.0283
0.1382 0.1211 0.0263
0.1756 0.1296 0.0255
0.1981 0.1288 0.0255
0.2240 0.1301 0.0255
0.2556 0.1343 0.0255
0.2880 0.1399 0.0260
0.3204 0.1471 0.0276
0.3519 0.1561 0.0308
0.3851 0.1672 0.0352
0.4187 0.1805 0.0403
0.4536 0.1950 0.0460
0.4886 0.2100 0.0518
0.5236 0.2259 0.0581
0.5572 0.2418 0.0646
0.5907 0.2583 0.0713
0.6224 0.2747 0.0789
0.6535 0.2913 0.0870
0.6830 0.3084 0.0956
0.7109 0.3243 0.1051
0.7373 0.3402 0.1155
0.7610 0.3563 0.1275
0.7828 0.3727 0.1414
0.8025 0.3896 0.1583
0.8207 0.4074 0.1793
0.8378 0.4261 0.2053
0.8537 0.4466 0.2385
0.8690 0.4716 0.2862
0.8797 0.4930 0.3330
0.8797 0.5013 0.3550
0.8797 0.5062 0.3591
0.1060 0.0965 0.0352
0.1074 0.1020 0.0348
0.1071 0.1103 0.0338
0.1100 0.1210 0.0326
0.1188 0.1381 0.0285
0.1390 0.1505 0.0255
0.1773 0.1608 0.0255
0.2291 0.1720 0.0263
0.2593 0.1701 0.0269
0.2886 0.1706 0.0286
0.3214 0.1742 0.0308
0.3567 0.1810 0.0340
0.3881 0.1874 0.0369
0.4203 0.1961 0.0401
0.4502 0.2062 0.0454
0.4812 0.2176 0.0502
0.5125 0.2302 0.0562
0.5441 0.2441 0.0618
0.5757 0.2585 0.0681
0.6065 0.2736 0.0751
0.6363 0.2888 0.0824
0.6656 0.3047 0.0905
0.6935 0.3200 0.0989
0.7198 0.3348 0.1085
0.7448 0.3498 0.1190
0.7670 0.3654 0.1314
0.7878 0.3811 0.1452
0.8065 0.3975 0.1626
0.8241 0.4148 0.1844
0.8405 0.4332 0.2115
0.8559 0.4527 0.2437
0.8707 0.4777 0.2927
0.8797 0.4975 0.3380
0.8797 0.5053 0.3563
0.8797 0.5109 0.3603
0.1068 0.1198 0.0365
0.1069 0.1279 0.0358
0.1076 0.1377 0.0345
0.1108 0.1501 0.0329
0.1218 0.1657 0.0309
0.1419 0.1854 0.0255
0.1750 0.2004 0.0255
0.2246 0.2113 0.0269
0.2865 0.2229 0.0354
0.3220 0.2218 0.0378
0.3531 0.2207 0.0403
0.3863 0.2227 0.0426
0.4209 0.2278 0.0454
0.4546 0.2348 0.0487
0.4837 0.2413 0.0522
0.5138 0.2496 0.0564
0.5413 0.2583 0.0610
0.5692 0.2697 0.0667
0.5974 0.2815 0.0727
0.6250 0.2942 0.0793
0.6531 0.3078 0.0866
0.6797 0.3218 0.0947
0.7058 0.3352 0.1033
0.7303 0.3490 0.1130
0.7531 0.3632 0.1240
0.7739 0.3778 0.1364
0.7933 0.3925 0.1508
0.8110 0.4078 0.1678
0.8280 0.4245 0.1905
0.8438 0.4426 0.2191
0.8585 0.4620 0.2528
0.8728 0.4860 0.3009
0.8797 0.5035 0.3444
0.8797 0.5108 0.3579
0.8797 0.5171 0.3617
0.1078 0.1533 0.0379
0.1090 0.1617 0.0372
0.1110 0.1714 0.0360
0.1151 0.1859 0.0336
0.1282 0.1972 0.0340
0.1463 0.2202 0.0290
0.1750 0.2435 0.0255
0.2185 0.2601 0.0265
0.2770 0.2689 0.0374
0.3460 0.2807 0.0485
0.3872 0.2803 0.0524
0.4187 0.2781 0.0540
0.4506 0.2781 0.0567
0.4823 0.2813 0.0593
0.5148 0.2868 0.0627
0.5440 0.2914 0.0655
0.5707 0.2972 0.0690
0.5974 0.3049 0.0738
0.6223 0.3127 0.0784
0.6472 0.3223 0.0845
0.6717 0.3330 0.0919
0.6961 0.3437 0.0998
0.7194 0.3555 0.1086
0.7418 0.3676 0.1183
0.7623 0.3805 0.1294
0.7814 0.3936 0.1424
0.7995 0.4075 0.1577
0.8165 0.4218 0.1757
0.8324 0.4370 0.1978
0.8472 0.4546 0.2280
0.8613 0.4738 0.2641
0.8752 0.4964 0.3105
0.8797 0.5110 0.3515
0.8797 0.5182 0.3597
0.8799 0.5255 0.3636
0.1153 0.1924 0.0410
0.1181 0.2006 0.0403
0.1215 0.2100 0.0393
0.1267 0.2242 0.0373
0.1381 0.2381 0.0374
0.1542 0.2558 0.0358
0.1778 0.2861 0.0255
0.2138 0.3116 0.0272
0.2666 0.3277 0.0361
0.3334 0.3347 0.0500
0.4049 0.3449 0.0635
0.4507 0.3457 0.0681
0.4807 0.3415 0.0704
0.5103 0.3396 0.0725
0.5399 0.3400 0.0750
0.5691 0.3426 0.0780
0.5982 0.3467 0.0816
0.6229 0.3491 0.0842
0.6470 0.3528 0.0871
0.6709 0.3581 0.0915
0.6927 0.3645 0.0980
0.7140 0.3725 0.1060
0.7346 0.3816 0.1149
0.7541 0.3914 0.1250
0.7724 0.4019 0.1363
0.7899 0.4136 0.1495
0.8067 0.4258 0.1655
0.8225 0.4390 0.1851
0.8371 0.4530 0.2078
0.8509 0.4691 0.2381
0.8644 0.4880 0.2767
0.8779 0.5090 0.3219
0.8797 0.5203 0.3578
0.8800 0.5282 0.3621
0.8804 0.5364 0.3657
0.1302 0.2362 0.0472
0.1335 0.2443 0.0469
0.1373 0.2538 0.0466
0.1428 0.2675 0.0456
0.1520 0.2847 0.0449
0.1674 0.2985 0.0501
0.1861 0.3245 0.0403
0.2142 0.3585 0.0297
0.2580 0.3822 0.0371
0.3185 0.3982 0.0481
0.3898 0.4031 0.0635
0.4615 0.4100 0.0798
0.5091 0.4114 0.0854
0.5370 0.4052 0.0874
0.5648 0.4015 0.0896
0.5920 0.3995 0.0919
0.6190 0.3989 0.0944
0.6451 0.3994 0.0969
0.6705 0.4006 0.0997
0.6920 0.4008 0.1023
0.7129 0.4031 0.1063
0.7327 0.4070 0.1123
0.7501 0.4133 0.1223
0.7673 0.4203 0.1327
0.7835 0.4286 0.1450
0.7990 0.4380 0.1591
0.8138 0.4480 0.1745
0.8283 0.4596 0.1956
0.8421 0.4724 0.2205
0.8551 0.4862 0.2494
0.8681 0.5047 0.2912
0.8798 0.5228 0.3342
0.8802 0.5322 0.3608
0.8804 0.5406 0.3644
0.8804 0.5490 0.3689
0.1492 0.2854 0.0578
0.1527 0.2936 0.0581
0.1566 0.3028 0.0582
0.1624 0.3161 0.0581
0.1703 0.3343 0.0574
0.1833 0.3493 0.0620
0.1986 0.3671 0.0676
0.2201 0.3987 0.0472
0.2548 0.4291 0.0400
0.3046 0.4505 0.0487
0.3707 0.4646 0.0613
0.4433 0.4671 0.0775
0.5129 0.4703 0.0965
0.5618 0.4714 0.1034
0.5883 0.4646 0.1055
0.6142 0.4587 0.1072
0.6392 0.4542 0.1090
0.6634 0.4511 0.1109
0.6873 0.4492 0.1133
0.7100 0.4485 0.1161
0.7297 0.4469 0.1189
0.7475 0.4466 0.1223
0.7645 0.4492 0.1301
0.7800 0.4537 0.1415
0.7942 0.4592 0.1543
0.8084 0.4661 0.1695
0.8218 0.4741 0.1869
0.8346 0.4831 0.2067
0.8473 0.4944 0.2338
0.8597 0.5066 0.2637
0.8722 0.5236 0.3070
0.8804 0.5380 0.3449
0.8804 0.5464 0.3634
0.8804 0.5551 0.3661
0.8804 0.5645 0.3751
0.1711 0.3397 0.0724
0.1743 0.3476 0.0729
0.1780 0.3563 0.0735
0.1833 0.3686 0.0743
0.1905 0.3854 0.0748
0.2010 0.4022 0.0776
0.2147 0.4165 0.0863
0.2315 0.4392 0.0839
0.2562 0.4693 0.0593
0.2969 0.4942 0.0513
0.3528 0.5114 0.0615
0.4209 0.5234 0.0746
0.4926 0.5242 0.0916
0.5592 0.5240 0.1117
0.6075 0.5232 0.1212
0.6341 0.5160 0.1237
0.6576 0.5092 0.1254
0.6796 0.5033 0.1269
0.7015 0.4986 0.1287
0.7223 0.4946 0.1313
0.7424 0.4919 0.1337
0.7611 0.4905 0.1372
0.7768 0.4876 0.1400
0.7908 0.4887 0.1503
0.8044 0.4922 0.1646
0.8171 0.4965 0.1803
0.8291 0.5025 0.2001
0.8408 0.5096 0.2219
0.8524 0.5185 0.2490
0.8641 0.5303 0.2827
0.8758 0.5451 0.3233
0.8804 0.5552 0.3543
0.8804 0.5634 0.3654
0.8808 0.5725 0.3719
0.8811 0.5819 0.3825
0.1941 0.3958 0.0905
0.1971 0.4029 0.0914
0.2005 0.4108 0.0923
0.2053 0.4219 0.0936
0.2118 0.4360 0.0949
0.2201 0.4541 0.0963
0.2324 0.4658 0.1052
0.2458 0.4794 0.1167
0.2665 0.5044 0.1050
0.2946 0.5322 0.0752
0.3394 0.5507 0.0636
0.3985 0.5639 0.0740
0.4669 0.5737 0.0879
0.5372 0.5738 0.1055
0.6005 0.5713 0.1275
0.6472 0.5682 0.1397
0.6728 0.5609 0.1430
0.6940 0.5534 0.1450
0.7140 0.5465 0.1465
0.7334 0.5406 0.1483
0.7517 0.5353 0.1505
0.7691 0.5312 0.1532
0.7854 0.5280 0.1564
0.7999 0.5250 0.1598
0.8122 0.5252 0.1735
0.8241 0.5277 0.1916
0.8359 0.5319 0.2125
0.8469 0.5381 0.2381
0.8575 0.5450 0.2644
0.8687 0.5563 0.3019
0.8798 0.5685 0.3407
0.8809 0.5747 0.3634
0.8811 0.5829 0.3712
0.8811 0.5918 0.3816
0.8812 0.6007 0.3914
0.2171 0.4510 0.1118
0.2199 0.4569 0.1130
0.2232 0.4632 0.1144
0.2275 0.4723 0.1161
0.2333 0.4845 0.1183
0.2411 0.4987 0.1210
0.2517 0.5110 0.1282
0.2630 0.5221 0.1397
0.2788 0.5382 0.1447
0.3019 0.5610 0.1309
0.3325 0.5859 0.0994
0.3799 0.6003 0.0750
0.4415 0.6102 0.0861
0.5094 0.6171 0.1007
0.5770 0.6168 0.1197
0.6365 0.6121 0.1440
0.6809 0.6072 0.1602
0.7050 0.5995 0.1641
0.7239 0.5919 0.1661
0.7424 0.5842 0.1676
0.7594 0.5774 0.1697
0.7755 0.5713 0.1717
0.7910 0.5662 0.1743
0.8054 0.5620 0.1777
0.8181 0.5593 0.1829
0.8297 0.5596 0.2007
0.8408 0.5614 0.2224
0.8518 0.5664 0.2522
0.8625 0.5730 0.2836
0.8733 0.5827 0.3215
0.8811 0.5910 0.3545
0.8812 0.5962 0.3737
0.8815 0.6042 0.3842
0.8814 0.6124 0.3933
0.8816 0.6211 0.4017
0.2413 0.5004 0.1376
0.2439 0.5052 0.1390
0.2467 0.5106 0.1406
0.2506 0.5180 0.1429
0.2556 0.5278 0.1457
0.2621 0.5402 0.1492
0.2715 0.5521 0.1557
0.2822 0.5617 0.1677
0.2948 0.5715 0.1838
0.3122 0.5902 0.1778
0.3356 0.6108 0.1624
0.3677 0.6332 0.1287
0.4189 0.6435 0.1078
0.4811 0.6505 0.0981
0.5475 0.6549 0.1134
0.6125 0.6551 0.1344
0.6674 0.6484 0.1620
0.7088 0.6411 0.1821
0.7320 0.6337 0.1867
0.7494 0.6253 0.1888
0.7659 0.6174 0.1903
0.7812 0.6101 0.1925
0.7955 0.6037 0.1947
0.8091 0.5980 0.1975
0.8215 0.5933 0.2004
0.8329 0.5915 0.2155
0.8435 0.5922 0.2413
0.8541 0.5953 0.2733
0.8646 0.6003 0.3083
0.8753 0.6082 0.3495
0.8819 0.6146 0.3801
0.8818 0.6195 0.3902
0.8819 0.6268 0.3984
0.8819 0.6344 0.4059
0.8819 0.6423 0.4134
0.2664 0.5449 0.1684
0.2688 0.5489 0.1703
0.2715 0.5533 0.1724
0.2750 0.5596 0.1753
0.2795 0.5680 0.1789
0.2848 0.5781 0.1833
0.2919 0.5898 0.1892
0.3016 0.5972 0.2027
0.3119 0.6052 0.2209
0.3258 0.6163 0.2351
0.3425 0.6356 0.2199
0.3670 0.6542 0.1977
0.4026 0.6719 0.1650
0.4567 0.6796 0.1516
0.5185 0.6845 0.1475
0.5824 0.6872 0.1454
0.6426 0.6860 0.1494
0.6939 0.6793 0.1799
0.7328 0.6710 0.2052
0.7544 0.6631 0.2110
0.7704 0.6552 0.2134
0.7856 0.6472 0.2155
0.7993 0.6397 0.2202
0.8121 0.6332 0.2271
0.8237 0.6274 0.2367
0.8345 0.6228 0.2499
0.8449 0.6204 0.2674
0.8549 0.6229 0.3020
0.8647 0.6267 0.3372
0.8745 0.6327 0.3750
0.8819 0.6383 0.4054
0.8819 0.6423 0.4122
0.8822 0.6491 0.4178
0.8825 0.6560 0.4215
0.8826 0.6635 0.4260
0.2916 0.5851 0.2077
0.2936 0.5884 0.2099
0.2958 0.5921 0.2124
0.2987 0.5970 0.2160
0.3024 0.6037 0.2207
0.3071 0.6121 0.2265
0.3129 0.6222 0.2338
0.3215 0.6288 0.2482
0.3311 0.6353 0.2686
0.3430 0.6423 0.2925
0.3564 0.6564 0.2916
0.3725 0.6740 0.2715
0.3965 0.6913 0.2380
0.4365 0.7040 0.2057
0.4924 0.7093 0.1945
0.5528 0.7133 0.1772
0.6133 0.7141 0.1569
0.6690 0.7120 0.1654
0.7172 0.7062 0.1997
0.7534 0.6977 0.2394
0.7739 0.6903 0.2550
0.7882 0.6823 0.2628
0.8014 0.6747 0.2692
0.8137 0.6672 0.2745
0.8252 0.6606 0.2808
0.8357 0.6546 0.2900
0.8458 0.6503 0.3017
0.8555 0.6490 0.3239
0.8647 0.6505 0.3534
0.8740 0.6562 0.3935
0.8826 0.6608 0.4273
0.8826 0.6636 0.4331
0.8826 0.6696 0.4369
0.8827 0.6762 0.4408
0.8830 0.6833 0.4445
0.3158 0.6204 0.2581
0.3175 0.6232 0.2609
0.3194 0.6263 0.2639
0.3220 0.6306 0.2680
0.3254 0.6362 0.2735
0.3295 0.6430 0.2806
0.3344 0.6512 0.2891
0.3416 0.6572 0.3046
0.3504 0.6624 0.3249
0.3612 0.6679 0.3485
0.3749 0.6750 0.3718
0.3866 0.6901 0.3548
0.4017 0.7058 0.3302
0.4245 0.7220 0.2827
0.4675 0.7313 0.2430
0.5240 0.7354 0.2180
0.5836 0.7382 0.1944
0.6411 0.7380 0.1892
0.6926 0.7353 0.2054
0.7371 0.7299 0.2444
0.7706 0.7217 0.2942
0.7899 0.7142 0.3091
0.8031 0.7064 0.3144
0.8152 0.6989 0.3185
0.8268 0.6917 0.3221
0.8378 0.6847 0.3260
0.8476 0.6786 0.3330
0.8566 0.6743 0.3454
0.8652 0.6730 0.3663
0.8738 0.6770 0.4047
0.8822 0.6815 0.4418
0.8830 0.6844 0.4550
0.8832 0.6892 0.4572
0.8835 0.6949 0.4591
0.8838 0.7013 0.4608
0.3393 0.6524 0.3189
0.3407 0.6547 0.3218
0.3423 0.6572 0.3250
0.3446 0.6608 0.3294
0.3476 0.6652 0.3352
0.3513 0.6707 0.3424
0.3558 0.6774 0.3512
0.3623 0.6824 0.3658
0.3697 0.6865 0.3850
0.3791 0.6908 0.4062
0.3914 0.6958 0.4296
0.4034 0.7054 0.4338
0.4142 0.7189 0.4135
0.4264 0.7340 0.3759
0.4463 0.7494 0.3087
0.4955 0.7547 0.2698
0.5531 0.7582 0.2419
0.6116 0.7589 0.2291
0.6660 0.7582 0.2310
0.7135 0.7555 0.2526
0.7539 0.7500 0.2966
0.7851 0.7423 0.3401
0.8037 0.7351 0.3543
0.8160 0.7277 0.3587
0.8270 0.7205 0.3619
0.8380 0.7133 0.3648
0.8486 0.7066 0.3682
0.8576 0.7010 0.3760
0.8661 0.6975 0.3892
0.8746 0.6984 0.4199
0.8828 0.7004 0.4517
0.8838 0.7028 0.4670
0.8840 0.7079 0.4754
0.8840 0.7131 0.4788
0.8841 0.7185 0.4778
0.3621 0.6806 0.3836
0.3634 0.6824 0.3864
0.3647 0.6844 0.3895
0.3666 0.6872 0.3937
0.3692 0.6908 0.3991
0.3724 0.6953 0.4057
0.3761 0.7008 0.4135
0.3819 0.7045 0.4266
0.3885 0.7078 0.4428
0.3965 0.7114 0.4596
0.4057 0.7158 0.4765
0.4178 0.7208 0.4935
0.4252 0.7327 0.4784
0.4344 0.7450 0.4536
0.4461 0.7589 0.4057
0.4679 0.7719 0.3322
0.5227 0.7747 0.3007
0.5809 0.7766 0.2774
0.6370 0.7770 0.2667
0.6881 0.7758 0.2717
0.7316 0.7726 0.2959
0.7689 0.7672 0.3403
0.7984 0.7603 0.3809
0.8157 0.7533 0.3940
0.8275 0.7464 0.3981
0.8382 0.7395 0.4007
0.8484 0.7329 0.4033
0.8577 0.7265 0.4079
0.8661 0.7214 0.4168
0.8745 0.7195 0.4372
0.8828 0.7190 0.4606
0.8841 0.7204 0.4769
0.8841 0.7245 0.4850
0.8842 0.7292 0.4915
0.8844 0.7346 0.4959
0.3835 0.7052 0.4452
0.3846 0.7067 0.4474
0.3857 0.7083 0.4498
0.3873 0.7106 0.4531
0.3894 0.7137 0.4574
0.3911 0.7178 0.4617
0.3931 0.7227 0.4667
0.3972 0.7254 0.4765
0.4017 0.7285 0.4879
0.4077 0.7316 0.4996
0.4158 0.7349 0.5122
0.4264 0.7386 0.5259
0.4361 0.7454 0.5274
0.4428 0.7564 0.5096
0.4533 0.7674 0.4849
0.4657 0.7801 0.4316
0.4935 0.7897 0.3669
0.5489 0.7917 0.3359
0.6065 0.7927 0.3141
0.6603 0.7926 0.3050
0.7079 0.7909 0.3118
0.7480 0.7876 0.3367
0.7827 0.7832 0.3770
0.8099 0.7763 0.4168
0.8264 0.7696 0.4290
0.8380 0.7630 0.4328
0.8480 0.7567 0.4349
0.8579 0.7503 0.4371
0.8662 0.7445 0.4426
0.8745 0.7401 0.4537
0.8827 0.7371 0.4683
0.8845 0.7374 0.4860
0.8846 0.7406 0.4935
0.8848 0.7445 0.4992
0.8850 0.7494 0.5037
0.3985 0.7286 0.4923
0.3990 0.7299 0.4937
0.3996 0.7313 0.4951
0.4004 0.7333 0.4971
0.4014 0.7360 0.4997
0.4026 0.7393 0.5028
0.4047 0.7424 0.5076
0.4083 0.7443 0.5150
0.4122 0.7465 0.5235
0.4175 0.7490 0.5325
0.4245 0.7518 0.5418
0.4337 0.7551 0.5519
0.4459 0.7586 0.5630
0.4535 0.7673 0.5531
0.4624 0.7767 0.5369
0.4723 0.7867 0.5096
0.4850 0.7980 0.4555
0.5175 0.8051 0.4004
0.5735 0.8063 0.3703
0.6294 0.8067 0.3508
0.6809 0.8058 0.3434
0.7253 0.8040 0.3533
0.7626 0.8006 0.3785
0.7944 0.7962 0.4123
0.8201 0.7906 0.4458
0.8362 0.7840 0.4586
0.8475 0.7779 0.4624
0.8573 0.7716 0.4643
0.8660 0.7655 0.4675
0.8744 0.7601 0.4732
0.8826 0.7554 0.4808
0.8852 0.7540 0.4969
0.8853 0.7564 0.5054
0.8854 0.7598 0.5117
0.8855 0.7639 0.5154
0.4093 0.7489 0.5285
0.4096 0.7499 0.5296
0.4100 0.7511 0.5306
0.4106 0.7528 0.5319
0.4113 0.7550 0.5337
0.4121 0.7577 0.5358
0.4150 0.7592 0.5405
0.4185 0.7608 0.5462
0.4225 0.7628 0.5527
0.4277 0.7650 0.5601
0.4346 0.7672 0.5678
0.4433 0.7698 0.5763
0.4542 0.7726 0.5855
0.4643 0.7776 0.5870
0.4715 0.7857 0.5758
0.4804 0.7940 0.5598
0.4899 0.8035 0.5294
0.5024 0.8138 0.4759
0.5402 0.8183 0.4318
0.5974 0.8190 0.4073
0.6519 0.8187 0.3927
0.7004 0.8174 0.3885
0.7413 0.8153 0.3977
0.7755 0.8118 0.4193
0.8048 0.8080 0.4453
0.8296 0.8031 0.4726
0.8451 0.7966 0.4841
0.8564 0.7905 0.4878
0.8655 0.7848 0.4898
0.8738 0.7790 0.4937
0.8820 0.7735 0.4978
0.8856 0.7706 0.5113
0.8856 0.7721 0.5201
0.8856 0.7745 0.5273
0.8856 0.7782 0.5324
0.4206 0.7665 0.5583
0.4211 0.7674 0.5592
0.4217 0.7683 0.5601
0.4225 0.7696 0.5614
0.4235 0.7713 0.5631
0.4250 0.7732 0.5654
0.4278 0.7744 0.5691
0.4308 0.7758 0.5736
0.4343 0.7774 0.5788
0.4389 0.7792 0.5848
0.4450 0.7812 0.5915
0.4527 0.7834 0.5983
0.4622 0.7858 0.6059
0.4736 0.7880 0.6142
0.4805 0.7945 0.6070
0.4885 0.8016 0.5959
0.4983 0.8091 0.5804
0.5083 0.8178 0.5489
0.5245 0.8261 0.5022
0.5667 0.8289 0.4709
0.6209 0.8296 0.4481
0.6732 0.8291 0.4355
0.7183 0.8277 0.4314
0.7561 0.8255 0.4387
0.7875 0.8221 0.4571
0.8146 0.8184 0.4737
0.8375 0.8138 0.4967
0.8535 0.8081 0.5066
0.8646 0.8023 0.5099
0.8730 0.7967 0.5131
0.8810 0.7913 0.5163
0.8856 0.7872 0.5286
0.8856 0.7871 0.5379
0.8857 0.7886 0.5456
0.8858 0.7914 0.5508
0.4335 0.7815 0.5851
0.4340 0.7822 0.5859
0.4344 0.7830 0.5867
0.4351 0.7841 0.5878
0.4360 0.7855 0.5892
0.4372 0.7871 0.5912
0.4397 0.7881 0.5945
0.4424 0.7893 0.5981
0.4455 0.7908 0.6023
0.4495 0.7923 0.6071
0.4547 0.7940 0.6124
0.4616 0.7959 0.6184
0.4706 0.7975 0.6250
0.4816 0.7992 0.6320
0.4917 0.8027 0.6339
0.4988 0.8091 0.6261
0.5075 0.8155 0.6154
0.5173 0.8224 0.5989
0.5278 0.8301 0.5681
0.5497 0.8364 0.5306
0.5906 0.8386 0.5040
0.6425 0.8388 0.4852
0.6921 0.8384 0.4741
0.7340 0.8366 0.4712
0.7690 0.8345 0.4770
