luts/UP-CoolPortra.cube
TITLE "UP-CoolPortra"
#Data domain
#LUT size
LUT_3D_SIZE 5
DOMAIN_MIN 0.000000 0.000000 0.000000
DOMAIN_MAX 0.823529 0.823529 0.823529
0.0943 0.0720 0.0321
0.1092 0.0732 0.0316
0.3429 0.1292 0.0302
0.6224 0.2645 0.0786
0.8119 0.3911 0.1667
0.1068 0.1198 0.0365
0.2246 0.2113 0.0269
0.4837 0.2413 0.0522
0.6797 0.3218 0.0947
0.8280 0.4245 0.1905
0.2171 0.4510 0.1118
0.2630 0.5221 0.1397
0.5770 0.6168 0.1197
0.7755 0.5713 0.1717
0.8625 0.5730 0.2836
0.3835 0.7052 0.4452
0.3972 0.7254 0.4765
0.4533 0.7674 0.4849
0.7480 0.7876 0.3367
0.8662 0.7445 0.4426
0.4664 0.8190 0.6495
0.4743 0.8219 0.6591
0.5171 0.8287 0.6862
0.5846 0.8594 0.6176
0.8248 0.8555 0.5635
0.1021 0.0775 0.0429
0.1628 0.0991 0.0976
0.4020 0.1470 0.0767
0.6304 0.2523 0.0800
0.8105 0.3868 0.1938
0.1069 0.1394 0.0671
0.2919 0.2801 0.1761
0.5518 0.2280 0.0632
0.7229 0.3222 0.1091
0.8495 0.4350 0.2288
0.2290 0.4768 0.1389
0.2817 0.5488 0.1824
0.5968 0.6355 0.1873
0.7873 0.5646 0.1989
0.8700 0.5665 0.3159
0.3916 0.7116 0.4738
0.4039 0.7306 0.5026
0.4825 0.7607 0.5631
0.7518 0.7898 0.3868
0.8649 0.7431 0.4710
0.4694 0.8208 0.6563
0.4780 0.8233 0.6661
0.5237 0.8297 0.6923
0.6008 0.8565 0.6541
0.8256 0.8547 0.5967
0.1389 0.1286 0.1875
0.2138 0.1730 0.3108
0.4920 0.3387 0.4906
0.7183 0.4238 0.5413
0.8280 0.4494 0.4898
0.1587 0.1737 0.2031
0.2397 0.2305 0.4411
0.5766 0.4151 0.5999
0.7625 0.4417 0.5500
0.8506 0.4631 0.4740
0.2937 0.4874 0.3904
0.3498 0.5636 0.5079
0.6231 0.6599 0.6574
0.8139 0.5252 0.4756
0.8797 0.5300 0.4460
0.4088 0.7263 0.5427
0.4184 0.7483 0.5654
0.5266 0.7696 0.6366
0.7637 0.7955 0.5873
0.8716 0.7401 0.5742
0.4786 0.8257 0.6767
0.4876 0.8279 0.6856
0.5395 0.8336 0.7105
0.6537 0.8465 0.7313
0.8288 0.8558 0.6560
0.2689 0.2602 0.5181
0.3311 0.3105 0.6519
0.5047 0.4084 0.6947
0.7306 0.5311 0.7450
0.8589 0.5885 0.7610
0.2886 0.3052 0.5411
0.3334 0.3353 0.6416
0.5174 0.4336 0.7469
0.7551 0.5537 0.7676
0.8744 0.5991 0.7679
0.3602 0.4788 0.6089
0.3882 0.5025 0.6568
0.4959 0.5457 0.7793
0.7782 0.6291 0.7894
0.8763 0.6277 0.7594
0.4630 0.7217 0.6894
0.4761 0.7378 0.7065
0.5256 0.7761 0.7509
0.7696 0.7921 0.7902
0.8818 0.7250 0.7215
0.4951 0.8306 0.7102
0.4991 0.8369 0.7172
0.5420 0.8429 0.7402
0.6982 0.8470 0.7780
0.8345 0.8558 0.7534
0.3990 0.4128 0.7362
0.4264 0.4276 0.7812
0.5253 0.4789 0.8302
0.7247 0.5666 0.8381
0.8421 0.6416 0.8426
0.4142 0.4508 0.7431
0.4359 0.4586 0.7811
0.5297 0.5038 0.8604
0.7319 0.5771 0.8541
0.8513 0.6524 0.8510
0.4574 0.5574 0.7576
0.4723 0.5644 0.7820
0.5238 0.5681 0.8616
0.7213 0.6065 0.8633
0.8538 0.6818 0.8536
0.5061 0.7043 0.7830
0.5147 0.7097 0.7935
0.5409 0.7213 0.8262
0.6855 0.7295 0.8651
0.8551 0.7644 0.8563
0.5513 0.8250 0.7978
0.5555 0.8294 0.8028
0.5695 0.8430 0.8177
0.6709 0.8500 0.8331
0.8376 0.8491 0.8503
