luts/UP-CoolPortra.cube
TITLE "UP-CoolPortra"
#Data domain
#LUT size
LUT_3D_SIZE 7
DOMAIN_MIN 0.000000 0.000000 0.000000
DOMAIN_MAX 0.882353 0.882353 0.882353
0.0943 0.0720 0.0321
0.0990 0.0728 0.0321
0.1677 0.0764 0.0256
0.3861 0.1486 0.0357
0.5871 0.2453 0.0705
0.7453 0.3371 0.1185
0.8477 0.4331 0.2251
0.1022 0.0849 0.0339
0.1382 0.1211 0.0263
0.2880 0.1399 0.0260
0.4536 0.1950 0.0460
0.6224 0.2747 0.0789
0.7610 0.3563 0.1275
0.8537 0.4466 0.2385
0.1302 0.2362 0.0472
0.1674 0.2985 0.0501
0.3898 0.4031 0.0635
0.5920 0.3995 0.0919
0.7129 0.4031 0.1063
0.7990 0.4380 0.1591
0.8681 0.5047 0.2912
0.2413 0.5004 0.1376
0.2621 0.5402 0.1492
0.3356 0.6108 0.1624
0.6125 0.6551 0.1344
0.7659 0.6174 0.1903
0.8329 0.5915 0.2155
0.8819 0.6146 0.3801
0.3621 0.6806 0.3836
0.3724 0.6953 0.4057
0.4057 0.7158 0.4765
0.4679 0.7719 0.3322
0.7316 0.7726 0.2959
0.8382 0.7395 0.4007
0.8828 0.7190 0.4606
0.4335 0.7815 0.5851
0.4372 0.7871 0.5912
0.4547 0.7940 0.6124
0.4988 0.8091 0.6261
0.5906 0.8386 0.5040
0.7980 0.8311 0.4918
0.8802 0.8072 0.5331
0.4835 0.8390 0.6842
0.4882 0.8393 0.6890
0.5037 0.8410 0.7001
0.5434 0.8451 0.7175
0.5863 0.8609 0.7021
0.6926 0.8755 0.6291
0.8398 0.8701 0.5990
0.0975 0.0740 0.0351
0.1205 0.0752 0.0497
0.2276 0.0799 0.0440
0.3957 0.1392 0.0370
0.5887 0.2379 0.0706
0.7475 0.3323 0.1192
0.8501 0.4338 0.2413
0.1050 0.0898 0.0405
0.1829 0.1617 0.0852
0.3551 0.1357 0.0317
0.4986 0.2009 0.0537
0.6507 0.2796 0.0861
0.7777 0.3608 0.1373
0.8646 0.4586 0.2707
0.1365 0.2546 0.0584
0.1809 0.3275 0.0694
0.4216 0.4399 0.0715
0.6283 0.3969 0.0948
0.7287 0.3888 0.1114
0.8092 0.4289 0.1680
0.8763 0.5056 0.3164
0.2484 0.5126 0.1525
0.2705 0.5526 0.1663
0.3491 0.6084 0.2421
0.6201 0.6619 0.1663
0.7743 0.6159 0.1929
0.8355 0.5893 0.2441
0.8815 0.6103 0.3903
0.3673 0.6849 0.4032
0.3776 0.6995 0.4250
0.4115 0.7191 0.4928
0.4782 0.7691 0.4185
0.7342 0.7740 0.3234
0.8395 0.7389 0.4105
0.8818 0.7189 0.4774
0.4358 0.7831 0.5912
0.4398 0.7884 0.5972
0.4578 0.7952 0.6181
0.5103 0.8067 0.6435
0.5937 0.8382 0.5369
0.7990 0.8315 0.5084
0.8795 0.8067 0.5410
0.4848 0.8399 0.6871
0.4900 0.8398 0.6920
0.5060 0.8414 0.7029
0.5466 0.8455 0.7200
0.5947 0.8595 0.7120
0.6937 0.8752 0.6416
0.8401 0.8697 0.6134
0.1025 0.0909 0.0854
0.1301 0.0981 0.1369
0.2954 0.1851 0.2137
0.5106 0.2453 0.2365
0.6366 0.2772 0.1884
0.7528 0.3470 0.2200
0.8440 0.4367 0.3292
0.1071 0.1074 0.0921
0.1462 0.1359 0.2022
0.3893 0.2540 0.3338
0.5735 0.2674 0.2419
0.6738 0.2933 0.1775
0.7766 0.3619 0.2132
0.8604 0.4550 0.3359
0.1642 0.2662 0.1513
0.2087 0.3486 0.2169
0.4633 0.4904 0.4407
0.6739 0.3565 0.2017
0.7614 0.3537 0.1391
0.8356 0.4206 0.2196
0.8797 0.4959 0.3563
0.2673 0.5352 0.2045
0.2922 0.5775 0.2349
0.3904 0.6350 0.3831
0.6428 0.6780 0.3746
0.7855 0.6135 0.3181
0.8426 0.5790 0.3290
0.8811 0.5963 0.4134
0.3811 0.6946 0.4553
0.3912 0.7095 0.4763
0.4254 0.7284 0.5327
0.5292 0.7565 0.5809
0.7410 0.7782 0.4326
0.8424 0.7374 0.4621
0.8836 0.7187 0.5244
0.4422 0.7869 0.6067
0.4463 0.7920 0.6127
0.4663 0.7982 0.6329
0.5299 0.8063 0.6658
0.6074 0.8357 0.6116
0.8013 0.8327 0.5555
0.8775 0.8060 0.5826
0.4887 0.8417 0.6950
0.4943 0.8413 0.6997
0.5115 0.8429 0.7102
0.5545 0.8467 0.7268
0.6162 0.8562 0.7347
0.6978 0.8746 0.6738
0.8406 0.8682 0.6507
0.1556 0.1446 0.2229
0.2041 0.1773 0.3471
0.3190 0.2427 0.4240
0.5352 0.3765 0.5487
0.6983 0.4537 0.5997
0.7929 0.4582 0.5674
0.8611 0.4892 0.5517
0.1651 0.1665 0.2319
0.2066 0.1956 0.3506
0.3413 0.2726 0.5208
0.5775 0.4129 0.5994
0.7289 0.4718 0.6198
0.8087 0.4628 0.5648
0.8716 0.4989 0.5485
0.2083 0.2596 0.2893
0.2352 0.2869 0.3651
0.3462 0.3652 0.6091
0.6386 0.4956 0.6659
0.7708 0.4991 0.6348
0.8387 0.4722 0.5384
0.8786 0.5087 0.5172
0.3268 0.5339 0.4614
0.3521 0.5670 0.5117
0.4223 0.6457 0.6169
0.6525 0.6876 0.6850
0.8085 0.5941 0.5833
0.8643 0.5448 0.4927
0.8797 0.5546 0.4925
0.4013 0.7049 0.5276
0.4085 0.7208 0.5452
0.4335 0.7485 0.5888
0.5733 0.7671 0.6539
0.7550 0.7834 0.6261
0.8493 0.7341 0.5835
0.8833 0.7162 0.5948
0.4534 0.7925 0.6333
0.4570 0.7983 0.6387
0.4768 0.8044 0.6576
0.5484 0.8121 0.6889
0.6613 0.8243 0.7128
0.8059 0.8343 0.6377
0.8796 0.8043 0.6400
0.4951 0.8450 0.7085
0.4999 0.8451 0.7124
0.5193 0.8461 0.7225
0.5660 0.8491 0.7391
0.6474 0.8527 0.7615
0.7097 0.8722 0.7250
0.8427 0.8683 0.6928
0.2495 0.2396 0.4692
0.2837 0.2662 0.5596
0.3588 0.3144 0.6336
0.5468 0.4293 0.6827
0.7053 0.5140 0.7224
0.8090 0.5637 0.7408
0.8759 0.5779 0.7291
0.2592 0.2616 0.4830
0.2879 0.2819 0.5597
0.3690 0.3389 0.6808
0.5610 0.4444 0.7100
0.7232 0.5261 0.7389
0.8217 0.5715 0.7490
0.8760 0.5797 0.7263
0.2924 0.3399 0.5226
0.3154 0.3590 0.5753
0.3804 0.3943 0.7082
0.5693 0.4728 0.7547
0.7468 0.5565 0.7609
0.8402 0.5882 0.7586
0.8764 0.5789 0.7148
0.3720 0.5187 0.6110
0.3871 0.5333 0.6351
0.4281 0.5667 0.6986
0.5486 0.5995 0.7789
0.7692 0.6527 0.7817
0.8557 0.6396 0.7598
0.8778 0.6037 0.6952
0.4494 0.6997 0.6669
0.4556 0.7112 0.6788
0.4781 0.7397 0.7094
0.5501 0.7707 0.7484
0.7565 0.7798 0.7778
0.8625 0.7235 0.7243
0.8811 0.6823 0.6705
0.4682 0.7962 0.6665
0.4722 0.8017 0.6725
0.4825 0.8163 0.6883
0.5425 0.8240 0.7193
0.6974 0.8281 0.7588
0.8141 0.8339 0.7437
0.8836 0.8022 0.7172
0.5047 0.8487 0.7278
0.5060 0.8513 0.7304
0.5235 0.8513 0.7401
0.5726 0.8541 0.7559
0.6634 0.8563 0.7772
0.7477 0.8627 0.7893
0.8458 0.8685 0.7438
0.3457 0.3491 0.6611
0.3662 0.3632 0.6972
0.4200 0.4023 0.7682
0.5450 0.4606 0.7813
0.7074 0.5444 0.7998
0.8027 0.5988 0.8079
0.8725 0.6393 0.8155
0.3551 0.3714 0.6674
0.3731 0.3820 0.7001
0.4325 0.4227 0.7941
0.5471 0.4699 0.7994
0.7140 0.5515 0.8099
0.8097 0.6064 0.8146
0.8727 0.6411 0.8150
0.3828 0.4383 0.6835
0.3966 0.4462 0.7090
0.4341 0.4583 0.7780
0.5381 0.4911 0.8337
0.7211 0.5650 0.8276
0.8193 0.6213 0.8234
0.8729 0.6491 0.8142
0.4250 0.5452 0.7059
0.4366 0.5530 0.7227
0.4661 0.5698 0.7669
0.5187 0.5725 0.8322
0.7151 0.6107 0.8414
0.8260 0.6670 0.8302
0.8749 0.6838 0.8139
0.4779 0.6834 0.7457
0.4840 0.6885 0.7538
0.5010 0.7017 0.7761
0.5339 0.7161 0.8096
0.6837 0.7251 0.8426
0.8302 0.7513 0.8352
0.8787 0.7412 0.8125
0.5191 0.7894 0.7595
0.5229 0.7934 0.7641
0.5328 0.8041 0.7765
0.5588 0.8178 0.7936
0.6663 0.8302 0.8138
0.8136 0.8287 0.8283
0.8841 0.7963 0.7986
0.5201 0.8499 0.7547
0.5206 0.8526 0.7559
0.5230 0.8596 0.7610
0.5482 0.8642 0.7747
0.6499 0.8652 0.7952
0.7729 0.8630 0.8190
0.8504 0.8672 0.8063
0.4310 0.4518 0.7761
0.4431 0.4568 0.7946
0.4891 0.4845 0.8492
0.5660 0.5156 0.8633
0.6976 0.5632 0.8640
0.7986 0.6240 0.8592
0.8660 0.6689 0.8634
0.4385 0.4702 0.7786
0.4491 0.4738 0.7958
0.4871 0.4893 0.8455
0.5626 0.5213 0.8696
0.6944 0.5645 0.8661
0.7971 0.6243 0.8591
0.8702 0.6736 0.8671
0.4581 0.5194 0.7836
0.4662 0.5218 0.7972
0.4921 0.5251 0.8372
0.5430 0.5271 0.8701
0.6809 0.5667 0.8668
0.7945 0.6318 0.8590
0.8715 0.6807 0.8687
0.4833 0.5942 0.7909
0.4893 0.5969 0.8015
0.5068 0.6007 0.8300
0.5489 0.6014 0.8735
0.6648 0.6067 0.8672
0.7913 0.6653 0.8592
0.8707 0.7093 0.8685
0.5090 0.6839 0.7970
0.5130 0.6860 0.8023
0.5270 0.6916 0.8200
0.5586 0.6988 0.8559
0.6531 0.7005 0.8660
0.7863 0.7239 0.8607
0.8704 0.7585 0.8685
0.5474 0.7787 0.8135
0.5506 0.7809 0.8169
0.5593 0.7863 0.8267
0.5759 0.7948 0.8448
0.6343 0.7975 0.8574
0.7733 0.7982 0.8682
0.8677 0.8117 0.8695
0.5704 0.8448 0.8184
0.5714 0.8465 0.8205
0.5748 0.8514 0.8260
0.5837 0.8603 0.8356
0.6488 0.8608 0.8412
0.7482 0.8660 0.8536
0.8510 0.8611 0.8631
