luts/UP-DarkPortra.cube
TITLE "UP-DarkPortra"
LUT_3D_SIZE 4
0.039216 0.019608 0.000000
0.345098 0.117647 0.000000
0.694118 0.298039 0.000000
0.905882 0.415686 0.117647
0.129412 0.196078 0.090196
0.321569 0.301961 0.074510
0.721569 0.360784 0.000000
0.964706 0.454902 0.160784
0.223529 0.458824 0.270588
0.207843 0.545098 0.329412
0.658824 0.690196 0.349020
0.952941 0.647059 0.313725
0.603922 0.874510 0.784314
0.627451 0.847059 0.733333
0.592157 0.850980 0.701961
0.823529 0.866667 0.745098
0.000000 0.000000 0.000000
0.160784 0.062745 0.074510
0.580392 0.262745 0.121569
0.913725 0.462745 0.321569
0.243137 0.258824 0.160784
0.360784 0.333333 0.215686
0.815686 0.352941 0.000000
1.000000 0.509804 0.254902
0.219608 0.478431 0.262745
0.235294 0.564706 0.360784
0.694118 0.717647 0.356863
0.972549 0.650980 0.364706
0.607843 0.866667 0.760784
0.615686 0.847059 0.725490
0.572549 0.886275 0.780392
0.839216 0.870588 0.756863
0.278431 0.180392 0.462745
0.341176 0.207843 0.474510
0.580392 0.407843 0.541176
0.913725 0.564706 0.584314
0.360784 0.333333 0.513725
0.333333 0.329412 0.647059
0.764706 0.584314 0.733333
0.929412 0.592157 0.611765
0.411765 0.615686 0.490196
0.270588 0.694118 0.576471
0.784314 0.768627 0.749020
0.960784 0.654902 0.588235
0.552941 0.854902 0.729412
0.615686 0.878431 0.745098
0.650980 0.901961 0.800000
0.866667 0.870588 0.760784
0.403922 0.301961 0.725490
0.486275 0.376471 0.800000
0.654902 0.552941 0.764706
0.898039 0.745098 0.819608
0.478431 0.474510 0.745098
0.458824 0.454902 0.760784
0.698039 0.607843 0.800000
0.882353 0.749020 0.827451
0.537255 0.654902 0.741176
0.513725 0.643137 0.737255
0.690196 0.701961 0.831373
0.909804 0.811765 0.858824
0.564706 0.815686 0.745098
0.600000 0.831373 0.780392
0.647059 0.854902 0.811765
0.874510 0.866667 0.850980
