luts/UP-DarkPortra.cube
TITLE "UP-DarkPortra"
LUT_3D_SIZE 8
0.039216 0.019608 0.000000
0.062745 0.019608 0.000000
0.286275 0.090196 0.000000
0.450980 0.180392 0.000000
0.596078 0.247059 0.000000
0.741176 0.321569 0.000000
0.850980 0.380392 0.070588
0.905882 0.415686 0.117647
0.039216 0.039216 0.011765
0.121569 0.082353 0.000000
0.286275 0.125490 0.000000
0.443137 0.188235 0.000000
0.607843 0.258824 0.000000
0.749020 0.329412 0.000000
0.858824 0.388235 0.078431
0.941176 0.439216 0.137255
0.109804 0.160784 0.070588
0.094118 0.172549 0.086275
0.278431 0.235294 0.031373
0.466667 0.266667 0.000000
0.627451 0.305882 0.000000
0.756863 0.352941 0.000000
0.862745 0.403922 0.090196
0.956863 0.450980 0.156863
0.176471 0.274510 0.137255
0.121569 0.305882 0.168627
0.176471 0.337255 0.184314
0.411765 0.427451 0.168627
0.631373 0.450980 0.101961
0.784314 0.470588 0.117647
0.894118 0.474510 0.113725
0.988235 0.490196 0.176471
0.207843 0.396078 0.223529
0.152941 0.447059 0.247059
0.172549 0.454902 0.262745
0.282353 0.501961 0.286275
0.560784 0.603922 0.301961
0.784314 0.611765 0.254902
0.898039 0.611765 0.239216
0.988235 0.568627 0.266667
0.235294 0.494118 0.298039
0.215686 0.560784 0.333333
0.219608 0.580392 0.349020
0.247059 0.603922 0.364706
0.407843 0.654902 0.396078
0.701961 0.725490 0.376471
0.862745 0.713725 0.392157
0.937255 0.678431 0.356863
0.372549 0.635294 0.454902
0.317647 0.662745 0.450980
0.360784 0.686275 0.478431
0.443137 0.721569 0.537255
0.439216 0.729412 0.517647
0.552941 0.745098 0.498039
0.784314 0.792157 0.517647
0.847059 0.780392 0.545098
0.603922 0.874510 0.784314
0.525490 0.768627 0.615686
0.615686 0.831373 0.709804
0.627451 0.870588 0.764706
0.596078 0.878431 0.760784
0.517647 0.827451 0.615686
0.658824 0.843137 0.670588
0.823529 0.866667 0.745098
0.000000 0.000000 0.000000
0.000000 0.000000 0.000000
0.000000 0.000000 0.000000
0.247059 0.062745 0.039216
0.458824 0.141176 0.027451
0.611765 0.203922 0.000000
0.756863 0.262745 0.000000
0.984314 0.482353 0.305882
0.203922 0.090196 0.007843
0.117647 0.090196 0.031373
0.345098 0.129412 0.000000
0.482353 0.188235 0.000000
0.607843 0.247059 0.000000
0.749020 0.313725 0.000000
0.854902 0.364706 0.027451
0.960784 0.447059 0.152941
0.152941 0.188235 0.078431
0.074510 0.152941 0.074510
0.270588 0.231373 0.039216
0.498039 0.258824 0.000000
0.643137 0.298039 0.000000
0.776471 0.349020 0.000000
0.886275 0.400000 0.082353
0.992157 0.474510 0.172549
0.172549 0.270588 0.133333
0.113725 0.294118 0.160784
0.180392 0.317647 0.180392
0.423529 0.427451 0.160784
0.650980 0.443137 0.086275
0.803922 0.450980 0.078431
0.905882 0.454902 0.082353
1.000000 0.490196 0.188235
0.211765 0.392157 0.219608
0.137255 0.447059 0.247059
0.168627 0.450980 0.262745
0.286275 0.498039 0.290196
0.572549 0.611765 0.305882
0.800000 0.615686 0.250980
0.913725 0.607843 0.235294
1.000000 0.576471 0.290196
0.239216 0.494118 0.298039
0.207843 0.568627 0.337255
0.207843 0.588235 0.352941
0.254902 0.611765 0.384314
0.419608 0.658824 0.407843
0.713725 0.733333 0.388235
0.874510 0.721569 0.400000
0.949020 0.678431 0.368627
0.372549 0.639216 0.454902
0.325490 0.670588 0.454902
0.364706 0.694118 0.490196
0.470588 0.733333 0.560784
0.478431 0.737255 0.549020
0.560784 0.745098 0.505882
0.792157 0.800000 0.529412
0.862745 0.780392 0.564706
0.619608 0.878431 0.784314
0.537255 0.780392 0.631373
0.607843 0.827451 0.705882
0.619608 0.870588 0.752941
0.592157 0.886275 0.772549
0.572549 0.847059 0.674510
0.666667 0.847059 0.682353
0.835294 0.870588 0.749020
0.000000 0.000000 0.000000
0.000000 0.000000 0.000000
0.090196 0.007843 0.027451
0.266667 0.133333 0.117647
0.466667 0.200000 0.101961
0.588235 0.235294 0.015686
0.733333 0.286275 0.000000
0.925490 0.462745 0.298039
0.203922 0.141176 0.149020
0.113725 0.105882 0.125490
0.282353 0.196078 0.172549
0.470588 0.196078 0.074510
0.600000 0.243137 0.015686
0.737255 0.305882 0.000000
0.850980 0.368627 0.082353
0.956863 0.450980 0.160784
0.223529 0.219608 0.129412
0.094118 0.200000 0.125490
0.305882 0.266667 0.149020
0.505882 0.231373 0.000000
0.717647 0.309804 0.000000
0.831373 0.360784 0.000000
0.909804 0.403922 0.086275
1.000000 0.501961 0.219608
0.176471 0.278431 0.133333
0.109804 0.313725 0.172549
0.219608 0.329412 0.215686
0.450980 0.447059 0.176471
0.709804 0.439216 0.070588
0.843137 0.427451 0.062745
0.925490 0.450980 0.082353
1.000000 0.533333 0.266667
0.207843 0.384314 0.211765
0.137255 0.450980 0.250980
0.188235 0.458824 0.278431
0.321569 0.505882 0.329412
0.596078 0.623529 0.309804
0.823529 0.615686 0.243137
0.937255 0.596078 0.223529
1.000000 0.584314 0.333333
0.243137 0.505882 0.294118
0.203922 0.572549 0.341176
0.207843 0.588235 0.360784
0.321569 0.619608 0.423529
0.450980 0.662745 0.439216
0.725490 0.737255 0.388235
0.882353 0.717647 0.400000
0.956863 0.674510 0.372549
0.349020 0.631373 0.435294
0.349020 0.678431 0.470588
0.384314 0.705882 0.505882
0.501961 0.741176 0.596078
0.549020 0.749020 0.607843
0.580392 0.749020 0.533333
0.796078 0.796078 0.533333
0.870588 0.780392 0.576471
0.615686 0.870588 0.764706
0.580392 0.800000 0.666667
0.607843 0.835294 0.713725
0.615686 0.854902 0.729412
0.592157 0.882353 0.776471
0.588235 0.870588 0.737255
0.662745 0.850980 0.690196
0.839216 0.874510 0.756863
0.129412 0.054902 0.133333
0.200000 0.109804 0.235294
0.188235 0.121569 0.141176
0.290196 0.168627 0.184314
0.458824 0.309804 0.313725
0.643137 0.349020 0.282353
0.792157 0.368627 0.192157
0.921569 0.494118 0.411765
0.219608 0.156863 0.282353
0.176471 0.156863 0.270588
0.290196 0.211765 0.325490
0.419608 0.321569 0.345098
0.592157 0.364706 0.360784
0.729412 0.364706 0.254902
0.843137 0.400000 0.231373
0.964706 0.462745 0.203922
0.270588 0.243137 0.231373
0.160784 0.200000 0.203922
0.247059 0.247059 0.298039
0.450980 0.372549 0.384314
0.666667 0.360784 0.301961
0.803922 0.376471 0.184314
0.890196 0.407843 0.168627
0.992157 0.486275 0.203922
0.254902 0.333333 0.207843
0.168627 0.345098 0.231373
0.227451 0.415686 0.301961
0.509804 0.509804 0.415686
0.705882 0.423529 0.203922
0.850980 0.403922 0.098039
0.972549 0.450980 0.113725
1.000000 0.600000 0.439216
0.200000 0.435294 0.239216
0.145098 0.474510 0.262745
0.188235 0.490196 0.301961
0.411765 0.560784 0.431373
0.639216 0.650980 0.376471
0.866667 0.607843 0.235294
0.968627 0.572549 0.188235
1.000000 0.619608 0.470588
0.243137 0.509804 0.286275
0.207843 0.584314 0.356863
0.239216 0.607843 0.388235
0.400000 0.650980 0.494118
0.545098 0.698039 0.564706
0.737255 0.749020 0.403922
0.898039 0.713725 0.400000
0.968627 0.674510 0.427451
0.345098 0.643137 0.439216
0.388235 0.698039 0.505882
0.435294 0.721569 0.541176
0.541176 0.756863 0.631373
0.623529 0.776471 0.682353
0.631373 0.752941 0.615686
0.807843 0.800000 0.541176
0.878431 0.780392 0.592157
0.592157 0.866667 0.756863
0.600000 0.827451 0.698039
0.611765 0.847059 0.729412
0.607843 0.862745 0.737255
0.592157 0.878431 0.772549
0.596078 0.882353 0.776471
0.643137 0.847059 0.698039
0.839216 0.870588 0.760784
0.215686 0.145098 0.317647
0.298039 0.192157 0.501961
0.278431 0.156863 0.337255
0.388235 0.262745 0.352941
0.454902 0.337255 0.392157
0.580392 0.439216 0.501961
0.768627 0.505882 0.564706
0.917647 0.533333 0.521569
0.250980 0.207843 0.423529
0.235294 0.215686 0.427451
0.305882 0.254902 0.521569
0.466667 0.356863 0.525490
0.635294 0.458824 0.600000
0.725490 0.529412 0.603922
0.835294 0.529412 0.580392
0.949020 0.505882 0.400000
0.317647 0.274510 0.396078
0.200000 0.231373 0.349020
0.286275 0.270588 0.537255
0.478431 0.380392 0.607843
0.701961 0.501961 0.674510
0.776471 0.556863 0.631373
0.870588 0.494118 0.521569
0.964706 0.509804 0.380392
0.298039 0.380392 0.341176
0.215686 0.341176 0.360784
0.254902 0.384314 0.470588
0.427451 0.466667 0.592157
0.678431 0.576471 0.678431
0.792157 0.556863 0.607843
0.929412 0.501961 0.431373
1.000000 0.564706 0.431373
0.270588 0.439216 0.298039
0.290196 0.525490 0.403922
0.317647 0.596078 0.470588
0.388235 0.678431 0.568627
0.721569 0.709804 0.686275
0.843137 0.631373 0.545098
0.937255 0.564706 0.407843
1.000000 0.615686 0.486275
0.258824 0.541176 0.325490
0.262745 0.600000 0.388235
0.309804 0.639216 0.435294
0.474510 0.701961 0.560784
0.674510 0.756863 0.701961
0.780392 0.772549 0.643137
0.901961 0.721569 0.498039
0.976471 0.678431 0.498039
0.376471 0.658824 0.462745
0.454902 0.717647 0.556863
0.494118 0.741176 0.592157
0.545098 0.768627 0.647059
0.631373 0.792157 0.709804
0.721569 0.796078 0.725490
0.815686 0.807843 0.611765
0.898039 0.776471 0.600000
0.568627 0.862745 0.741176
0.611765 0.854902 0.725490
0.611765 0.870588 0.737255
0.607843 0.878431 0.752941
0.600000 0.882353 0.768627
0.662745 0.898039 0.823529
0.729412 0.874510 0.776471
0.850980 0.866667 0.756863
0.298039 0.196078 0.517647
0.337255 0.215686 0.607843
0.376471 0.235294 0.639216
0.431373 0.309804 0.521569
0.568627 0.411765 0.592157
0.674510 0.470588 0.647059
0.760784 0.552941 0.690196
0.917647 0.611765 0.635294
0.290196 0.290196 0.568627
0.286275 0.270588 0.568627
0.356863 0.317647 0.662745
0.454902 0.364706 0.650980
0.623529 0.490196 0.682353
0.752941 0.568627 0.725490
0.839216 0.647059 0.752941
0.898039 0.674510 0.713725
0.349020 0.329412 0.549020
0.262745 0.282353 0.505882
0.333333 0.325490 0.654902
0.458824 0.396078 0.717647
0.639216 0.521569 0.721569
0.768627 0.596078 0.745098
0.847059 0.654902 0.749020
0.905882 0.670588 0.713725
0.380392 0.423529 0.541176
0.239216 0.341176 0.482353
0.282353 0.364706 0.580392
0.407843 0.415686 0.694118
0.631373 0.549020 0.741176
0.800000 0.647059 0.772549
0.870588 0.690196 0.764706
0.925490 0.674510 0.701961
0.388235 0.556863 0.552941
0.282353 0.513725 0.533333
0.317647 0.533333 0.584314
0.427451 0.588235 0.678431
0.647059 0.670588 0.749020
0.800000 0.729412 0.784314
0.870588 0.721569 0.756863
0.952941 0.678431 0.698039
0.415686 0.674510 0.564706
0.266667 0.670588 0.552941
0.270588 0.701961 0.588235
0.403922 0.752941 0.670588
0.623529 0.780392 0.733333
0.803922 0.784314 0.764706
0.882353 0.752941 0.721569
0.929412 0.690196 0.647059
0.509804 0.733333 0.596078
0.482353 0.725490 0.584314
0.498039 0.749020 0.611765
0.517647 0.780392 0.654902
0.611765 0.803922 0.713725
0.768627 0.815686 0.780392
0.839216 0.831373 0.752941
0.925490 0.776471 0.662745
0.549020 0.850980 0.729412
0.596078 0.858824 0.705882
0.600000 0.862745 0.709804
0.611765 0.890196 0.764706
0.607843 0.905882 0.796078
0.694118 0.905882 0.819608
0.772549 0.909804 0.854902
0.866667 0.870588 0.768627
0.349020 0.227451 0.647059
0.372549 0.239216 0.678431
0.443137 0.313725 0.764706
0.439216 0.341176 0.666667
0.576471 0.462745 0.705882
0.666667 0.521569 0.701961
0.784314 0.619608 0.752941
0.913725 0.701961 0.741176
0.313725 0.333333 0.654902
0.333333 0.321569 0.650980
0.415686 0.384314 0.741176
0.470588 0.403922 0.733333
0.603922 0.498039 0.737255
0.729412 0.600000 0.752941
0.831373 0.674510 0.788235
0.886275 0.713725 0.788235
0.384314 0.380392 0.658824
0.309804 0.325490 0.619608
0.376471 0.360784 0.694118
0.486275 0.447059 0.776471
0.611765 0.517647 0.768627
0.745098 0.619608 0.772549
0.843137 0.686275 0.796078
0.886275 0.717647 0.796078
0.450980 0.470588 0.698039
0.298039 0.380392 0.607843
0.352941 0.403922 0.670588
0.466667 0.466667 0.768627
0.607843 0.537255 0.796078
0.772549 0.670588 0.803922
0.870588 0.725490 0.819608
0.905882 0.745098 0.803922
0.466667 0.568627 0.690196
0.329412 0.498039 0.611765
0.356863 0.513725 0.654902
0.450980 0.552941 0.733333
0.596078 0.611765 0.780392
0.772549 0.705882 0.800000
0.878431 0.760784 0.831373
0.917647 0.764706 0.807843
0.490196 0.682353 0.694118
0.415686 0.643137 0.662745
0.443137 0.658824 0.686275
0.525490 0.694118 0.729412
0.619608 0.733333 0.772549
0.780392 0.776471 0.807843
0.858824 0.807843 0.827451
0.925490 0.784314 0.796078
0.509804 0.764706 0.690196
0.454902 0.749020 0.682353
0.482353 0.764706 0.701961
0.513725 0.788235 0.729412
0.580392 0.815686 0.760784
0.741176 0.835294 0.796078
0.862745 0.843137 0.823529
0.917647 0.796078 0.780392
0.474510 0.843137 0.545098
0.549020 0.847059 0.698039
0.556863 0.850980 0.701961
0.584314 0.874510 0.725490
0.588235 0.898039 0.756863
0.682353 0.917647 0.819608
0.854902 0.921569 0.878431
0.882353 0.882353 0.835294
0.403922 0.301961 0.725490
0.403922 0.274510 0.733333
0.478431 0.360784 0.803922
0.486275 0.388235 0.756863
0.584314 0.509804 0.772549
0.686275 0.576471 0.760784
0.760784 0.631373 0.768627
0.898039 0.745098 0.819608
0.384314 0.392157 0.717647
0.415686 0.403922 0.733333
0.470588 0.447059 0.772549
0.521569 0.478431 0.784314
0.615686 0.537255 0.784314
0.725490 0.623529 0.784314
0.819608 0.694118 0.807843
0.882353 0.745098 0.823529
0.462745 0.454902 0.741176
0.407843 0.411765 0.717647
0.443137 0.439216 0.749020
0.545098 0.517647 0.811765
0.615686 0.545098 0.800000
0.729412 0.631373 0.800000
0.823529 0.698039 0.811765
0.878431 0.745098 0.827451
0.505882 0.525490 0.764706
0.396078 0.458824 0.701961
0.435294 0.470588 0.733333
0.517647 0.509804 0.788235
0.627451 0.584314 0.835294
0.745098 0.658824 0.827451
0.835294 0.721569 0.827451
0.886275 0.764706 0.835294
0.529412 0.592157 0.752941
0.423529 0.545098 0.705882
0.462745 0.556863 0.729412
0.533333 0.588235 0.772549
0.627451 0.623529 0.823529
0.749020 0.682353 0.839216
0.858824 0.756863 0.854902
0.901961 0.796078 0.850980
0.549020 0.682353 0.737255
0.505882 0.654902 0.717647
0.521569 0.662745 0.729412
0.572549 0.682353 0.752941
0.631373 0.709804 0.807843
0.725490 0.737255 0.823529
0.843137 0.784314 0.839216
0.913725 0.815686 0.854902
0.580392 0.756863 0.756863
0.568627 0.741176 0.756863
0.576471 0.749020 0.764706
0.603922 0.760784 0.776471
0.647059 0.780392 0.800000
0.701961 0.796078 0.815686
0.831373 0.819608 0.835294
0.901961 0.839216 0.858824
0.564706 0.815686 0.745098
0.592157 0.823529 0.772549
0.596078 0.827451 0.776471
0.615686 0.835294 0.792157
0.635294 0.847059 0.803922
0.654902 0.858824 0.819608
0.760784 0.866667 0.839216
0.874510 0.866667 0.850980
