luts/UP-DarkPortra.cube
TITLE "UP-DarkPortra"
LUT_3D_SIZE 64
0.039216 0.019608 0.000000
0.039216 0.019608 0.000000
0.035294 0.019608 0.000000
0.035294 0.019608 0.000000
0.035294 0.015686 0.000000
0.031373 0.015686 0.003922
0.031373 0.019608 0.003922
0.043137 0.015686 0.000000
0.050980 0.015686 0.000000
0.062745 0.019608 0.000000
0.078431 0.019608 0.000000
0.101961 0.023529 0.000000
0.129412 0.031373 0.000000
0.156863 0.035294 0.000000
0.184314 0.047059 0.000000
0.207843 0.062745 0.000000
0.235294 0.066667 0.000000
0.262745 0.078431 0.000000
0.286275 0.090196 0.000000
0.309804 0.101961 0.000000
0.329412 0.109804 0.000000
0.345098 0.117647 0.000000
0.368627 0.133333 0.000000
0.388235 0.141176 0.000000
0.403922 0.152941 0.000000
0.415686 0.160784 0.000000
0.435294 0.168627 0.000000
0.450980 0.180392 0.000000
0.474510 0.188235 0.000000
0.490196 0.196078 0.000000
0.501961 0.203922 0.000000
0.521569 0.211765 0.000000
0.537255 0.219608 0.000000
0.549020 0.227451 0.000000
0.560784 0.231373 0.000000
0.572549 0.239216 0.000000
0.596078 0.247059 0.000000
0.615686 0.258824 0.000000
0.631373 0.266667 0.000000
0.647059 0.274510 0.000000
0.662745 0.282353 0.000000
0.678431 0.290196 0.000000
0.694118 0.298039 0.000000
0.713725 0.305882 0.000000
0.725490 0.313725 0.000000
0.741176 0.321569 0.000000
0.756863 0.325490 0.000000
0.772549 0.333333 0.000000
0.788235 0.341176 0.000000
0.800000 0.345098 0.000000
0.811765 0.352941 0.015686
0.819608 0.356863 0.031373
0.831373 0.368627 0.050980
0.843137 0.372549 0.062745
0.850980 0.380392 0.070588
0.862745 0.388235 0.086275
0.870588 0.396078 0.098039
0.878431 0.403922 0.109804
0.890196 0.407843 0.113725
0.898039 0.411765 0.117647
0.901961 0.415686 0.121569
0.909804 0.419608 0.121569
0.917647 0.423529 0.121569
0.905882 0.415686 0.117647
0.031373 0.011765 0.000000
0.047059 0.015686 0.000000
0.047059 0.015686 0.000000
0.043137 0.015686 0.000000
0.043137 0.015686 0.000000
0.039216 0.015686 0.000000
0.039216 0.015686 0.000000
0.043137 0.015686 0.000000
0.050980 0.015686 0.000000
0.058824 0.019608 0.000000
0.066667 0.019608 0.000000
0.090196 0.023529 0.000000
0.109804 0.031373 0.000000
0.141176 0.035294 0.000000
0.164706 0.043137 0.000000
0.192157 0.054902 0.000000
0.219608 0.066667 0.000000
0.247059 0.074510 0.000000
0.274510 0.086275 0.000000
0.298039 0.098039 0.000000
0.321569 0.109804 0.000000
0.341176 0.117647 0.000000
0.368627 0.133333 0.000000
0.388235 0.145098 0.000000
0.403922 0.152941 0.000000
0.415686 0.160784 0.000000
0.435294 0.172549 0.000000
0.454902 0.180392 0.000000
0.474510 0.188235 0.000000
0.490196 0.196078 0.000000
0.505882 0.203922 0.000000
0.521569 0.211765 0.000000
0.537255 0.219608 0.000000
0.549020 0.227451 0.000000
0.560784 0.235294 0.000000
0.576471 0.243137 0.000000
0.596078 0.250980 0.000000
0.615686 0.258824 0.000000
0.631373 0.266667 0.000000
0.647059 0.274510 0.000000
0.662745 0.282353 0.000000
0.678431 0.290196 0.000000
0.694118 0.298039 0.000000
0.709804 0.305882 0.000000
0.725490 0.313725 0.000000
0.741176 0.317647 0.000000
0.756863 0.325490 0.000000
0.772549 0.333333 0.000000
0.788235 0.341176 0.000000
0.800000 0.345098 0.000000
0.811765 0.352941 0.011765
0.823529 0.360784 0.031373
0.835294 0.368627 0.047059
0.843137 0.372549 0.062745
0.850980 0.380392 0.074510
0.862745 0.388235 0.086275
0.870588 0.396078 0.098039
0.878431 0.403922 0.109804
0.890196 0.407843 0.113725
0.898039 0.411765 0.121569
0.901961 0.415686 0.121569
0.909804 0.419608 0.121569
0.917647 0.423529 0.125490
0.909804 0.419608 0.117647
0.035294 0.011765 0.000000
0.047059 0.015686 0.000000
0.047059 0.011765 0.000000
0.050980 0.015686 0.000000
0.043137 0.015686 0.000000
0.043137 0.015686 0.000000
0.043137 0.015686 0.000000
0.047059 0.015686 0.000000
0.054902 0.015686 0.000000
0.058824 0.019608 0.000000
0.066667 0.019608 0.000000
0.094118 0.027451 0.000000
0.113725 0.031373 0.000000
0.141176 0.039216 0.000000
0.164706 0.043137 0.000000
0.192157 0.054902 0.000000
0.219608 0.066667 0.000000
0.250980 0.074510 0.000000
0.278431 0.090196 0.000000
0.301961 0.098039 0.000000
0.321569 0.109804 0.000000
0.341176 0.117647 0.000000
0.368627 0.133333 0.000000
0.388235 0.145098 0.000000
0.407843 0.156863 0.000000
0.419608 0.164706 0.000000
0.439216 0.172549 0.000000
0.458824 0.184314 0.000000
0.482353 0.192157 0.000000
0.498039 0.200000 0.000000
0.513725 0.207843 0.000000
0.529412 0.215686 0.000000
0.545098 0.223529 0.000000
0.552941 0.231373 0.000000
0.568627 0.235294 0.000000
0.588235 0.247059 0.000000
0.603922 0.254902 0.000000
0.623529 0.262745 0.000000
0.635294 0.270588 0.000000
0.650980 0.274510 0.000000
0.666667 0.282353 0.000000
0.682353 0.294118 0.000000
0.698039 0.298039 0.000000
0.713725 0.305882 0.000000
0.729412 0.313725 0.000000
0.741176 0.317647 0.000000
0.756863 0.325490 0.000000
0.772549 0.333333 0.000000
0.784314 0.341176 0.000000
0.800000 0.345098 0.000000
0.811765 0.352941 0.011765
0.819608 0.356863 0.023529
0.831373 0.364706 0.043137
0.843137 0.372549 0.062745
0.850980 0.380392 0.070588
0.862745 0.388235 0.082353
0.870588 0.396078 0.098039
0.878431 0.400000 0.109804
0.890196 0.407843 0.113725
0.898039 0.411765 0.117647
0.905882 0.415686 0.117647
0.909804 0.419608 0.117647
0.921569 0.423529 0.121569
0.917647 0.423529 0.121569
0.047059 0.015686 0.000000
0.043137 0.011765 0.000000
0.043137 0.011765 0.000000
0.047059 0.011765 0.000000
0.047059 0.011765 0.000000
0.043137 0.011765 0.000000
0.043137 0.011765 0.000000
0.050980 0.015686 0.000000
0.054902 0.015686 0.000000
0.062745 0.019608 0.000000
0.070588 0.023529 0.000000
0.094118 0.027451 0.000000
0.113725 0.035294 0.000000
0.141176 0.039216 0.000000
0.164706 0.047059 0.000000
0.188235 0.054902 0.000000
0.219608 0.066667 0.000000
0.247059 0.074510 0.000000
0.274510 0.090196 0.000000
0.301961 0.101961 0.000000
0.325490 0.109804 0.000000
0.341176 0.121569 0.000000
0.368627 0.133333 0.000000
0.388235 0.145098 0.000000
0.403922 0.156863 0.000000
0.419608 0.164706 0.000000
0.439216 0.176471 0.000000
0.458824 0.184314 0.000000
0.482353 0.192157 0.000000
0.498039 0.200000 0.000000
0.513725 0.207843 0.000000
0.533333 0.215686 0.000000
0.549020 0.227451 0.000000
0.560784 0.231373 0.000000
0.576471 0.243137 0.000000
0.596078 0.250980 0.000000
0.611765 0.254902 0.000000
0.627451 0.266667 0.000000
0.643137 0.270588 0.000000
0.658824 0.278431 0.000000
0.674510 0.286275 0.000000
0.686275 0.294118 0.000000
0.701961 0.301961 0.000000
0.717647 0.305882 0.000000
0.733333 0.313725 0.000000
0.745098 0.321569 0.000000
0.760784 0.325490 0.000000
0.772549 0.333333 0.000000
0.788235 0.341176 0.000000
0.803922 0.345098 0.000000
0.811765 0.349020 0.003922
0.823529 0.356863 0.023529
0.831373 0.364706 0.043137
0.843137 0.372549 0.058824
0.850980 0.376471 0.066667
0.858824 0.384314 0.078431
0.870588 0.392157 0.094118
0.878431 0.400000 0.105882
0.890196 0.403922 0.113725
0.898039 0.411765 0.117647
0.905882 0.415686 0.117647
0.909804 0.419608 0.117647
0.921569 0.423529 0.121569
0.925490 0.427451 0.121569
0.058824 0.019608 0.000000
0.039216 0.011765 0.000000
0.039216 0.011765 0.000000
0.043137 0.011765 0.000000
0.043137 0.011765 0.000000
0.047059 0.011765 0.000000
0.047059 0.011765 0.000000
0.050980 0.011765 0.000000
0.054902 0.015686 0.000000
0.062745 0.019608 0.000000
0.082353 0.023529 0.000000
0.098039 0.027451 0.000000
0.121569 0.035294 0.000000
0.141176 0.039216 0.000000
0.160784 0.047059 0.000000
0.188235 0.054902 0.000000
0.215686 0.066667 0.000000
0.243137 0.074510 0.000000
0.270588 0.090196 0.000000
0.298039 0.098039 0.000000
0.321569 0.109804 0.000000
0.341176 0.121569 0.000000
0.364706 0.133333 0.000000
0.388235 0.145098 0.000000
0.403922 0.156863 0.000000
0.419608 0.164706 0.000000
0.439216 0.176471 0.000000
0.462745 0.184314 0.000000
0.482353 0.192157 0.000000
0.494118 0.200000 0.000000
0.513725 0.207843 0.000000
0.533333 0.215686 0.000000
0.545098 0.227451 0.000000
0.560784 0.231373 0.000000
0.576471 0.239216 0.000000
0.596078 0.250980 0.000000
0.615686 0.258824 0.000000
0.631373 0.266667 0.000000
0.647059 0.274510 0.000000
0.666667 0.282353 0.000000
0.678431 0.290196 0.000000
0.694118 0.298039 0.000000
0.709804 0.301961 0.000000
0.721569 0.309804 0.000000
0.737255 0.317647 0.000000
0.749020 0.321569 0.000000
0.764706 0.329412 0.000000
0.776471 0.337255 0.000000
0.792157 0.341176 0.000000
0.803922 0.345098 0.000000
0.815686 0.352941 0.007843
0.823529 0.360784 0.027451
0.835294 0.364706 0.047059
0.843137 0.372549 0.058824
0.854902 0.380392 0.070588
0.862745 0.388235 0.082353
0.870588 0.396078 0.094118
0.878431 0.400000 0.109804
0.890196 0.403922 0.113725
0.898039 0.411765 0.117647
0.905882 0.415686 0.117647
0.909804 0.419608 0.117647
0.925490 0.423529 0.121569
0.929412 0.431373 0.125490
0.066667 0.023529 0.000000
0.047059 0.011765 0.000000
0.039216 0.007843 0.000000
0.043137 0.011765 0.000000
0.050980 0.011765 0.000000
0.047059 0.011765 0.000000
0.054902 0.015686 0.000000
0.054902 0.015686 0.000000
0.054902 0.015686 0.000000
0.062745 0.019608 0.000000
0.090196 0.027451 0.000000
0.098039 0.031373 0.000000
0.125490 0.035294 0.000000
0.145098 0.043137 0.000000
0.164706 0.050980 0.000000
0.188235 0.054902 0.000000
0.211765 0.066667 0.000000
0.239216 0.074510 0.000000
0.266667 0.086275 0.000000
0.294118 0.098039 0.000000
0.317647 0.109804 0.000000
0.337255 0.121569 0.000000
0.364706 0.133333 0.000000
0.384314 0.145098 0.000000
0.403922 0.156863 0.000000
0.419608 0.164706 0.000000
0.439216 0.176471 0.000000
0.458824 0.184314 0.000000
0.482353 0.192157 0.000000
0.498039 0.200000 0.000000
0.513725 0.211765 0.000000
0.533333 0.219608 0.000000
0.545098 0.227451 0.000000
0.560784 0.235294 0.000000
0.576471 0.243137 0.000000
0.596078 0.250980 0.000000
0.615686 0.258824 0.000000
0.631373 0.266667 0.000000
0.647059 0.274510 0.000000
0.666667 0.282353 0.000000
0.682353 0.290196 0.000000
0.694118 0.298039 0.000000
0.713725 0.305882 0.000000
0.729412 0.313725 0.000000
0.741176 0.317647 0.000000
0.756863 0.325490 0.000000
0.772549 0.333333 0.000000
0.784314 0.337255 0.000000
0.796078 0.341176 0.000000
0.807843 0.349020 0.000000
0.819608 0.352941 0.011765
0.827451 0.360784 0.031373
0.839216 0.368627 0.047059
0.847059 0.372549 0.058824
0.854902 0.380392 0.066667
0.866667 0.388235 0.082353
0.874510 0.396078 0.098039
0.886275 0.400000 0.105882
0.894118 0.407843 0.109804
0.901961 0.411765 0.113725
0.909804 0.415686 0.117647
0.913725 0.419608 0.117647
0.925490 0.423529 0.117647
0.933333 0.435294 0.129412
0.078431 0.027451 0.003922
0.047059 0.027451 0.003922
0.043137 0.011765 0.000000
0.054902 0.023529 0.000000
0.050980 0.019608 0.000000
0.058824 0.023529 0.000000
0.058824 0.023529 0.000000
0.062745 0.023529 0.000000
0.066667 0.023529 0.000000
0.078431 0.023529 0.000000
0.090196 0.027451 0.000000
0.105882 0.035294 0.000000
0.129412 0.039216 0.000000
0.149020 0.047059 0.000000
0.168627 0.050980 0.000000
0.188235 0.058824 0.000000
0.215686 0.070588 0.000000
0.243137 0.078431 0.000000
0.266667 0.086275 0.000000
0.286275 0.098039 0.000000
0.313725 0.109804 0.000000
0.333333 0.117647 0.000000
0.356863 0.129412 0.000000
0.380392 0.145098 0.000000
0.400000 0.156863 0.000000
0.415686 0.164706 0.000000
0.439216 0.176471 0.000000
0.458824 0.188235 0.000000
0.482353 0.196078 0.000000
0.498039 0.203922 0.000000
0.513725 0.211765 0.000000
0.529412 0.219608 0.000000
0.545098 0.227451 0.000000
0.560784 0.235294 0.000000
0.576471 0.243137 0.000000
0.596078 0.250980 0.000000
0.615686 0.258824 0.000000
0.631373 0.266667 0.000000
0.647059 0.274510 0.000000
0.662745 0.282353 0.000000
0.682353 0.290196 0.000000
0.698039 0.298039 0.000000
0.713725 0.305882 0.000000
0.725490 0.313725 0.000000
0.741176 0.317647 0.000000
0.756863 0.325490 0.000000
0.772549 0.333333 0.000000
0.784314 0.337255 0.000000
0.800000 0.345098 0.000000
0.811765 0.349020 0.000000
0.823529 0.356863 0.019608
0.831373 0.364706 0.035294
0.843137 0.372549 0.050980
0.850980 0.376471 0.058824
0.858824 0.384314 0.070588
0.870588 0.392157 0.090196
0.878431 0.400000 0.101961
0.890196 0.403922 0.109804
0.898039 0.407843 0.109804
0.905882 0.411765 0.113725
0.909804 0.415686 0.117647
0.909804 0.415686 0.113725
0.925490 0.423529 0.117647
0.941176 0.439216 0.129412
0.082353 0.035294 0.000000
0.047059 0.039216 0.007843
0.047059 0.023529 0.000000
0.047059 0.035294 0.003922
0.047059 0.027451 0.003922
0.054902 0.031373 0.000000
0.066667 0.039216 0.000000
0.078431 0.039216 0.000000
0.094118 0.039216 0.000000
0.098039 0.043137 0.000000
0.105882 0.043137 0.000000
0.121569 0.043137 0.000000
0.137255 0.047059 0.000000
0.156863 0.050980 0.000000
0.172549 0.054902 0.000000
0.192157 0.062745 0.000000
0.219608 0.070588 0.000000
0.247059 0.078431 0.000000
0.270588 0.090196 0.000000
0.290196 0.101961 0.000000
0.313725 0.109804 0.000000
0.329412 0.117647 0.000000
0.349020 0.129412 0.000000
0.376471 0.141176 0.000000
0.396078 0.152941 0.000000
0.411765 0.164706 0.000000
0.431373 0.172549 0.000000
0.450980 0.184314 0.000000
0.474510 0.192157 0.000000
0.490196 0.200000 0.000000
0.509804 0.211765 0.000000
0.525490 0.215686 0.000000
0.541176 0.227451 0.000000
0.552941 0.231373 0.000000
0.568627 0.239216 0.000000
0.588235 0.247059 0.000000
0.607843 0.254902 0.000000
0.627451 0.266667 0.000000
0.639216 0.274510 0.000000
0.654902 0.278431 0.000000
0.670588 0.286275 0.000000
0.686275 0.294118 0.000000
0.701961 0.301961 0.000000
0.717647 0.309804 0.000000
0.733333 0.313725 0.000000
0.745098 0.321569 0.000000
0.756863 0.329412 0.000000
0.772549 0.333333 0.000000
0.784314 0.341176 0.000000
0.796078 0.345098 0.000000
0.803922 0.349020 0.000000
0.815686 0.352941 0.007843
0.827451 0.360784 0.019608
0.835294 0.368627 0.035294
0.843137 0.372549 0.047059
0.854902 0.380392 0.062745
0.866667 0.388235 0.078431
0.874510 0.396078 0.090196
0.886275 0.400000 0.101961
0.894118 0.407843 0.105882
0.905882 0.411765 0.109804
0.913725 0.415686 0.109804
0.925490 0.423529 0.117647
0.933333 0.435294 0.121569
0.039216 0.050980 0.015686
0.039216 0.054902 0.015686
0.035294 0.058824 0.015686
0.031373 0.058824 0.015686
0.023529 0.066667 0.011765
0.023529 0.070588 0.015686
0.050980 0.066667 0.023529
0.086275 0.070588 0.003922
0.109804 0.070588 0.000000
0.125490 0.074510 0.000000
0.137255 0.078431 0.000000
0.160784 0.078431 0.000000
0.176471 0.086275 0.000000
0.196078 0.090196 0.000000
0.219608 0.098039 0.000000
0.239216 0.101961 0.000000
0.262745 0.109804 0.000000
0.278431 0.113725 0.000000
0.294118 0.121569 0.000000
0.309804 0.125490 0.000000
0.329412 0.137255 0.000000
0.345098 0.141176 0.000000
0.364706 0.149020 0.000000
0.388235 0.156863 0.000000
0.403922 0.164706 0.000000
0.419608 0.172549 0.000000
0.435294 0.180392 0.000000
0.450980 0.192157 0.000000
0.470588 0.200000 0.000000
0.490196 0.207843 0.000000
0.505882 0.215686 0.000000
0.521569 0.223529 0.000000
0.541176 0.231373 0.000000
0.552941 0.235294 0.000000
0.572549 0.243137 0.000000
0.592157 0.250980 0.000000
0.611765 0.258824 0.000000
0.627451 0.270588 0.000000
0.643137 0.278431 0.000000
0.658824 0.282353 0.000000
0.674510 0.290196 0.000000
0.690196 0.301961 0.000000
0.705882 0.305882 0.000000
0.721569 0.313725 0.000000
0.737255 0.321569 0.000000
0.749020 0.325490 0.000000
0.768627 0.333333 0.000000
0.780392 0.341176 0.000000
0.796078 0.349020 0.000000
0.807843 0.352941 0.011765
0.815686 0.356863 0.023529
0.831373 0.368627 0.047059
0.839216 0.372549 0.062745
0.847059 0.380392 0.066667
0.858824 0.388235 0.082353
0.866667 0.396078 0.094118
0.878431 0.400000 0.105882
0.886275 0.403922 0.109804
0.894118 0.411765 0.117647
0.901961 0.415686 0.117647
0.905882 0.419608 0.121569
0.917647 0.423529 0.121569
0.929412 0.431373 0.125490
0.937255 0.439216 0.137255
0.039216 0.039216 0.011765
0.031373 0.074510 0.023529
0.035294 0.078431 0.023529
0.027451 0.078431 0.023529
0.027451 0.074510 0.019608
0.023529 0.078431 0.019608
0.039216 0.082353 0.019608
0.066667 0.078431 0.019608
0.101961 0.074510 0.000000
0.121569 0.082353 0.000000
0.129412 0.082353 0.000000
0.149020 0.086275 0.000000
0.160784 0.090196 0.000000
0.184314 0.094118 0.000000
0.207843 0.098039 0.000000
0.227451 0.105882 0.000000
0.247059 0.109804 0.000000
0.270588 0.113725 0.000000
0.286275 0.125490 0.000000
0.301961 0.129412 0.000000
0.317647 0.137255 0.000000
0.337255 0.141176 0.000000
0.356863 0.149020 0.000000
0.376471 0.156863 0.000000
0.392157 0.164706 0.000000
0.411765 0.172549 0.000000
0.427451 0.180392 0.000000
0.443137 0.188235 0.000000
0.458824 0.196078 0.000000
0.474510 0.203922 0.000000
0.494118 0.211765 0.000000
0.513725 0.219608 0.000000
0.533333 0.227451 0.000000
0.549020 0.235294 0.000000
0.568627 0.243137 0.000000
0.584314 0.250980 0.000000
0.607843 0.258824 0.000000
0.623529 0.270588 0.000000
0.639216 0.278431 0.000000
0.654902 0.286275 0.000000
0.674510 0.290196 0.000000
0.686275 0.298039 0.000000
0.705882 0.305882 0.000000
0.721569 0.313725 0.000000
0.733333 0.321569 0.000000
0.749020 0.329412 0.000000
0.764706 0.337255 0.000000
0.780392 0.341176 0.000000
0.796078 0.349020 0.000000
0.807843 0.352941 0.007843
0.819608 0.360784 0.023529
0.827451 0.364706 0.039216
0.839216 0.372549 0.058824
0.847059 0.380392 0.066667
0.858824 0.388235 0.078431
0.866667 0.396078 0.090196
0.874510 0.400000 0.101961
0.886275 0.407843 0.109804
0.894118 0.411765 0.117647
0.901961 0.415686 0.117647
0.905882 0.419608 0.117647
0.917647 0.423529 0.121569
0.933333 0.435294 0.129412
0.941176 0.439216 0.137255
0.050980 0.054902 0.019608
0.031373 0.082353 0.023529
0.035294 0.086275 0.023529
0.031373 0.086275 0.027451
0.027451 0.086275 0.023529
0.039216 0.086275 0.019608
0.035294 0.090196 0.023529
0.054902 0.094118 0.027451
0.082353 0.090196 0.015686
0.113725 0.094118 0.003922
0.133333 0.098039 0.000000
0.152941 0.098039 0.000000
0.168627 0.101961 0.000000
0.192157 0.105882 0.000000
0.207843 0.109804 0.000000
0.227451 0.109804 0.000000
0.247059 0.117647 0.000000
0.274510 0.125490 0.000000
0.286275 0.133333 0.000000
0.301961 0.137255 0.000000
0.321569 0.145098 0.000000
0.341176 0.149020 0.000000
0.360784 0.156863 0.000000
0.380392 0.160784 0.000000
0.396078 0.168627 0.000000
0.415686 0.176471 0.000000
0.431373 0.184314 0.000000
0.443137 0.192157 0.000000
0.458824 0.200000 0.000000
0.474510 0.207843 0.000000
0.494118 0.215686 0.000000
0.513725 0.219608 0.000000
0.529412 0.231373 0.000000
0.549020 0.235294 0.000000
0.564706 0.243137 0.000000
0.584314 0.250980 0.000000
0.603922 0.258824 0.000000
0.623529 0.270588 0.000000
0.639216 0.278431 0.000000
0.654902 0.286275 0.000000
0.670588 0.290196 0.000000
0.686275 0.301961 0.000000
0.701961 0.305882 0.000000
0.717647 0.313725 0.000000
0.733333 0.321569 0.000000
0.749020 0.329412 0.000000
0.764706 0.337255 0.000000
0.780392 0.341176 0.000000
0.796078 0.349020 0.000000
0.807843 0.352941 0.007843
0.815686 0.360784 0.019608
0.827451 0.368627 0.039216
0.839216 0.372549 0.054902
0.847059 0.380392 0.066667
0.858824 0.388235 0.078431
0.866667 0.396078 0.090196
0.874510 0.400000 0.101961
0.886275 0.407843 0.109804
0.894118 0.411765 0.113725
0.901961 0.415686 0.117647
0.905882 0.419608 0.117647
0.917647 0.423529 0.121569
0.937255 0.435294 0.129412
0.941176 0.443137 0.137255
0.058824 0.070588 0.019608
0.039216 0.090196 0.031373
0.043137 0.094118 0.031373
0.047059 0.098039 0.031373
0.035294 0.094118 0.031373
0.043137 0.094118 0.031373
0.050980 0.098039 0.031373
0.050980 0.105882 0.039216
0.066667 0.105882 0.035294
0.098039 0.105882 0.027451
0.121569 0.113725 0.015686
0.149020 0.117647 0.003922
0.172549 0.113725 0.000000
0.188235 0.121569 0.000000
0.203922 0.121569 0.000000
0.231373 0.121569 0.000000
0.243137 0.125490 0.000000
0.266667 0.133333 0.000000
0.286275 0.141176 0.000000
0.305882 0.149020 0.000000
0.321569 0.156863 0.000000
0.345098 0.160784 0.000000
0.364706 0.164706 0.000000
0.384314 0.168627 0.000000
0.400000 0.176471 0.000000
0.415686 0.184314 0.000000
0.431373 0.188235 0.000000
0.443137 0.196078 0.000000
0.458824 0.203922 0.000000
0.478431 0.211765 0.000000
0.494118 0.219608 0.000000
0.513725 0.223529 0.000000
0.533333 0.231373 0.000000
0.549020 0.239216 0.000000
0.564706 0.247059 0.000000
0.580392 0.250980 0.000000
0.603922 0.258824 0.000000
0.619608 0.270588 0.000000
0.635294 0.278431 0.000000
0.654902 0.286275 0.000000
0.670588 0.294118 0.000000
0.682353 0.298039 0.000000
0.701961 0.309804 0.000000
0.717647 0.317647 0.000000
0.733333 0.321569 0.000000
0.749020 0.329412 0.000000
0.764706 0.337255 0.000000
0.776471 0.341176 0.000000
0.796078 0.349020 0.000000
0.807843 0.352941 0.000000
0.815686 0.356863 0.011765
0.827451 0.364706 0.035294
0.839216 0.376471 0.054902
0.847059 0.380392 0.062745
0.854902 0.388235 0.074510
0.866667 0.396078 0.090196
0.874510 0.400000 0.101961
0.886275 0.403922 0.105882
0.894118 0.411765 0.109804
0.898039 0.415686 0.113725
0.905882 0.419608 0.117647
0.921569 0.423529 0.121569
0.937255 0.435294 0.129412
0.945098 0.443137 0.141176
0.062745 0.082353 0.027451
0.047059 0.105882 0.043137
0.050980 0.109804 0.043137
0.050980 0.109804 0.043137
0.047059 0.105882 0.043137
0.043137 0.105882 0.043137
0.054902 0.109804 0.043137
0.062745 0.109804 0.039216
0.058824 0.117647 0.039216
0.082353 0.121569 0.043137
0.109804 0.121569 0.031373
0.133333 0.129412 0.019608
0.164706 0.129412 0.007843
0.188235 0.133333 0.000000
0.207843 0.133333 0.000000
0.231373 0.137255 0.000000
0.247059 0.145098 0.000000
0.258824 0.145098 0.000000
0.282353 0.149020 0.000000
0.305882 0.156863 0.000000
0.325490 0.164706 0.000000
0.345098 0.168627 0.000000
0.364706 0.172549 0.000000
0.384314 0.176471 0.000000
0.403922 0.184314 0.000000
0.419608 0.192157 0.000000
0.435294 0.196078 0.000000
0.447059 0.200000 0.000000
0.462745 0.207843 0.000000
0.478431 0.215686 0.000000
0.498039 0.223529 0.000000
0.517647 0.231373 0.000000
0.533333 0.235294 0.000000
0.549020 0.243137 0.000000
0.564706 0.250980 0.000000
0.584314 0.254902 0.000000
0.603922 0.262745 0.000000
0.619608 0.274510 0.000000
0.635294 0.282353 0.000000
0.650980 0.286275 0.000000
0.666667 0.294118 0.000000
0.682353 0.301961 0.000000
0.701961 0.309804 0.000000
0.717647 0.317647 0.000000
0.733333 0.321569 0.000000
0.745098 0.329412 0.000000
0.760784 0.337255 0.000000
0.776471 0.345098 0.000000
0.796078 0.349020 0.000000
0.807843 0.352941 0.000000
0.815686 0.360784 0.015686
0.827451 0.368627 0.031373
0.839216 0.376471 0.047059
0.847059 0.380392 0.054902
0.858824 0.388235 0.074510
0.866667 0.392157 0.082353
0.878431 0.403922 0.101961
0.886275 0.407843 0.105882
0.894118 0.411765 0.113725
0.901961 0.415686 0.113725
0.905882 0.419608 0.113725
0.921569 0.427451 0.121569
0.937255 0.439216 0.129412
0.949020 0.447059 0.145098
0.066667 0.090196 0.027451
0.050980 0.117647 0.047059
0.054902 0.121569 0.047059
0.054902 0.121569 0.047059
0.050980 0.121569 0.047059
0.047059 0.121569 0.047059
0.050980 0.117647 0.047059
0.058824 0.117647 0.039216
0.066667 0.121569 0.043137
0.070588 0.133333 0.047059
0.094118 0.133333 0.047059
0.121569 0.137255 0.035294
0.149020 0.145098 0.023529
0.180392 0.145098 0.007843
0.203922 0.145098 0.000000
0.227451 0.149020 0.000000
0.247059 0.152941 0.000000
0.258824 0.156863 0.000000
0.278431 0.164706 0.000000
0.298039 0.168627 0.000000
0.321569 0.172549 0.000000
0.341176 0.176471 0.000000
0.364706 0.180392 0.000000
0.384314 0.188235 0.000000
0.403922 0.192157 0.000000
0.423529 0.200000 0.000000
0.439216 0.203922 0.000000
0.450980 0.207843 0.000000
0.466667 0.215686 0.000000
0.482353 0.223529 0.000000
0.498039 0.227451 0.000000
0.517647 0.235294 0.000000
0.537255 0.239216 0.000000
0.552941 0.247059 0.000000
0.568627 0.254902 0.000000
0.588235 0.262745 0.000000
0.607843 0.266667 0.000000
0.619608 0.278431 0.000000
0.635294 0.282353 0.000000
0.650980 0.290196 0.000000
0.666667 0.294118 0.000000
0.682353 0.301961 0.000000
0.698039 0.309804 0.000000
0.713725 0.317647 0.000000
0.729412 0.321569 0.000000
0.745098 0.329412 0.000000
0.760784 0.337255 0.000000
0.780392 0.345098 0.000000
0.796078 0.349020 0.000000
0.807843 0.356863 0.000000
0.815686 0.360784 0.011765
0.827451 0.368627 0.031373
0.839216 0.376471 0.047059
0.847059 0.380392 0.058824
0.858824 0.388235 0.070588
