luts/UP-Monosand.cube
TITLE "UP-MonoSand"
#Data domain
DOMAIN_MIN 0.0000 0.0000 0.0000
DOMAIN_MAX 1.0000 1.0000 1.0000
#LUT size
LUT_3D_SIZE 35
0.0908 0.0897 0.0898
0.0908 0.0897 0.0898
0.0909 0.0898 0.0899
0.0913 0.0905 0.0906
0.0919 0.0918 0.0919
0.0955 0.0946 0.0944
0.1011 0.1002 0.1002
0.1104 0.1089 0.1087
0.1224 0.1208 0.1204
0.1375 0.1355 0.1352
0.1565 0.1542 0.1532
0.1795 0.1770 0.1757
0.2062 0.2035 0.2013
0.2357 0.2331 0.2300
0.2677 0.2649 0.2598
0.3006 0.2977 0.2900
0.3332 0.3297 0.3191
0.3572 0.3538 0.3403
0.3754 0.3753 0.3612
0.3974 0.3937 0.3763
0.4108 0.4105 0.3925
0.4279 0.4249 0.4040
0.4408 0.4370 0.4156
0.4489 0.4487 0.4265
0.4603 0.4579 0.4337
0.4697 0.4661 0.4410
0.4770 0.4736 0.4484
0.4822 0.4807 0.4556
0.4880 0.4874 0.4612
0.4950 0.4931 0.4654
0.5013 0.4983 0.4698
0.5067 0.5031 0.4743
0.5114 0.5077 0.4788
0.5154 0.5124 0.4834
0.5185 0.5171 0.4882
0.0908 0.0897 0.0898
0.0909 0.0898 0.0899
0.0914 0.0908 0.0909
0.0922 0.0921 0.0921
0.0946 0.0939 0.0937
0.0989 0.0974 0.0973
0.1048 0.1040 0.1037
0.1130 0.1130 0.1130
0.1255 0.1249 0.1249
0.1412 0.1402 0.1402
0.1602 0.1593 0.1583
0.1833 0.1826 0.1816
0.2097 0.2092 0.2072
0.2389 0.2387 0.2357
0.2708 0.2705 0.2655
0.3041 0.3031 0.2952
0.3352 0.3322 0.3215
0.3591 0.3555 0.3418
0.3769 0.3766 0.3621
0.3984 0.3946 0.3771
0.4112 0.4112 0.3931
0.4284 0.4253 0.4044
0.4411 0.4373 0.4159
0.4492 0.4489 0.4267
0.4605 0.4581 0.4338
0.4699 0.4662 0.4412
0.4771 0.4737 0.4485
0.4823 0.4808 0.4557
0.4881 0.4875 0.4612
0.4951 0.4932 0.4655
0.5014 0.4984 0.4699
0.5068 0.5032 0.4743
0.5115 0.5078 0.4789
0.5154 0.5125 0.4835
0.5186 0.5172 0.4883
0.0908 0.0897 0.0898
0.0909 0.0899 0.0900
0.0915 0.0909 0.0910
0.0945 0.0939 0.0937
0.0995 0.0980 0.0980
0.1050 0.1042 0.1038
0.1116 0.1104 0.1102
0.1211 0.1195 0.1190
0.1329 0.1315 0.1309
0.1484 0.1471 0.1461
0.1676 0.1662 0.1646
0.1910 0.1894 0.1872
0.2176 0.2161 0.2129
0.2471 0.2455 0.2410
0.2782 0.2768 0.2703
0.3100 0.3090 0.2999
0.3373 0.3352 0.3244
0.3612 0.3574 0.3436
0.3787 0.3781 0.3631
0.3995 0.3956 0.3781
0.4122 0.4121 0.3937
0.4291 0.4259 0.4049
0.4414 0.4377 0.4163
0.4495 0.4493 0.4269
0.4608 0.4583 0.4340
0.4701 0.4664 0.4413
0.4773 0.4738 0.4486
0.4824 0.4810 0.4559
0.4883 0.4876 0.4613
0.4953 0.4933 0.4656
0.5015 0.4985 0.4700
0.5069 0.5033 0.4744
0.5116 0.5079 0.4790
0.5155 0.5126 0.4836
0.5186 0.5173 0.4884
0.0910 0.0899 0.0900
0.0911 0.0902 0.0903
0.0914 0.0906 0.0907
0.0941 0.0936 0.0934
0.1023 0.1022 0.1022
0.1113 0.1100 0.1099
0.1235 0.1219 0.1216
0.1339 0.1323 0.1317
0.1441 0.1437 0.1433
0.1597 0.1584 0.1574
0.1801 0.1776 0.1765
0.2037 0.2006 0.1982
0.2303 0.2268 0.2234
0.2593 0.2556 0.2503
0.2894 0.2859 0.2785
0.3178 0.3153 0.3052
0.3398 0.3396 0.3286
0.3641 0.3602 0.3463
0.3814 0.3803 0.3647
0.4011 0.3972 0.3796
0.4138 0.4133 0.3946
0.4301 0.4267 0.4057
0.4420 0.4384 0.4170
0.4502 0.4498 0.4273
0.4613 0.4587 0.4344
0.4704 0.4667 0.4416
0.4775 0.4741 0.4489
0.4825 0.4812 0.4562
0.4885 0.4878 0.4615
0.4955 0.4935 0.4657
0.5017 0.4986 0.4701
0.5071 0.5034 0.4746
0.5117 0.5081 0.4791
0.5156 0.5127 0.4838
0.5187 0.5175 0.4885
0.0912 0.0904 0.0905
0.0914 0.0907 0.0908
0.0915 0.0910 0.0910
0.0928 0.0926 0.0925
0.1012 0.1002 0.1003
0.1196 0.1183 0.1177
0.1305 0.1296 0.1291
0.1479 0.1468 0.1458
0.1650 0.1642 0.1628
0.1823 0.1807 0.1797
0.2011 0.1978 0.1954
0.2218 0.2194 0.2159
0.2458 0.2445 0.2401
0.2723 0.2721 0.2667
0.3017 0.2992 0.2915
0.3261 0.3224 0.3118
0.3462 0.3449 0.3326
0.3679 0.3642 0.3503
0.3850 0.3832 0.3670
0.4032 0.3995 0.3818
0.4159 0.4151 0.3959
0.4316 0.4280 0.4069
0.4429 0.4395 0.4180
0.4511 0.4505 0.4278
0.4620 0.4593 0.4349
0.4710 0.4672 0.4421
0.4779 0.4746 0.4494
0.4828 0.4817 0.4566
0.4890 0.4882 0.4617
0.4959 0.4938 0.4660
0.5020 0.4989 0.4704
0.5074 0.5037 0.4749
0.5120 0.5083 0.4794
0.5158 0.5130 0.4841
0.5189 0.5178 0.4888
0.0916 0.0911 0.0912
0.0918 0.0916 0.0916
0.0921 0.0921 0.0920
0.0928 0.0926 0.0925
0.0988 0.0974 0.0973
0.1134 0.1133 0.1132
0.1428 0.1427 0.1425
0.1601 0.1591 0.1582
0.1828 0.1816 0.1805
0.2105 0.2104 0.2083
0.2333 0.2300 0.2267
0.2542 0.2511 0.2460
0.2718 0.2717 0.2665
0.2948 0.2910 0.2834
0.3142 0.3124 0.3027
0.3354 0.3325 0.3218
0.3553 0.3523 0.3388
0.3725 0.3704 0.3565
0.3906 0.3878 0.3708
0.4062 0.4031 0.3853
0.4192 0.4178 0.3980
0.4338 0.4299 0.4087
0.4440 0.4411 0.4196
0.4526 0.4517 0.4287
0.4631 0.4603 0.4357
0.4718 0.4680 0.4429
0.4785 0.4753 0.4501
0.4832 0.4823 0.4573
0.4896 0.4887 0.4621
0.4964 0.4943 0.4664
0.5025 0.4993 0.4708
0.5078 0.5041 0.4753
0.5123 0.5087 0.4798
0.5161 0.5134 0.4845
0.5191 0.5182 0.4892
0.0924 0.0923 0.0923
0.0932 0.0929 0.0928
0.0944 0.0938 0.0936
0.0949 0.0942 0.0940
0.0981 0.0967 0.0966
0.1090 0.1075 0.1072
0.1347 0.1329 0.1324
0.1799 0.1775 0.1763
0.2052 0.2022 0.1999
0.2325 0.2291 0.2258
0.2602 0.2564 0.2511
0.2824 0.2801 0.2731
0.3005 0.2975 0.2898
0.3163 0.3141 0.3041
0.3330 0.3295 0.3188
0.3483 0.3466 0.3339
0.3663 0.3624 0.3485
0.3802 0.3793 0.3640
0.3980 0.3942 0.3767
0.4099 0.4087 0.3908
0.4244 0.4220 0.4015
0.4373 0.4332 0.4119
0.4460 0.4441 0.4224
0.4552 0.4538 0.4303
0.4651 0.4620 0.4373
0.4732 0.4694 0.4443
0.4794 0.4766 0.4514
0.4838 0.4835 0.4585
0.4908 0.4897 0.4628
0.4974 0.4951 0.4670
0.5034 0.5001 0.4714
0.5085 0.5048 0.4759
0.5129 0.5094 0.4805
0.5166 0.5141 0.4852
0.5195 0.5189 0.4899
0.0950 0.0943 0.0940
0.0961 0.0951 0.0949
0.0975 0.0962 0.0961
0.0987 0.0973 0.0972
0.0998 0.0984 0.0984
0.1066 0.1055 0.1050
0.1245 0.1231 0.1230
0.1605 0.1599 0.1589
0.2283 0.2249 0.2215
0.2539 0.2509 0.2458
0.2737 0.2732 0.2675
0.2996 0.2964 0.2887
0.3243 0.3208 0.3103
0.3388 0.3376 0.3267
0.3555 0.3524 0.3390
0.3682 0.3646 0.3507
0.3787 0.3780 0.3631
0.3942 0.3908 0.3736
0.4066 0.4036 0.3858
0.4179 0.4167 0.3971
0.4315 0.4279 0.4069
0.4419 0.4383 0.4169
0.4490 0.4488 0.4265
0.4594 0.4572 0.4331
0.4684 0.4648 0.4399
0.4756 0.4720 0.4468
0.4811 0.4788 0.4537
0.4857 0.4855 0.4599
0.4928 0.4913 0.4640
0.4991 0.4965 0.4682
0.5048 0.5013 0.4726
0.5097 0.5060 0.4771
0.5139 0.5105 0.4816
0.5173 0.5152 0.4863
0.5200 0.5200 0.4910
0.0988 0.0974 0.0973
0.0999 0.0986 0.0986
0.1011 0.1001 0.1002
0.1025 0.1024 0.1023
0.1041 0.1035 0.1032
0.1078 0.1064 0.1060
0.1210 0.1195 0.1190
0.1471 0.1461 0.1452
0.2002 0.1970 0.1945
0.2674 0.2645 0.2594
0.2975 0.2938 0.2862
0.3163 0.3141 0.3041
0.3369 0.3346 0.3239
0.3588 0.3552 0.3415
0.3745 0.3740 0.3600
0.3881 0.3857 0.3690
0.4013 0.3975 0.3799
0.4090 0.4072 0.3893
0.4191 0.4177 0.3979
0.4308 0.4273 0.4063
0.4404 0.4366 0.4152
0.4472 0.4463 0.4244
0.4564 0.4548 0.4311
0.4654 0.4622 0.4375
0.4730 0.4692 0.4440
0.4789 0.4759 0.4507
0.4832 0.4825 0.4574
0.4894 0.4885 0.4620
0.4959 0.4939 0.4660
0.5018 0.4987 0.4702
0.5070 0.5034 0.4745
0.5115 0.5078 0.4789
0.5153 0.5123 0.4834
0.5184 0.5169 0.4880
0.5217 0.5214 0.4920
0.1028 0.1026 0.1024
0.1047 0.1040 0.1036
0.1069 0.1057 0.1053
0.1099 0.1083 0.1081
0.1113 0.1100 0.1099
0.1127 0.1124 0.1124
0.1213 0.1198 0.1193
0.1409 0.1397 0.1397
0.1801 0.1776 0.1764
0.2384 0.2376 0.2346
0.3042 0.3033 0.2954
0.3372 0.3350 0.3243
0.3553 0.3522 0.3388
0.3721 0.3697 0.3558
0.3906 0.3877 0.3708
0.4073 0.4047 0.3869
0.4184 0.4172 0.3975
0.4297 0.4264 0.4054
0.4391 0.4351 0.4138
0.4449 0.4423 0.4207
0.4505 0.4500 0.4274
0.4587 0.4567 0.4326
0.4664 0.4631 0.4382
0.4732 0.4694 0.4442
0.4787 0.4756 0.4504
0.4829 0.4818 0.4567
0.4883 0.4876 0.4613
0.4946 0.4928 0.4652
0.5004 0.4976 0.4692
0.5056 0.5021 0.4733
0.5102 0.5064 0.4775
0.5140 0.5107 0.4818
0.5173 0.5151 0.4862
0.5199 0.5197 0.4907
0.5244 0.5235 0.4935
0.1105 0.1091 0.1088
0.1118 0.1107 0.1106
0.1129 0.1127 0.1127
0.1165 0.1159 0.1154
0.1205 0.1190 0.1185
0.1227 0.1211 0.1207
0.1255 0.1248 0.1248
0.1401 0.1386 0.1385
0.1715 0.1693 0.1677
0.2205 0.2184 0.2150
0.2751 0.2743 0.2684
0.3394 0.3387 0.3278
0.3738 0.3726 0.3586
0.3907 0.3878 0.3709
0.4060 0.4028 0.3851
0.4203 0.4187 0.3987
0.4369 0.4328 0.4116
0.4477 0.4473 0.4253
0.4552 0.4538 0.4303
0.4631 0.4602 0.4357
0.4693 0.4657 0.4407
0.4739 0.4701 0.4450
0.4781 0.4749 0.4497
0.4817 0.4799 0.4548
0.4851 0.4850 0.4596
0.4909 0.4898 0.4629
0.4965 0.4943 0.4664
0.5016 0.4986 0.4701
0.5063 0.5027 0.4739
0.5105 0.5068 0.4779
0.5141 0.5108 0.4819
0.5172 0.5150 0.4860
0.5196 0.5192 0.4903
0.5237 0.5230 0.4931
0.5281 0.5265 0.4958
0.1190 0.1179 0.1173
0.1211 0.1196 0.1191
0.1232 0.1216 0.1213
0.1255 0.1247 0.1247
0.1306 0.1296 0.1291
0.1336 0.1320 0.1314
0.1376 0.1356 0.1353
0.1428 0.1427 0.1425
0.1673 0.1660 0.1645
0.2096 0.2090 0.2070
0.2579 0.2543 0.2490
0.3102 0.3092 0.3001
0.3708 0.3678 0.3539
0.4091 0.4074 0.3896
0.4235 0.4212 0.4008
0.4382 0.4342 0.4129
0.4482 0.4481 0.4261
0.4627 0.4599 0.4354
0.4744 0.4707 0.4455
0.4808 0.4784 0.4533
0.4835 0.4830 0.4580
0.4883 0.4876 0.4613
0.4923 0.4909 0.4637
0.4957 0.4937 0.4659
0.4993 0.4966 0.4684
0.5030 0.4998 0.4712
0.5066 0.5030 0.4742
0.5101 0.5063 0.4774
0.5133 0.5098 0.4809
0.5161 0.5134 0.4845
0.5185 0.5171 0.4882
0.5211 0.5209 0.4916
0.5251 0.5241 0.4940
0.5291 0.5273 0.4965
0.5329 0.5304 0.4991
0.1289 0.1284 0.1279
0.1315 0.1304 0.1298
0.1343 0.1326 0.1321
0.1380 0.1360 0.1357
0.1417 0.1413 0.1413
0.1470 0.1461 0.1452
0.1516 0.1497 0.1486
0.1576 0.1554 0.1544
0.1723 0.1700 0.1684
0.2062 0.2035 0.2013
0.2458 0.2444 0.2401
0.2933 0.2895 0.2819
0.3428 0.3422 0.3306
0.4003 0.3964 0.3788
0.4425 0.4390 0.4176
0.4538 0.4527 0.4295
0.4671 0.4637 0.4388
0.4776 0.4742 0.4491
0.4849 0.4848 0.4595
0.4958 0.4937 0.4659
0.5048 0.5013 0.4726
0.5079 0.5042 0.4754
0.5105 0.5067 0.4778
0.5130 0.5095 0.4805
0.5143 0.5111 0.4821
0.5156 0.5128 0.4838
0.5171 0.5149 0.4859
0.5186 0.5172 0.4883
0.5200 0.5199 0.4909
0.5229 0.5223 0.4926
0.5261 0.5249 0.4946
0.5293 0.5275 0.4966
0.5326 0.5301 0.4989
0.5358 0.5328 0.5013
0.5389 0.5355 0.5038
0.1418 0.1416 0.1416
0.1444 0.1440 0.1435
0.1477 0.1466 0.1457
0.1523 0.1503 0.1492
0.1577 0.1556 0.1546
0.1636 0.1631 0.1618
0.1684 0.1668 0.1652
0.1754 0.1726 0.1712
0.1829 0.1818 0.1808
0.2085 0.2070 0.2049
0.2396 0.2395 0.2363
0.2816 0.2795 0.2726
0.3274 0.3236 0.3130
0.3738 0.3726 0.3586
0.4272 0.4243 0.4035
0.4691 0.4654 0.4404
0.4823 0.4808 0.4557
0.4921 0.4907 0.4636
0.5025 0.4993 0.4707
0.5108 0.5071 0.4782
0.5168 0.5145 0.4855
0.5215 0.5212 0.4918
0.5265 0.5252 0.4948
0.5277 0.5261 0.4955
0.5292 0.5274 0.4966
0.5310 0.5289 0.4978
0.5315 0.5292 0.4981
0.5324 0.5299 0.4987
0.5337 0.5310 0.4997
0.5353 0.5323 0.5009
0.5371 0.5339 0.5023
0.5391 0.5357 0.5040
0.5413 0.5377 0.5059
0.5435 0.5399 0.5080
0.5457 0.5422 0.5103
0.1593 0.1578 0.1568
0.1608 0.1604 0.1595
0.1640 0.1634 0.1621
0.1694 0.1676 0.1660
0.1762 0.1734 0.1720
0.1830 0.1819 0.1809
0.1891 0.1879 0.1859
0.1964 0.1937 0.1912
0.2050 0.2020 0.1998
0.2154 0.2143 0.2114
0.2410 0.2406 0.2372
0.2758 0.2749 0.2688
0.3158 0.3137 0.3038
0.3595 0.3558 0.3421
0.4048 0.4014 0.3837
0.4509 0.4504 0.4277
0.4907 0.4896 0.4627
0.5102 0.5064 0.4775
0.5170 0.5147 0.4858
0.5231 0.5225 0.4928
0.5308 0.5286 0.4976
0.5371 0.5339 0.5023
0.5421 0.5385 0.5066
0.5460 0.5425 0.5106
0.5469 0.5435 0.5116
0.5471 0.5437 0.5118
0.5475 0.5442 0.5123
0.5479 0.5447 0.5128
0.5477 0.5445 0.5126
0.5479 0.5447 0.5128
0.5485 0.5454 0.5135
0.5492 0.5463 0.5144
0.5502 0.5476 0.5157
0.5512 0.5491 0.5172
0.5523 0.5509 0.5190
0.1803 0.1779 0.1767
0.1823 0.1808 0.1797
0.1843 0.1842 0.1832
0.1902 0.1888 0.1867
0.1978 0.1949 0.1924
0.2061 0.2033 0.2012
0.2130 0.2125 0.2099
0.2204 0.2183 0.2149
0.2287 0.2253 0.2219
0.2348 0.2318 0.2286
0.2490 0.2470 0.2423
0.2750 0.2743 0.2683
0.3101 0.3091 0.3000
0.3474 0.3459 0.3334
0.3881 0.3857 0.3690
0.4324 0.4287 0.4076
0.4769 0.4734 0.4482
0.5143 0.5110 0.4821
0.5323 0.5299 0.4987
0.5401 0.5366 0.5048
0.5459 0.5424 0.5105
0.5502 0.5477 0.5157
0.5532 0.5523 0.5204
0.5565 0.5561 0.5235
0.5601 0.5590 0.5257
0.5627 0.5611 0.5273
0.5618 0.5604 0.5267
0.5613 0.5600 0.5264
0.5613 0.5600 0.5264
0.5611 0.5598 0.5263
0.5605 0.5594 0.5259
0.5604 0.5593 0.5258
0.5607 0.5595 0.5260
0.5614 0.5601 0.5265
0.5624 0.5609 0.5272
0.2048 0.2018 0.1995
0.2071 0.2048 0.2027
0.2093 0.2084 0.2063
0.2142 0.2134 0.2107
0.2225 0.2200 0.2165
0.2320 0.2286 0.2253
0.2407 0.2404 0.2370
0.2444 0.2434 0.2393
0.2493 0.2472 0.2425
0.2552 0.2520 0.2468
0.2627 0.2589 0.2537
0.2812 0.2792 0.2723
0.3076 0.3071 0.2985
0.3413 0.3411 0.3297
0.3755 0.3754 0.3613
0.4138 0.4134 0.3946
0.4562 0.4546 0.4310
0.4987 0.4961 0.4679
0.5343 0.5316 0.5002
0.5512 0.5491 0.5172
0.5577 0.5571 0.5242
0.5634 0.5617 0.5278
0.5679 0.5654 0.5311
0.5715 0.5685 0.5339
0.5744 0.5711 0.5364
0.5766 0.5733 0.5386
0.5784 0.5752 0.5405
0.5784 0.5752 0.5404
0.5774 0.5742 0.5394
0.5768 0.5735 0.5388
0.5765 0.5732 0.5385
0.5759 0.5726 0.5379
0.5752 0.5719 0.5372
0.5749 0.5717 0.5370
0.5750 0.5717 0.5370
0.2329 0.2296 0.2263
0.2354 0.2326 0.2295
0.2377 0.2362 0.2332
0.2420 0.2415 0.2378
0.2491 0.2470 0.2423
0.2572 0.2537 0.2485
0.2656 0.2621 0.2569
0.2684 0.2660 0.2609
0.2701 0.2689 0.2639
0.2733 0.2729 0.2673
0.2797 0.2780 0.2713
0.2897 0.2862 0.2787
0.3114 0.3102 0.3008
0.3389 0.3378 0.3269
0.3716 0.3690 0.3551
0.4056 0.4024 0.3846
0.4424 0.4389 0.4175
0.4804 0.4779 0.4527
0.5185 0.5171 0.4882
0.5524 0.5510 0.5190
0.5703 0.5674 0.5329
0.5776 0.5743 0.5396
0.5811 0.5783 0.5435
0.5835 0.5816 0.5468
0.5852 0.5845 0.5496
0.5868 0.5866 0.5515
0.5885 0.5881 0.5525
0.5900 0.5893 0.5534
0.5913 0.5903 0.5543
0.5898 0.5891 0.5533
0.5885 0.5881 0.5525
0.5877 0.5874 0.5520
0.5871 0.5869 0.5517
0.5862 0.5861 0.5511
0.5857 0.5853 0.5503
0.2599 0.2561 0.2508
0.2622 0.2584 0.2531
0.2646 0.2609 0.2557
0.2675 0.2646 0.2595
0.2705 0.2698 0.2648
0.2773 0.2761 0.2698
0.2864 0.2834 0.2761
0.2923 0.2886 0.2810
0.2940 0.2902 0.2826
0.2966 0.2929 0.2853
0.2999 0.2967 0.2890
0.3039 0.3029 0.2950
0.3187 0.3160 0.3058
0.3398 0.3395 0.3285
0.3693 0.3659 0.3520
0.4000 0.3962 0.3787
0.4323 0.4286 0.4075
0.4670 0.4636 0.4387
0.5037 0.5003 0.4717
0.5398 0.5364 0.5046
0.5714 0.5684 0.5338
0.5855 0.5851 0.5501
0.5920 0.5909 0.5547
0.5953 0.5936 0.5570
0.5979 0.5957 0.5590
0.5998 0.5974 0.5605
0.6013 0.5988 0.5618
0.6025 0.5999 0.5629
0.6035 0.6008 0.5637
0.6043 0.6015 0.5645
0.6040 0.6013 0.5642
0.6026 0.5999 0.5629
0.6015 0.5989 0.5619
0.6006 0.5981 0.5612
0.6001 0.5977 0.5607
0.2820 0.2798 0.2729
0.2845 0.2818 0.2747
0.2872 0.2840 0.2767
0.2907 0.2871 0.2796
0.2952 0.2913 0.2837
0.3001 0.2969 0.2893
0.3048 0.3045 0.2965
0.3129 0.3114 0.3018
0.3139 0.3121 0.3024
0.3160 0.3138 0.3039
0.3191 0.3163 0.3061
0.3235 0.3201 0.3096
0.3298 0.3260 0.3154
0.3455 0.3444 0.3322
0.3692 0.3658 0.3519
0.3970 0.3933 0.3759
0.4249 0.4224 0.4019
0.4551 0.4537 0.4302
0.4875 0.4870 0.4609
0.5223 0.5219 0.4923
0.5562 0.5558 0.5232
0.5856 0.5852 0.5503
0.6018 0.5992 0.5622
0.6067 0.6041 0.5670
0.6088 0.6065 0.5694
0.6102 0.6083 0.5713
0.6112 0.6099 0.5728
0.6119 0.6110 0.5740
0.6124 0.6119 0.5749
0.6128 0.6126 0.5756
0.6132 0.6132 0.5761
0.6137 0.6136 0.5764
0.6126 0.6123 0.5752
0.6118 0.6108 0.5738
0.6112 0.6098 0.5728
0.3037 0.3024 0.2946
0.3048 0.3046 0.2966
0.3070 0.3067 0.2982
0.3105 0.3095 0.3003
0.3151 0.3131 0.3033
0.3207 0.3177 0.3074
0.3272 0.3234 0.3128
0.3339 0.3305 0.3199
0.3353 0.3324 0.3217
0.3362 0.3335 0.3228
0.3375 0.3355 0.3247
0.3393 0.3386 0.3277
0.3439 0.3431 0.3312
0.3537 0.3509 0.3376
0.3724 0.3701 0.3562
0.3961 0.3925 0.3752
0.4213 0.4195 0.3994
0.4476 0.4472 0.4253
0.4792 0.4763 0.4511
0.5118 0.5081 0.4792
0.5446 0.5410 0.5091
0.5758 0.5725 0.5378
0.6013 0.5988 0.5618
0.6129 0.6128 0.5758
0.6179 0.6171 0.5792
0.6202 0.6190 0.5809
0.6220 0.6205 0.5822
0.6233 0.6216 0.5832
0.6242 0.6223 0.5839
0.6248 0.6229 0.5844
0.6253 0.6233 0.5849
0.6257 0.6236 0.5852
0.6260 0.6239 0.5854
0.6257 0.6237 0.5852
0.6242 0.6223 0.5839
0.3270 0.3232 0.3127
0.3287 0.3249 0.3143
0.3305 0.3267 0.3161
0.3328 0.3293 0.3186
0.3357 0.3328 0.3222
0.3388 0.3376 0.3268
0.3439 0.3431 0.3312
0.3513 0.3490 0.3359
0.3557 0.3526 0.3391
0.3561 0.3529 0.3394
0.3574 0.3540 0.3404
0.3595 0.3558 0.3421
0.3627 0.3588 0.3449
0.3673 0.3635 0.3496
0.3769 0.3766 0.3620
0.3990 0.3952 0.3777
0.4196 0.4182 0.3983
0.4458 0.4437 0.4220
0.4735 0.4697 0.4446
0.5017 0.4986 0.4701
0.5314 0.5291 0.4980
0.5617 0.5603 0.5267
0.5902 0.5894 0.5535
0.6124 0.6119 0.5749
0.6263 0.6242 0.5857
0.6306 0.6282 0.5898
0.6321 0.6299 0.5915
0.6333 0.6311 0.5928
0.6340 0.6320 0.5937
0.6345 0.6327 0.5944
0.6349 0.6331 0.5949
0.6351 0.6335 0.5952
0.6353 0.6337 0.5955
0.6355 0.6339 0.5957
0.6356 0.6342 0.5960
0.3453 0.3442 0.3321
0.3471 0.3456 0.3332
0.3490 0.3471 0.3344
0.3516 0.3493 0.3362
0.3551 0.3521 0.3387
0.3593 0.3557 0.3420
0.3641 0.3602 0.3463
0.3691 0.3657 0.3518
0.3734 0.3719 0.3579
0.3733 0.3717 0.3578
0.3737 0.3724 0.3584
0.3744 0.3737 0.3598
0.3762 0.3760 0.3616
0.3805 0.3795 0.3641
0.3869 0.3847 0.3682
0.4040 0.4004 0.3827
0.4216 0.4198 0.3996
0.4446 0.4419 0.4203
0.4699 0.4662 0.4412
0.4941 0.4923 0.4648
0.5200 0.5200 0.4910
0.5507 0.5484 0.5165
0.5798 0.5768 0.5420
0.6050 0.6023 0.5652
0.6251 0.6231 0.5846
0.6360 0.6347 0.5965
0.6394 0.6392 0.6009
0.6411 0.6406 0.6020
0.6424 0.6417 0.6028
0.6433 0.6424 0.6034
0.6439 0.6429 0.6038
0.6443 0.6432 0.6041
0.6446 0.6435 0.6043
0.6449 0.6437 0.6045
0.6451 0.6439 0.6047
0.3663 0.3624 0.3485
0.3675 0.3637 0.3498
0.3687 0.3652 0.3513
0.3703 0.3672 0.3533
0.3723 0.3700 0.3561
0.3744 0.3737 0.3597
0.3786 0.3780 0.3630
0.3846 0.3829 0.3667
0.3914 0.3884 0.3714
0.3935 0.3902 0.3730
0.3936 0.3903 0.3731
0.3944 0.3910 0.3737
0.3960 0.3924 0.3750
0.3985 0.3947 0.3772
0.4023 0.3986 0.3809
0.4091 0.4073 0.3895
0.4272 0.4243 0.4035
0.4452 0.4428 0.4212
0.4683 0.4647 0.4398
0.4892 0.4884 0.4618
0.5155 0.5126 0.4837
0.5425 0.5389 0.5070
0.5688 0.5661 0.5317
0.5938 0.5923 0.5559
0.6155 0.6151 0.5776
0.6352 0.6335 0.5953
0.6460 0.6446 0.6053
0.6508 0.6486 0.6091
0.6522 0.6499 0.6104
0.6531 0.6508 0.6113
0.6538 0.6514 0.6120
0.6543 0.6519 0.6125
0.6546 0.6522 0.6128
0.6549 0.6525 0.6131
0.6551 0.6527 0.6133
0.3825 0.3812 0.3654
0.3840 0.3823 0.3663
0.3855 0.3836 0.3673
0.3876 0.3853 0.3687
0.3904 0.3876 0.3707
0.3939 0.3905 0.3733
0.3978 0.3941 0.3766
0.4021 0.3983 0.3807
0.4065 0.4035 0.3858
0.4096 0.4082 0.3903
0.4094 0.4079 0.3900
0.4096 0.4082 0.3904
0.4101 0.4092 0.3913
0.4110 0.4109 0.3929
0.4145 0.4139 0.3950
0.4199 0.4184 0.3984
0.4341 0.4302 0.4090
0.4476 0.4472 0.4253
0.4688 0.4652 0.4403
0.4876 0.4870 0.4609
0.5121 0.5084 0.4795
0.5353 0.5324 0.5009
0.5586 0.5578 0.5247
0.5843 0.5828 0.5480
0.6078 0.6054 0.5683
0.6286 0.6263 0.5878
0.6448 0.6436 0.6045
0.6559 0.6536 0.6142
0.6593 0.6579 0.6187
0.6601 0.6592 0.6201
0.6606 0.6602 0.6212
0.6610 0.6610 0.6220
0.6615 0.6614 0.6223
0.6620 0.6618 0.6226
0.6624 0.6621 0.6228
0.4017 0.3979 0.3803
0.4027 0.3990 0.3813
0.4037 0.4001 0.3824
0.4051 0.4017 0.3840
0.4068 0.4039 0.3861
0.4087 0.4067 0.3889
0.4106 0.4102 0.3923
0.4150 0.4144 0.3954
0.4207 0.4190 0.3990
0.4270 0.4241 0.4034
0.4286 0.4254 0.4045
0.4285 0.4254 0.4045
0.4291 0.4259 0.4049
0.4303 0.4269 0.4059
0.4324 0.4287 0.4076
0.4359 0.4319 0.4106
0.4413 0.4375 0.4161
0.4540 0.4528 0.4295
0.4719 0.4681 0.4430
0.4878 0.4872 0.4611
0.5110 0.5073 0.4783
0.5308 0.5286 0.4976
0.5525 0.5511 0.5192
0.5773 0.5740 0.5393
0.5995 0.5971 0.5602
