luts/UP-Monosand.cube
TITLE "UP-MonoSand"
#Data domain
#LUT size
LUT_3D_SIZE 5
DOMAIN_MIN 0.000000 0.000000 0.000000
DOMAIN_MAX 0.823529 0.823529 0.823529
0.0908 0.0897 0.0898
0.1104 0.1089 0.1087
0.2677 0.2649 0.2598
0.4279 0.4249 0.4040
0.4880 0.4874 0.4612
0.0950 0.0943 0.0940
0.1605 0.1599 0.1589
0.3555 0.3524 0.3390
0.4419 0.4383 0.4169
0.4928 0.4913 0.4640
0.1593 0.1578 0.1568
0.1964 0.1937 0.1912
0.4048 0.4014 0.3837
0.5371 0.5339 0.5023
0.5477 0.5445 0.5126
0.3270 0.3232 0.3127
0.3513 0.3490 0.3359
0.3769 0.3766 0.3620
0.5617 0.5603 0.5267
0.6340 0.6320 0.5937
0.4475 0.4469 0.4250
0.4611 0.4586 0.4342
0.4767 0.4731 0.4479
0.5316 0.5293 0.4982
0.6535 0.6511 0.6117
0.0961 0.0951 0.0948
0.1456 0.1450 0.1442
0.2885 0.2852 0.2778
0.4141 0.4136 0.3948
0.4837 0.4834 0.4583
0.1011 0.1002 0.1002
0.2343 0.2312 0.2280
0.3801 0.3792 0.3639
0.4577 0.4558 0.4319
0.5002 0.4973 0.4690
0.1745 0.1719 0.1704
0.2288 0.2254 0.2219
0.4104 0.4097 0.3918
0.5403 0.5368 0.5050
0.5374 0.5341 0.5025
0.3351 0.3321 0.3214
0.3615 0.3576 0.3438
0.3833 0.3818 0.3659
0.5632 0.5615 0.5277
0.6345 0.6327 0.5944
0.4518 0.4510 0.4282
0.4657 0.4625 0.4377
0.4800 0.4773 0.4521
0.5315 0.5293 0.4982
0.6543 0.6519 0.6124
0.1610 0.1609 0.1599
0.2595 0.2557 0.2505
0.4033 0.3996 0.3819
0.4831 0.4822 0.4571
0.5044 0.5009 0.4722
0.1561 0.1538 0.1527
0.2593 0.2556 0.2503
0.4360 0.4320 0.4108
0.4933 0.4917 0.4643
0.5051 0.5016 0.4729
0.2386 0.2379 0.2349
0.3035 0.3021 0.2943
0.4949 0.4930 0.4653
0.4929 0.4914 0.4641
0.5200 0.5199 0.4909
0.3560 0.3528 0.3393
0.3816 0.3805 0.3648
0.4265 0.4237 0.4030
0.5843 0.5829 0.5481
0.6306 0.6283 0.5898
0.4646 0.4615 0.4368
0.4768 0.4733 0.4481
0.4950 0.4931 0.4654
0.5356 0.5326 0.5012
0.6592 0.6577 0.6186
0.3135 0.3118 0.3022
0.3744 0.3737 0.3597
0.4402 0.4363 0.4149
0.5504 0.5479 0.5159
0.5852 0.5844 0.5495
0.3107 0.3097 0.3004
0.3610 0.3572 0.3435
0.4438 0.4408 0.4193
0.5635 0.5618 0.5279
0.5888 0.5883 0.5527
0.3330 0.3295 0.3189
0.3615 0.3576 0.3438
0.4396 0.4357 0.4143
0.5691 0.5664 0.5320
0.5856 0.5851 0.5502
0.4079 0.4055 0.3877
0.4307 0.4272 0.4062
0.5110 0.5073 0.4784
0.6393 0.6391 0.6008
0.6023 0.5996 0.5626
0.4785 0.4754 0.4502
0.4890 0.4882 0.4617
0.5281 0.5265 0.4959
0.5746 0.5713 0.5366
0.6824 0.6820 0.6420
0.4082 0.4059 0.3881
0.4250 0.4225 0.4019
0.4555 0.4541 0.4305
0.5532 0.5524 0.5204
0.6187 0.6178 0.5798
0.4104 0.4097 0.3918
0.4269 0.4241 0.4033
0.4609 0.4585 0.4341
0.5531 0.5522 0.5202
0.6237 0.6219 0.5835
0.4287 0.4256 0.4047
0.4433 0.4401 0.4186
0.4684 0.4649 0.4399
0.5351 0.5322 0.5008
0.6322 0.6300 0.5916
0.4729 0.4691 0.4440
0.4826 0.4812 0.4562
0.5179 0.5162 0.4872
0.5531 0.5521 0.5202
0.6548 0.6524 0.6129
0.5309 0.5287 0.4977
0.5410 0.5375 0.5057
0.5696 0.5669 0.5324
0.6193 0.6182 0.5802
0.7254 0.7254 0.6853
