luts/UP-Monosand.cube
TITLE "UP-MonoSand"
#Data domain
#LUT size
LUT_3D_SIZE 7
DOMAIN_MIN 0.000000 0.000000 0.000000
DOMAIN_MAX 0.882353 0.882353 0.882353
0.0908 0.0897 0.0898
0.0955 0.0946 0.0944
0.1565 0.1542 0.1532
0.3006 0.2977 0.2900
0.4108 0.4105 0.3925
0.4697 0.4661 0.4410
0.5013 0.4983 0.4698
0.0916 0.0911 0.0912
0.1134 0.1133 0.1132
0.2333 0.2300 0.2267
0.3354 0.3325 0.3218
0.4192 0.4178 0.3980
0.4718 0.4680 0.4429
0.5025 0.4993 0.4708
0.1105 0.1091 0.1088
0.1227 0.1211 0.1207
0.2751 0.2743 0.2684
0.4203 0.4187 0.3987
0.4693 0.4657 0.4407
0.4909 0.4898 0.4629
0.5141 0.5108 0.4819
0.1803 0.1779 0.1767
0.2061 0.2033 0.2012
0.2490 0.2470 0.2423
0.4324 0.4287 0.4076
0.5459 0.5424 0.5105
0.5627 0.5611 0.5273
0.5605 0.5594 0.5259
0.3037 0.3024 0.2946
0.3207 0.3177 0.3074
0.3375 0.3355 0.3247
0.3961 0.3925 0.3752
0.5446 0.5410 0.5091
0.6202 0.6190 0.5809
0.6253 0.6233 0.5849
0.4017 0.3979 0.3803
0.4087 0.4067 0.3889
0.4286 0.4254 0.4045
0.4359 0.4319 0.4106
0.5110 0.5073 0.4783
0.6195 0.6184 0.5803
0.6693 0.6678 0.6277
0.4791 0.4761 0.4510
0.4829 0.4818 0.4568
0.4988 0.4962 0.4680
0.5062 0.5026 0.4738
0.5282 0.5266 0.4959
0.5961 0.5942 0.5576
0.6731 0.6711 0.6309
0.0916 0.0911 0.0912
0.1091 0.1076 0.1072
0.1664 0.1653 0.1638
0.2842 0.2816 0.2745
0.4052 0.4019 0.3842
0.4671 0.4637 0.4388
0.5021 0.4990 0.4705
0.0928 0.0926 0.0925
0.1446 0.1441 0.1436
0.2601 0.2563 0.2510
0.3640 0.3600 0.3462
0.4359 0.4319 0.4107
0.4780 0.4747 0.4495
0.5062 0.5026 0.4738
0.1137 0.1136 0.1135
0.1347 0.1329 0.1324
0.2834 0.2810 0.2739
0.4366 0.4326 0.4113
0.4647 0.4616 0.4369
0.4882 0.4875 0.4613
0.5128 0.5092 0.4803
0.1876 0.1868 0.1851
0.2168 0.2155 0.2124
0.2587 0.2550 0.2498
0.4340 0.4301 0.4090
0.5494 0.5465 0.5146
0.5580 0.5573 0.5244
0.5543 0.5542 0.5222
0.3089 0.3082 0.2993
0.3268 0.3231 0.3125
0.3424 0.3419 0.3303
0.3949 0.3914 0.3741
0.5452 0.5416 0.5097
0.6218 0.6203 0.5821
0.6246 0.6227 0.5842
0.4044 0.4008 0.3831
0.4105 0.4098 0.3919
0.4324 0.4287 0.4076
0.4389 0.4350 0.4136
0.5107 0.5070 0.4780
0.6199 0.6187 0.5806
0.6701 0.6685 0.6283
0.4805 0.4781 0.4529
0.4839 0.4839 0.4589
0.5009 0.4980 0.4695
0.5080 0.5043 0.4754
0.5279 0.5264 0.4957
0.5970 0.5949 0.5582
0.6734 0.6714 0.6311
0.1129 0.1128 0.1128
0.1556 0.1533 0.1522
0.2631 0.2593 0.2541
0.3690 0.3655 0.3516
0.4181 0.4169 0.3973
0.4630 0.4602 0.4356
0.4965 0.4943 0.4664
0.1098 0.1082 0.1079
0.1560 0.1537 0.1527
0.3142 0.3124 0.3027
0.3906 0.3877 0.3708
0.4300 0.4266 0.4056
0.4706 0.4668 0.4418
0.5017 0.4986 0.4701
0.1343 0.1326 0.1320
0.1743 0.1717 0.1702
0.3602 0.3565 0.3427
0.4041 0.4005 0.3828
0.4677 0.4642 0.4393
0.4974 0.4951 0.4670
0.5162 0.5135 0.4845
0.2092 0.2083 0.2063
0.2474 0.2457 0.2412
0.3053 0.3053 0.2972
0.4584 0.4564 0.4324
0.5477 0.5444 0.5125
0.5443 0.5407 0.5088
0.5422 0.5386 0.5067
0.3244 0.3209 0.3104
0.3388 0.3376 0.3268
0.3646 0.3607 0.3468
0.4028 0.3991 0.3815
0.5509 0.5486 0.5166
0.6216 0.6201 0.5819
0.6209 0.6195 0.5813
0.4097 0.4084 0.3905
0.4188 0.4175 0.3977
0.4423 0.4388 0.4173
0.4465 0.4450 0.4232
0.5113 0.5076 0.4787
0.6226 0.6210 0.5827
0.6716 0.6698 0.6296
0.4836 0.4833 0.4582
0.4897 0.4888 0.4622
0.5063 0.5027 0.4739
0.5131 0.5097 0.4807
0.5310 0.5288 0.4978
0.5998 0.5974 0.5604
0.6748 0.6727 0.6325
0.1806 0.1782 0.1771
0.2542 0.2511 0.2460
0.3259 0.3222 0.3117
0.4316 0.4280 0.4070
0.4986 0.4961 0.4679
0.5083 0.5045 0.4757
0.5169 0.5146 0.4857
0.1757 0.1729 0.1715
0.2295 0.2261 0.2226
0.3484 0.3467 0.3340
0.4522 0.4514 0.4285
0.5089 0.5052 0.4763
0.5097 0.5059 0.4770
0.5169 0.5145 0.4856
0.1873 0.1866 0.1849
0.2211 0.2188 0.2154
0.3369 0.3346 0.3239
0.4570 0.4552 0.4314
0.5062 0.5026 0.4738
0.5107 0.5069 0.4780
0.5162 0.5136 0.4846
0.2687 0.2664 0.2613
0.2977 0.2941 0.2865
0.3924 0.3893 0.3722
0.5215 0.5212 0.4918
0.5249 0.5239 0.4938
0.5094 0.5056 0.4767
0.5322 0.5298 0.4986
0.3391 0.3382 0.3273
0.3581 0.3546 0.3410
0.4070 0.4042 0.3865
0.4525 0.4516 0.4286
0.5828 0.5806 0.5458
0.6199 0.6187 0.5806
0.6008 0.5982 0.5613
0.4214 0.4196 0.3994
0.4317 0.4281 0.4070
0.4549 0.4536 0.4301
0.4691 0.4655 0.4405
0.5195 0.5189 0.4899
0.6328 0.6306 0.5923
0.6701 0.6685 0.6283
0.4928 0.4913 0.4640
0.4991 0.4965 0.4682
0.5139 0.5106 0.4816
0.5222 0.5217 0.4922
0.5438 0.5401 0.5082
0.6052 0.6025 0.5654
0.6794 0.6777 0.6376
0.2955 0.2917 0.2841
0.3342 0.3308 0.3202
0.3885 0.3860 0.3693
0.4589 0.4568 0.4327
0.5359 0.5329 0.5014
0.5720 0.5690 0.5344
0.5726 0.5694 0.5348
0.2929 0.2891 0.2815
0.3264 0.3227 0.3122
0.4059 0.4027 0.3850
0.4643 0.4612 0.4366
0.5452 0.5417 0.5098
0.5767 0.5734 0.5387
0.5730 0.5698 0.5352
0.2944 0.2905 0.2830
0.3194 0.3166 0.3064
0.3867 0.3846 0.3681
0.4474 0.4468 0.4249
0.5505 0.5480 0.5161
0.5836 0.5818 0.5470
0.5726 0.5695 0.5348
0.3325 0.3289 0.3183
0.3479 0.3463 0.3337
0.3969 0.3932 0.3758
0.4562 0.4546 0.4310
0.5687 0.5661 0.5317
0.5818 0.5792 0.5444
0.5631 0.5615 0.5276
0.3888 0.3862 0.3695
0.4027 0.3989 0.3813
0.4423 0.4388 0.4174
0.5119 0.5082 0.4793
0.6261 0.6240 0.5855
0.6136 0.6135 0.5764
0.5613 0.5600 0.5264
0.4348 0.4309 0.4097
0.4423 0.4388 0.4173
0.4684 0.4648 0.4399
0.5118 0.5082 0.4792
0.5677 0.5652 0.5309
0.6598 0.6588 0.6197
0.6748 0.6727 0.6325
0.5039 0.5005 0.4719
0.5095 0.5057 0.4768
0.5213 0.5211 0.4917
0.5459 0.5424 0.5105
0.5605 0.5594 0.5259
0.6132 0.6132 0.5762
0.6921 0.6904 0.6496
0.3744 0.3737 0.3597
0.3925 0.3894 0.3723
0.4372 0.4331 0.4118
0.4595 0.4573 0.4332
0.5470 0.5436 0.5117
0.5959 0.5940 0.5574
0.6147 0.6144 0.5771
0.3744 0.3738 0.3598
0.3915 0.3885 0.3715
0.4289 0.4257 0.4048
0.4593 0.4571 0.4330
0.5492 0.5463 0.5144
0.5999 0.5975 0.5606
0.6173 0.6166 0.5788
0.3788 0.3781 0.3631
0.3943 0.3909 0.3736
0.4226 0.4206 0.4003
0.4534 0.4524 0.4292
0.5513 0.5492 0.5173
0.6090 0.6067 0.5696
0.6238 0.6220 0.5836
0.3928 0.3896 0.3724
0.4046 0.4012 0.3835
0.4361 0.4320 0.4108
0.4664 0.4630 0.4382
0.5269 0.5255 0.4951
0.6090 0.6067 0.5697
0.6256 0.6235 0.5851
0.4376 0.4336 0.4123
0.4449 0.4424 0.4208
0.4705 0.4668 0.4417
0.5155 0.5125 0.4836
0.5541 0.5541 0.5221
0.6411 0.6406 0.6020
0.6379 0.6378 0.5998
0.4812 0.4790 0.4539
0.4870 0.4865 0.4606
0.5100 0.5062 0.4773
0.5500 0.5474 0.5155
0.5986 0.5963 0.5595
0.6917 0.6901 0.6493
0.6747 0.6726 0.6324
0.5178 0.5159 0.4870
0.5207 0.5206 0.4914
0.5343 0.5315 0.5001
0.5551 0.5549 0.5226
0.5864 0.5863 0.5512
0.6451 0.6438 0.6046
0.7198 0.7176 0.6771
0.4265 0.4237 0.4030
0.4332 0.4294 0.4083
0.4473 0.4466 0.4247
0.4680 0.4645 0.4396
0.5294 0.5275 0.4967
0.6034 0.6007 0.5636
0.6325 0.6303 0.5919
0.4292 0.4260 0.4050
0.4354 0.4314 0.4102
0.4468 0.4455 0.4237
0.4687 0.4651 0.4401
0.5276 0.5260 0.4955
0.6048 0.6021 0.5650
0.6341 0.6321 0.5938
0.4381 0.4341 0.4128
0.4428 0.4394 0.4180
0.4517 0.4510 0.4281
0.4758 0.4722 0.4470
0.5195 0.5190 0.4900
0.6078 0.6053 0.5682
0.6376 0.6372 0.5992
0.4517 0.4510 0.4282
0.4590 0.4568 0.4328
0.4734 0.4696 0.4444
0.4811 0.4789 0.4537
0.4992 0.4965 0.4683
0.6043 0.6015 0.5645
0.6446 0.6435 0.6043
0.4792 0.4763 0.4511
0.4828 0.4817 0.4567
0.4982 0.4957 0.4676
0.5213 0.5211 0.4917
0.5261 0.5249 0.4946
0.5995 0.5971 0.5602
0.6525 0.6501 0.6106
0.5219 0.5215 0.4921
0.5279 0.5263 0.4957
0.5430 0.5393 0.5075
0.5665 0.5642 0.5300
0.5993 0.5970 0.5601
0.6308 0.6285 0.5901
0.6954 0.6933 0.6525
0.5605 0.5593 0.5259
0.5650 0.5630 0.5289
0.5764 0.5731 0.5384
0.5945 0.5929 0.5564
0.6245 0.6226 0.5841
0.6584 0.6566 0.6174
0.7510 0.7502 0.7107
