luts/UP-SuperPortra.cube
TITLE "UP-SuperPortra"
LUT_3D_SIZE 64
0.015686 0.007843 0.000000
0.019608 0.007843 0.000000
0.023529 0.007843 0.000000
0.027451 0.007843 0.000000
0.031373 0.007843 0.000000
0.035294 0.007843 0.000000
0.043137 0.011765 0.000000
0.047059 0.011765 0.000000
0.054902 0.011765 0.000000
0.062745 0.011765 0.000000
0.078431 0.015686 0.000000
0.094118 0.015686 0.000000
0.105882 0.019608 0.000000
0.117647 0.023529 0.000000
0.149020 0.031373 0.000000
0.172549 0.039216 0.000000
0.196078 0.043137 0.000000
0.219608 0.054902 0.000000
0.247059 0.066667 0.000000
0.274510 0.074510 0.000000
0.301961 0.086275 0.000000
0.329412 0.098039 0.000000
0.360784 0.109804 0.000000
0.396078 0.125490 0.000000
0.419608 0.141176 0.000000
0.447059 0.149020 0.000000
0.482353 0.160784 0.000000
0.513725 0.176471 0.000000
0.545098 0.184314 0.000000
0.576471 0.196078 0.000000
0.607843 0.207843 0.000000
0.639216 0.223529 0.000000
0.678431 0.231373 0.000000
0.705882 0.243137 0.000000
0.737255 0.250980 0.000000
0.764706 0.258824 0.000000
0.792157 0.270588 0.000000
0.823529 0.274510 0.000000
0.843137 0.286275 0.000000
0.866667 0.298039 0.023529
0.882353 0.301961 0.047059
0.901961 0.313725 0.070588
0.917647 0.321569 0.082353
0.933333 0.329412 0.090196
0.952941 0.333333 0.086275
0.964706 0.337255 0.086275
0.976471 0.341176 0.086275
0.984314 0.345098 0.078431
1.000000 0.349020 0.070588
1.000000 0.364706 0.094118
1.000000 0.376471 0.109804
1.000000 0.388235 0.121569
1.000000 0.396078 0.137255
1.000000 0.407843 0.149020
1.000000 0.423529 0.172549
1.000000 0.431373 0.188235
1.000000 0.439216 0.211765
1.000000 0.450980 0.227451
1.000000 0.454902 0.254902
1.000000 0.462745 0.278431
1.000000 0.466667 0.286275
1.000000 0.462745 0.294118
1.000000 0.462745 0.301961
1.000000 0.494118 0.333333
0.039216 0.007843 0.000000
0.027451 0.007843 0.000000
0.031373 0.007843 0.000000
0.035294 0.011765 0.000000
0.039216 0.011765 0.000000
0.043137 0.011765 0.000000
0.047059 0.011765 0.000000
0.050980 0.015686 0.000000
0.054902 0.015686 0.000000
0.066667 0.015686 0.000000
0.078431 0.019608 0.000000
0.094118 0.019608 0.000000
0.105882 0.023529 0.000000
0.125490 0.027451 0.000000
0.152941 0.035294 0.000000
0.172549 0.039216 0.000000
0.196078 0.047059 0.000000
0.219608 0.058824 0.000000
0.250980 0.070588 0.000000
0.278431 0.078431 0.000000
0.301961 0.090196 0.000000
0.333333 0.105882 0.000000
0.364706 0.117647 0.000000
0.392157 0.133333 0.000000
0.419608 0.145098 0.000000
0.447059 0.152941 0.000000
0.482353 0.168627 0.000000
0.513725 0.180392 0.000000
0.545098 0.188235 0.000000
0.576471 0.200000 0.000000
0.607843 0.215686 0.000000
0.639216 0.227451 0.000000
0.674510 0.235294 0.000000
0.705882 0.247059 0.000000
0.737255 0.258824 0.000000
0.764706 0.266667 0.000000
0.796078 0.274510 0.000000
0.823529 0.282353 0.000000
0.843137 0.290196 0.000000
0.866667 0.301961 0.023529
0.882353 0.309804 0.047059
0.901961 0.313725 0.070588
0.917647 0.325490 0.086275
0.933333 0.333333 0.090196
0.952941 0.337255 0.086275
0.964706 0.341176 0.086275
0.976471 0.345098 0.078431
0.984314 0.349020 0.074510
1.000000 0.352941 0.066667
1.000000 0.368627 0.086275
1.000000 0.380392 0.109804
1.000000 0.392157 0.125490
1.000000 0.403922 0.137255
1.000000 0.411765 0.149020
1.000000 0.423529 0.168627
1.000000 0.435294 0.192157
1.000000 0.443137 0.211765
1.000000 0.450980 0.227451
1.000000 0.454902 0.254902
1.000000 0.466667 0.274510
1.000000 0.470588 0.282353
1.000000 0.466667 0.294118
1.000000 0.466667 0.301961
1.000000 0.498039 0.333333
0.043137 0.007843 0.000000
0.027451 0.011765 0.000000
0.031373 0.011765 0.000000
0.039216 0.011765 0.000000
0.039216 0.011765 0.000000
0.043137 0.015686 0.000000
0.050980 0.015686 0.000000
0.054902 0.015686 0.000000
0.058824 0.015686 0.000000
0.066667 0.019608 0.000000
0.082353 0.023529 0.000000
0.094118 0.023529 0.000000
0.109804 0.027451 0.000000
0.137255 0.035294 0.000000
0.156863 0.039216 0.000000
0.176471 0.043137 0.000000
0.196078 0.054902 0.000000
0.223529 0.066667 0.000000
0.254902 0.074510 0.000000
0.282353 0.086275 0.000000
0.309804 0.098039 0.000000
0.341176 0.113725 0.000000
0.368627 0.125490 0.000000
0.392157 0.137255 0.000000
0.419608 0.149020 0.000000
0.450980 0.160784 0.000000
0.482353 0.172549 0.000000
0.513725 0.184314 0.000000
0.549020 0.196078 0.000000
0.576471 0.207843 0.000000
0.611765 0.223529 0.000000
0.639216 0.235294 0.000000
0.678431 0.239216 0.000000
0.709804 0.254902 0.000000
0.737255 0.262745 0.000000
0.772549 0.270588 0.000000
0.796078 0.278431 0.000000
0.823529 0.286275 0.000000
0.847059 0.298039 0.003922
0.866667 0.305882 0.023529
0.886275 0.313725 0.047059
0.905882 0.317647 0.066667
0.917647 0.329412 0.082353
0.933333 0.337255 0.086275
0.952941 0.341176 0.086275
0.964706 0.345098 0.078431
0.976471 0.349020 0.078431
0.984314 0.352941 0.070588
1.000000 0.356863 0.062745
1.000000 0.368627 0.082353
1.000000 0.384314 0.105882
1.000000 0.396078 0.117647
1.000000 0.407843 0.133333
1.000000 0.419608 0.149020
1.000000 0.427451 0.168627
1.000000 0.439216 0.188235
1.000000 0.443137 0.207843
1.000000 0.454902 0.227451
1.000000 0.458824 0.254902
1.000000 0.466667 0.274510
1.000000 0.470588 0.282353
1.000000 0.470588 0.294118
1.000000 0.470588 0.298039
1.000000 0.501961 0.333333
0.047059 0.011765 0.000000
0.027451 0.011765 0.000000
0.035294 0.011765 0.000000
0.039216 0.015686 0.000000
0.043137 0.015686 0.000000
0.047059 0.015686 0.000000
0.050980 0.019608 0.000000
0.054902 0.019608 0.000000
0.058824 0.019608 0.000000
0.070588 0.023529 0.000000
0.086275 0.027451 0.000000
0.101961 0.031373 0.000000
0.117647 0.035294 0.000000
0.137255 0.039216 0.000000
0.156863 0.047059 0.000000
0.180392 0.050980 0.000000
0.200000 0.062745 0.000000
0.231373 0.070588 0.000000
0.258824 0.082353 0.000000
0.286275 0.094118 0.000000
0.313725 0.105882 0.000000
0.345098 0.121569 0.000000
0.372549 0.133333 0.000000
0.396078 0.141176 0.000000
0.423529 0.152941 0.000000
0.454902 0.164706 0.000000
0.486275 0.180392 0.000000
0.517647 0.184314 0.000000
0.549020 0.203922 0.000000
0.580392 0.211765 0.000000
0.611765 0.231373 0.000000
0.643137 0.239216 0.000000
0.678431 0.247059 0.000000
0.709804 0.258824 0.000000
0.741176 0.266667 0.000000
0.772549 0.278431 0.000000
0.796078 0.286275 0.000000
0.823529 0.290196 0.000000
0.847059 0.301961 0.000000
0.866667 0.309804 0.023529
0.886275 0.317647 0.047059
0.901961 0.325490 0.066667
0.917647 0.333333 0.082353
0.937255 0.341176 0.086275
0.949020 0.345098 0.082353
0.964706 0.349020 0.078431
0.976471 0.352941 0.070588
0.984314 0.356863 0.066667
1.000000 0.360784 0.062745
1.000000 0.376471 0.082353
1.000000 0.388235 0.098039
1.000000 0.400000 0.113725
1.000000 0.411765 0.133333
1.000000 0.423529 0.149020
1.000000 0.431373 0.168627
1.000000 0.443137 0.188235
1.000000 0.447059 0.203922
1.000000 0.454902 0.227451
1.000000 0.462745 0.250980
1.000000 0.470588 0.270588
1.000000 0.474510 0.282353
1.000000 0.474510 0.290196
1.000000 0.474510 0.294118
1.000000 0.505882 0.329412
0.047059 0.015686 0.000000
0.031373 0.015686 0.000000
0.035294 0.015686 0.000000
0.039216 0.019608 0.000000
0.043137 0.019608 0.000000
0.047059 0.019608 0.000000
0.050980 0.019608 0.000000
0.054902 0.019608 0.000000
0.062745 0.023529 0.000000
0.074510 0.027451 0.000000
0.090196 0.035294 0.000000
0.105882 0.035294 0.000000
0.121569 0.039216 0.000000
0.141176 0.047059 0.000000
0.160784 0.054902 0.000000
0.184314 0.058824 0.000000
0.203922 0.070588 0.000000
0.235294 0.078431 0.000000
0.262745 0.086275 0.000000
0.290196 0.101961 0.000000
0.321569 0.113725 0.000000
0.349020 0.125490 0.000000
0.376471 0.137255 0.000000
0.400000 0.149020 0.000000
0.427451 0.160784 0.000000
0.458824 0.172549 0.000000
0.494118 0.188235 0.000000
0.521569 0.192157 0.000000
0.552941 0.207843 0.000000
0.580392 0.219608 0.000000
0.615686 0.235294 0.000000
0.643137 0.243137 0.000000
0.678431 0.250980 0.000000
0.713725 0.262745 0.000000
0.745098 0.274510 0.000000
0.772549 0.282353 0.000000
0.796078 0.290196 0.000000
0.823529 0.298039 0.000000
0.847059 0.309804 0.000000
0.866667 0.317647 0.019608
0.886275 0.321569 0.047059
0.901961 0.329412 0.070588
0.917647 0.341176 0.082353
0.933333 0.345098 0.082353
0.949020 0.349020 0.078431
0.964706 0.352941 0.074510
0.976471 0.360784 0.070588
0.984314 0.364706 0.070588
1.000000 0.364706 0.054902
1.000000 0.376471 0.070588
1.000000 0.392157 0.094118
1.000000 0.403922 0.109804
1.000000 0.415686 0.129412
1.000000 0.423529 0.141176
1.000000 0.435294 0.168627
1.000000 0.443137 0.188235
1.000000 0.450980 0.203922
1.000000 0.458824 0.223529
1.000000 0.466667 0.250980
1.000000 0.478431 0.270588
1.000000 0.478431 0.282353
1.000000 0.478431 0.290196
1.000000 0.478431 0.294118
1.000000 0.513725 0.329412
0.054902 0.015686 0.000000
0.031373 0.019608 0.000000
0.035294 0.019608 0.000000
0.039216 0.023529 0.000000
0.043137 0.023529 0.000000
0.050980 0.027451 0.000000
0.054902 0.023529 0.000000
0.058824 0.023529 0.000000
0.066667 0.031373 0.000000
0.078431 0.035294 0.000000
0.098039 0.043137 0.000000
0.113725 0.043137 0.000000
0.129412 0.050980 0.000000
0.149020 0.054902 0.000000
0.168627 0.062745 0.000000
0.188235 0.070588 0.000000
0.215686 0.078431 0.000000
0.243137 0.082353 0.000000
0.266667 0.094118 0.000000
0.298039 0.109804 0.000000
0.321569 0.117647 0.000000
0.352941 0.133333 0.000000
0.384314 0.141176 0.000000
0.403922 0.152941 0.000000
0.435294 0.168627 0.000000
0.462745 0.180392 0.000000
0.498039 0.192157 0.000000
0.529412 0.200000 0.000000
0.552941 0.215686 0.000000
0.584314 0.227451 0.000000
0.619608 0.239216 0.000000
0.650980 0.250980 0.000000
0.682353 0.258824 0.000000
0.717647 0.270588 0.000000
0.745098 0.278431 0.000000
0.768627 0.290196 0.000000
0.800000 0.298039 0.000000
0.823529 0.301961 0.000000
0.850980 0.313725 0.003922
0.866667 0.321569 0.027451
0.886275 0.329412 0.047059
0.901961 0.337255 0.066667
0.917647 0.345098 0.082353
0.933333 0.349020 0.082353
0.949020 0.352941 0.074510
0.964706 0.356863 0.070588
0.976471 0.364706 0.062745
0.988235 0.364706 0.058824
1.000000 0.368627 0.050980
1.000000 0.380392 0.070588
1.000000 0.396078 0.090196
1.000000 0.407843 0.105882
1.000000 0.419608 0.125490
1.000000 0.431373 0.145098
1.000000 0.439216 0.168627
1.000000 0.447059 0.180392
1.000000 0.454902 0.200000
1.000000 0.462745 0.223529
1.000000 0.474510 0.250980
1.000000 0.482353 0.270588
1.000000 0.486275 0.282353
1.000000 0.482353 0.286275
1.000000 0.482353 0.294118
1.000000 0.513725 0.325490
0.054902 0.019608 0.000000
0.031373 0.023529 0.000000
0.035294 0.023529 0.000000
0.039216 0.027451 0.000000
0.043137 0.031373 0.000000
0.047059 0.031373 0.000000
0.054902 0.031373 0.000000
0.062745 0.031373 0.000000
0.074510 0.039216 0.000000
0.086275 0.043137 0.000000
0.101961 0.047059 0.000000
0.121569 0.054902 0.000000
0.137255 0.062745 0.000000
0.160784 0.066667 0.000000
0.180392 0.074510 0.000000
0.200000 0.082353 0.000000
0.227451 0.086275 0.000000
0.250980 0.094118 0.000000
0.278431 0.105882 0.000000
0.305882 0.117647 0.000000
0.329412 0.129412 0.000000
0.360784 0.141176 0.000000
0.392157 0.149020 0.000000
0.411765 0.164706 0.000000
0.439216 0.176471 0.000000
0.470588 0.188235 0.000000
0.501961 0.200000 0.000000
0.533333 0.211765 0.000000
0.556863 0.223529 0.000000
0.588235 0.235294 0.000000
0.623529 0.247059 0.000000
0.654902 0.254902 0.000000
0.686275 0.266667 0.000000
0.717647 0.274510 0.000000
0.745098 0.286275 0.000000
0.768627 0.298039 0.000000
0.800000 0.301961 0.000000
0.827451 0.309804 0.000000
0.850980 0.321569 0.003922
0.870588 0.329412 0.027451
0.886275 0.333333 0.043137
0.901961 0.341176 0.066667
0.917647 0.349020 0.078431
0.933333 0.352941 0.078431
0.949020 0.356863 0.074510
0.964706 0.364706 0.066667
0.976471 0.368627 0.062745
0.988235 0.368627 0.058824
1.000000 0.376471 0.050980
1.000000 0.384314 0.062745
1.000000 0.400000 0.086275
1.000000 0.411765 0.098039
1.000000 0.423529 0.121569
1.000000 0.435294 0.141176
1.000000 0.443137 0.164706
1.000000 0.450980 0.180392
1.000000 0.458824 0.200000
1.000000 0.466667 0.223529
1.000000 0.474510 0.247059
1.000000 0.486275 0.270588
1.000000 0.486275 0.278431
1.000000 0.486275 0.286275
1.000000 0.486275 0.290196
1.000000 0.517647 0.325490
0.058824 0.027451 0.000000
0.031373 0.023529 0.000000
0.035294 0.027451 0.000000
0.039216 0.035294 0.000000
0.039216 0.035294 0.000000
0.039216 0.039216 0.000000
0.054902 0.043137 0.000000
0.066667 0.043137 0.000000
0.078431 0.047059 0.000000
0.090196 0.050980 0.000000
0.109804 0.054902 0.000000
0.125490 0.062745 0.000000
0.149020 0.070588 0.000000
0.168627 0.078431 0.000000
0.192157 0.086275 0.000000
0.211765 0.094118 0.000000
0.235294 0.098039 0.000000
0.262745 0.109804 0.000000
0.290196 0.117647 0.000000
0.313725 0.125490 0.000000
0.337255 0.141176 0.000000
0.368627 0.149020 0.000000
0.400000 0.156863 0.000000
0.423529 0.172549 0.000000
0.443137 0.184314 0.000000
0.474510 0.196078 0.000000
0.505882 0.203922 0.000000
0.537255 0.219608 0.000000
0.560784 0.231373 0.000000
0.592157 0.243137 0.000000
0.623529 0.254902 0.000000
0.654902 0.262745 0.000000
0.686275 0.270588 0.000000
0.713725 0.282353 0.000000
0.741176 0.290196 0.000000
0.772549 0.301961 0.000000
0.796078 0.305882 0.000000
0.823529 0.313725 0.000000
0.847059 0.321569 0.000000
0.866667 0.329412 0.007843
0.882353 0.333333 0.023529
0.898039 0.341176 0.043137
0.909804 0.345098 0.058824
0.925490 0.352941 0.058824
0.945098 0.356863 0.054902
0.956863 0.360784 0.043137
0.968627 0.364706 0.035294
0.980392 0.364706 0.027451
0.988235 0.372549 0.007843
1.000000 0.376471 0.000000
1.000000 0.392157 0.039216
1.000000 0.403922 0.070588
1.000000 0.407843 0.090196
1.000000 0.423529 0.109804
1.000000 0.431373 0.129412
1.000000 0.439216 0.145098
1.000000 0.450980 0.180392
1.000000 0.462745 0.211765
1.000000 0.474510 0.235294
1.000000 0.482353 0.258824
1.000000 0.486275 0.274510
1.000000 0.490196 0.290196
1.000000 0.494118 0.298039
1.000000 0.494118 0.301961
0.019608 0.035294 0.003922
0.023529 0.039216 0.003922
0.027451 0.039216 0.003922
0.027451 0.043137 0.003922
0.031373 0.050980 0.007843
0.039216 0.058824 0.007843
0.050980 0.062745 0.007843
0.070588 0.066667 0.000000
0.090196 0.066667 0.000000
0.105882 0.070588 0.000000
0.125490 0.070588 0.000000
0.141176 0.078431 0.000000
0.160784 0.086275 0.000000
0.180392 0.094118 0.000000
0.211765 0.101961 0.000000
0.231373 0.105882 0.000000
0.254902 0.113725 0.000000
0.282353 0.121569 0.000000
0.301961 0.129412 0.000000
0.329412 0.141176 0.000000
0.349020 0.152941 0.000000
0.392157 0.156863 0.000000
0.411765 0.168627 0.000000
0.435294 0.180392 0.000000
0.458824 0.192157 0.000000
0.490196 0.203922 0.000000
0.521569 0.215686 0.000000
0.549020 0.231373 0.000000
0.576471 0.239216 0.000000
0.607843 0.254902 0.000000
0.639216 0.262745 0.000000
0.666667 0.270588 0.000000
0.698039 0.282353 0.000000
0.729412 0.290196 0.000000
0.756863 0.301961 0.000000
0.784314 0.309804 0.000000
0.811765 0.317647 0.000000
0.835294 0.325490 0.003922
0.854902 0.333333 0.027451
0.874510 0.341176 0.047059
0.890196 0.345098 0.066667
0.905882 0.352941 0.078431
0.921569 0.360784 0.086275
0.937255 0.364706 0.082353
0.952941 0.368627 0.082353
0.968627 0.376471 0.074510
0.976471 0.376471 0.070588
0.988235 0.380392 0.066667
0.996078 0.388235 0.054902
1.000000 0.396078 0.062745
1.000000 0.411765 0.082353
1.000000 0.419608 0.101961
1.000000 0.427451 0.117647
1.000000 0.443137 0.145098
1.000000 0.450980 0.160784
1.000000 0.458824 0.180392
1.000000 0.470588 0.207843
1.000000 0.478431 0.227451
1.000000 0.486275 0.247059
1.000000 0.494118 0.270588
1.000000 0.498039 0.282353
1.000000 0.498039 0.294118
1.000000 0.498039 0.298039
1.000000 0.529412 0.329412
0.066667 0.043137 0.007843
0.023529 0.039216 0.007843
0.035294 0.047059 0.007843
0.035294 0.050980 0.007843
0.035294 0.058824 0.011765
0.035294 0.066667 0.015686
0.039216 0.074510 0.019608
0.054902 0.078431 0.015686
0.082353 0.078431 0.003922
0.109804 0.082353 0.000000
0.125490 0.086275 0.000000
0.145098 0.094118 0.000000
0.164706 0.101961 0.000000
0.192157 0.101961 0.000000
0.215686 0.109804 0.000000
0.239216 0.117647 0.000000
0.266667 0.129412 0.000000
0.290196 0.137255 0.000000
0.313725 0.145098 0.000000
0.337255 0.156863 0.000000
0.364706 0.160784 0.000000
0.392157 0.172549 0.000000
0.415686 0.180392 0.000000
0.439216 0.196078 0.000000
0.466667 0.203922 0.000000
0.494118 0.215686 0.000000
0.525490 0.227451 0.000000
0.549020 0.239216 0.000000
0.576471 0.247059 0.000000
0.611765 0.262745 0.000000
0.639216 0.270588 0.000000
0.670588 0.278431 0.000000
0.705882 0.290196 0.000000
0.733333 0.301961 0.000000
0.760784 0.309804 0.000000
0.788235 0.317647 0.000000
0.815686 0.325490 0.000000
0.835294 0.333333 0.007843
0.854902 0.341176 0.031373
0.874510 0.349020 0.047059
0.894118 0.352941 0.070588
0.905882 0.356863 0.082353
0.921569 0.364706 0.086275
0.937255 0.368627 0.078431
0.956863 0.372549 0.074510
0.968627 0.380392 0.066667
0.976471 0.380392 0.066667
0.984314 0.384314 0.054902
0.996078 0.392157 0.039216
1.000000 0.403922 0.066667
1.000000 0.415686 0.078431
1.000000 0.423529 0.098039
1.000000 0.435294 0.113725
1.000000 0.447059 0.141176
1.000000 0.454902 0.160784
1.000000 0.466667 0.184314
1.000000 0.474510 0.207843
1.000000 0.482353 0.227451
1.000000 0.490196 0.247059
1.000000 0.498039 0.270588
1.000000 0.501961 0.282353
1.000000 0.501961 0.294118
1.000000 0.501961 0.298039
1.000000 0.533333 0.329412
0.070588 0.054902 0.007843
0.023529 0.047059 0.007843
0.031373 0.054902 0.011765
0.035294 0.058824 0.015686
0.035294 0.062745 0.015686
0.031373 0.074510 0.019608
0.031373 0.082353 0.023529
0.047059 0.090196 0.019608
0.070588 0.094118 0.015686
0.094118 0.094118 0.007843
0.121569 0.101961 0.000000
0.149020 0.105882 0.000000
0.172549 0.109804 0.000000
0.192157 0.121569 0.000000
0.219608 0.125490 0.000000
0.247059 0.133333 0.000000
0.266667 0.145098 0.000000
0.294118 0.156863 0.000000
0.317647 0.164706 0.000000
0.349020 0.172549 0.000000
0.376471 0.180392 0.000000
0.407843 0.188235 0.000000
0.431373 0.196078 0.000000
0.450980 0.207843 0.000000
0.474510 0.223529 0.000000
0.501961 0.231373 0.000000
0.529412 0.239216 0.000000
0.560784 0.250980 0.000000
0.588235 0.258824 0.000000
0.619608 0.266667 0.000000
0.647059 0.282353 0.000000
0.678431 0.290196 0.000000
0.713725 0.301961 0.000000
0.741176 0.313725 0.000000
0.768627 0.317647 0.000000
0.796078 0.325490 0.000000
0.819608 0.333333 0.000000
0.839216 0.341176 0.015686
0.858824 0.349020 0.031373
0.878431 0.356863 0.054902
0.894118 0.360784 0.070588
0.909804 0.364706 0.082353
0.925490 0.372549 0.082353
0.937255 0.376471 0.074510
0.956863 0.380392 0.070588
0.968627 0.384314 0.058824
0.976471 0.388235 0.058824
0.980392 0.392157 0.047059
1.000000 0.396078 0.035294
1.000000 0.407843 0.058824
1.000000 0.419608 0.070588
1.000000 0.431373 0.094118
1.000000 0.443137 0.113725
1.000000 0.450980 0.137255
1.000000 0.462745 0.160784
1.000000 0.470588 0.188235
1.000000 0.478431 0.203922
1.000000 0.486275 0.219608
1.000000 0.494118 0.243137
1.000000 0.501961 0.266667
1.000000 0.501961 0.278431
1.000000 0.505882 0.294118
1.000000 0.505882 0.298039
1.000000 0.537255 0.325490
0.074510 0.062745 0.015686
0.019608 0.054902 0.011765
0.031373 0.062745 0.015686
0.035294 0.066667 0.019608
0.031373 0.070588 0.019608
0.027451 0.082353 0.023529
0.027451 0.090196 0.027451
0.039216 0.105882 0.027451
0.058824 0.109804 0.031373
0.086275 0.113725 0.027451
0.117647 0.117647 0.011765
0.156863 0.121569 0.000000
0.176471 0.125490 0.000000
0.196078 0.137255 0.000000
0.227451 0.141176 0.000000
0.250980 0.149020 0.000000
0.270588 0.160784 0.000000
0.301961 0.172549 0.000000
0.341176 0.180392 0.000000
0.360784 0.192157 0.000000
0.388235 0.200000 0.000000
0.419608 0.207843 0.000000
0.439216 0.215686 0.000000
0.462745 0.227451 0.000000
0.486275 0.235294 0.000000
0.513725 0.243137 0.000000
0.541176 0.254902 0.000000
0.568627 0.266667 0.000000
0.600000 0.274510 0.000000
0.627451 0.282353 0.000000
0.654902 0.294118 0.000000
0.690196 0.301961 0.000000
0.721569 0.313725 0.000000
0.749020 0.321569 0.000000
0.772549 0.329412 0.000000
0.800000 0.333333 0.000000
0.819608 0.341176 0.000000
0.839216 0.349020 0.011765
0.858824 0.356863 0.035294
0.878431 0.364706 0.058824
0.898039 0.368627 0.074510
0.909804 0.372549 0.082353
0.925490 0.376471 0.074510
0.941176 0.380392 0.070588
0.956863 0.388235 0.062745
0.968627 0.392157 0.062745
0.972549 0.396078 0.050980
0.984314 0.400000 0.043137
1.000000 0.403922 0.035294
1.000000 0.411765 0.054902
1.000000 0.427451 0.070588
1.000000 0.435294 0.090196
1.000000 0.447059 0.117647
1.000000 0.458824 0.137255
1.000000 0.466667 0.164706
1.000000 0.474510 0.184314
1.000000 0.482353 0.200000
1.000000 0.494118 0.215686
1.000000 0.498039 0.243137
1.000000 0.501961 0.262745
1.000000 0.505882 0.274510
1.000000 0.505882 0.290196
1.000000 0.509804 0.298039
1.000000 0.541176 0.325490
0.078431 0.074510 0.019608
0.019608 0.066667 0.019608
0.031373 0.070588 0.023529
0.031373 0.074510 0.023529
0.027451 0.078431 0.027451
0.027451 0.094118 0.031373
0.027451 0.098039 0.035294
0.035294 0.113725 0.039216
0.050980 0.125490 0.043137
0.070588 0.129412 0.043137
0.105882 0.137255 0.035294
0.141176 0.145098 0.015686
0.176471 0.145098 0.000000
0.207843 0.152941 0.000000
0.235294 0.156863 0.000000
0.258824 0.164706 0.000000
0.282353 0.176471 0.000000
0.309804 0.188235 0.000000
0.337255 0.196078 0.000000
0.368627 0.207843 0.000000
0.400000 0.219608 0.000000
0.427451 0.227451 0.000000
0.454902 0.235294 0.000000
0.478431 0.243137 0.000000
0.501961 0.254902 0.000000
0.529412 0.262745 0.000000
0.556863 0.274510 0.000000
0.588235 0.282353 0.000000
0.615686 0.290196 0.000000
0.639216 0.298039 0.000000
0.666667 0.305882 0.000000
0.698039 0.317647 0.000000
0.729412 0.325490 0.000000
0.756863 0.333333 0.000000
0.780392 0.337255 0.000000
0.800000 0.345098 0.000000
0.823529 0.352941 0.000000
0.843137 0.360784 0.019608
0.862745 0.368627 0.039216
0.882353 0.372549 0.062745
0.898039 0.376471 0.074510
0.917647 0.384314 0.074510
0.925490 0.384314 0.070588
0.945098 0.392157 0.062745
0.956863 0.396078 0.058824
0.964706 0.400000 0.050980
0.976471 0.400000 0.047059
0.988235 0.403922 0.031373
1.000000 0.407843 0.027451
1.000000 0.419608 0.043137
1.000000 0.431373 0.066667
1.000000 0.443137 0.090196
1.000000 0.454902 0.113725
1.000000 0.462745 0.137255
1.000000 0.474510 0.168627
1.000000 0.478431 0.176471
1.000000 0.486275 0.192157
1.000000 0.498039 0.215686
1.000000 0.501961 0.247059
1.000000 0.509804 0.262745
1.000000 0.509804 0.278431
1.000000 0.513725 0.290196
1.000000 0.513725 0.294118
1.000000 0.545098 0.321569
0.082353 0.086275 0.023529
0.015686 0.074510 0.023529
0.027451 0.082353 0.027451
0.031373 0.086275 0.031373
0.031373 0.090196 0.035294
0.027451 0.098039 0.039216
0.027451 0.105882 0.043137
0.031373 0.121569 0.047059
0.047059 0.137255 0.050980
0.066667 0.152941 0.054902
0.090196 0.156863 0.058824
0.121569 0.156863 0.047059
0.164706 0.164706 0.019608
0.215686 0.164706 0.000000
0.239216 0.176471 0.000000
0.262745 0.188235 0.000000
0.286275 0.196078 0.000000
0.317647 0.207843 0.000000
0.345098 0.215686 0.000000
0.376471 0.227451 0.000000
0.403922 0.239216 0.000000
0.435294 0.250980 0.000000
0.462745 0.258824 0.000000
0.494118 0.266667 0.000000
0.517647 0.274510 0.000000
0.541176 0.282353 0.000000
0.572549 0.290196 0.000000
0.600000 0.298039 0.000000
0.627451 0.305882 0.000000
0.650980 0.313725 0.000000
0.678431 0.321569 0.000000
0.709804 0.329412 0.000000
0.737255 0.337255 0.000000
0.760784 0.345098 0.000000
0.784314 0.352941 0.000000
0.803922 0.356863 0.000000
0.827451 0.364706 0.000000
0.850980 0.368627 0.023529
0.866667 0.376471 0.047059
0.882353 0.380392 0.062745
0.898039 0.384314 0.074510
0.917647 0.392157 0.070588
0.929412 0.396078 0.066667
0.945098 0.400000 0.062745
0.956863 0.403922 0.054902
0.968627 0.407843 0.047059
0.976471 0.407843 0.035294
0.988235 0.411765 0.019608
1.000000 0.415686 0.011765
1.000000 0.427451 0.043137
1.000000 0.439216 0.066667
1.000000 0.450980 0.090196
1.000000 0.458824 0.113725
1.000000 0.470588 0.141176
1.000000 0.474510 0.156863
