luts/UP-SuperPortra.cube
TITLE "UP-SuperPortra"
LUT_3D_SIZE 4
0.015686 0.007843 0.000000
0.329412 0.098039 0.000000
0.917647 0.321569 0.082353
1.000000 0.494118 0.333333
0.168627 0.227451 0.121569
0.447059 0.454902 0.156863
0.949020 0.498039 0.031373
1.000000 0.588235 0.305882
0.407843 0.717647 0.568627
0.505882 0.752941 0.615686
0.807843 0.792157 0.435294
0.996078 0.737255 0.450980
0.572549 0.890196 0.737255
0.674510 0.898039 0.764706
0.647059 0.898039 0.749020
0.894118 0.894118 0.623529
0.047059 0.050980 0.156863
0.501961 0.250980 0.407843
0.909804 0.321569 0.274510
1.000000 0.450980 0.450980
0.192157 0.376471 0.250980
0.564706 0.552941 0.423529
0.984314 0.443137 0.164706
1.000000 0.533333 0.388235
0.341176 0.756863 0.635294
0.462745 0.772549 0.678431
0.819608 0.792157 0.498039
0.988235 0.741176 0.513725
0.498039 0.898039 0.760784
0.643137 0.913725 0.792157
0.678431 0.901961 0.784314
0.898039 0.898039 0.666667
0.270588 0.286275 0.709804
0.533333 0.337255 0.815686
0.945098 0.501961 0.835294
0.996078 0.572549 0.725490
0.372549 0.498039 0.682353
0.498039 0.529412 0.749020
0.909804 0.619608 0.815686
0.980392 0.607843 0.694118
0.313725 0.792157 0.701961
0.411765 0.811765 0.717647
0.819608 0.796078 0.741176
0.972549 0.709804 0.623529
0.356863 0.905882 0.776471
0.549020 0.909804 0.792157
0.705882 0.901961 0.807843
0.901961 0.894118 0.725490
0.505882 0.505882 0.874510
0.619608 0.505882 0.905882
0.839216 0.517647 0.917647
0.964706 0.607843 0.913725
0.533333 0.611765 0.850980
0.600000 0.611765 0.878431
0.819608 0.627451 0.901961
0.952941 0.666667 0.901961
0.537255 0.756863 0.839216
0.596078 0.756863 0.839216
0.780392 0.776471 0.866667
0.956863 0.788235 0.894118
0.443137 0.886275 0.854902
0.494118 0.890196 0.850980
0.627451 0.898039 0.862745
0.905882 0.890196 0.874510
