luts/UP-SuperPortra.cube
TITLE "UP-SuperPortra"
LUT_3D_SIZE 8
0.015686 0.007843 0.000000
0.062745 0.011765 0.000000
0.247059 0.066667 0.000000
0.513725 0.176471 0.000000
0.792157 0.270588 0.000000
0.964706 0.337255 0.086275
1.000000 0.423529 0.172549
1.000000 0.494118 0.333333
0.066667 0.043137 0.007843
0.109804 0.082353 0.000000
0.313725 0.145098 0.000000
0.549020 0.239216 0.000000
0.815686 0.325490 0.000000
0.968627 0.380392 0.066667
1.000000 0.454902 0.160784
1.000000 0.533333 0.329412
0.133333 0.168627 0.082353
0.070588 0.215686 0.113725
0.356863 0.349020 0.086275
0.639216 0.415686 0.000000
0.854902 0.447059 0.090196
0.976471 0.462745 0.031373
1.000000 0.513725 0.168627
1.000000 0.572549 0.317647
0.231373 0.380392 0.235294
0.168627 0.388235 0.266667
0.203922 0.505882 0.290196
0.611765 0.615686 0.274510
0.843137 0.615686 0.196078
0.960784 0.592157 0.160784
1.000000 0.600000 0.235294
1.000000 0.627451 0.325490
0.301961 0.603922 0.458824
0.309804 0.623529 0.486275
0.368627 0.670588 0.517647
0.384314 0.705882 0.447059
0.760784 0.749020 0.356863
0.905882 0.717647 0.356863
0.984314 0.698039 0.352941
1.000000 0.701961 0.400000
0.443137 0.749020 0.600000
0.462745 0.752941 0.615686
0.521569 0.764706 0.635294
0.541176 0.784314 0.627451
0.552941 0.796078 0.541176
0.831373 0.807843 0.466667
0.929412 0.784314 0.482353
0.980392 0.760784 0.470588
0.509804 0.811765 0.666667
0.568627 0.823529 0.686275
0.600000 0.823529 0.694118
0.623529 0.831373 0.698039
0.619608 0.831373 0.674510
0.666667 0.835294 0.603922
0.870588 0.850980 0.556863
0.937255 0.823529 0.545098
0.572549 0.890196 0.737255
0.674510 0.905882 0.768627
0.674510 0.898039 0.764706
0.670588 0.890196 0.756863
0.662745 0.890196 0.749020
0.639216 0.901961 0.749020
0.729412 0.894118 0.709804
0.894118 0.894118 0.623529
0.000000 0.000000 0.000000
0.098039 0.007843 0.039216
0.301961 0.074510 0.019608
0.568627 0.192157 0.000000
0.815686 0.278431 0.015686
0.964706 0.337255 0.066667
1.000000 0.403922 0.215686
1.000000 0.454902 0.352941
0.078431 0.062745 0.031373
0.149020 0.113725 0.039216
0.376471 0.145098 0.000000
0.600000 0.239216 0.000000
0.835294 0.317647 0.000000
0.972549 0.368627 0.035294
1.000000 0.443137 0.219608
1.000000 0.513725 0.356863
0.160784 0.200000 0.121569
0.094118 0.203922 0.141176
0.388235 0.376471 0.125490
0.678431 0.411765 0.000000
0.870588 0.431373 0.066667
0.980392 0.443137 0.074510
1.000000 0.505882 0.215686
1.000000 0.549020 0.345098
0.247059 0.407843 0.274510
0.164706 0.419608 0.309804
0.215686 0.509804 0.325490
0.623529 0.623529 0.282353
0.858824 0.607843 0.211765
0.968627 0.584314 0.168627
1.000000 0.592157 0.262745
1.000000 0.619608 0.356863
0.301961 0.627451 0.494118
0.262745 0.643137 0.517647
0.388235 0.678431 0.560784
0.403922 0.705882 0.474510
0.768627 0.752941 0.380392
0.913725 0.717647 0.388235
0.992157 0.698039 0.384314
1.000000 0.698039 0.435294
0.431373 0.756863 0.619608
0.427451 0.760784 0.631373
0.498039 0.772549 0.654902
0.568627 0.788235 0.662745
0.568627 0.796078 0.564706
0.835294 0.807843 0.501961
0.933333 0.784314 0.513725
0.980392 0.764706 0.501961
0.482353 0.823529 0.686275
0.537255 0.831373 0.698039
0.584314 0.831373 0.709804
0.639216 0.835294 0.721569
0.635294 0.835294 0.694118
0.674510 0.835294 0.627451
0.874510 0.854902 0.584314
0.937255 0.823529 0.572549
0.549020 0.894118 0.749020
0.647059 0.909804 0.776471
0.658824 0.905882 0.780392
0.662745 0.898039 0.776471
0.666667 0.898039 0.768627
0.650980 0.909804 0.764706
0.737255 0.894118 0.725490
0.898039 0.898039 0.647059
0.027451 0.023529 0.109804
0.145098 0.058824 0.200000
0.372549 0.188235 0.274510
0.607843 0.215686 0.196078
0.815686 0.278431 0.168627
0.960784 0.329412 0.207843
1.000000 0.392157 0.298039
1.000000 0.450980 0.419608
0.121569 0.105882 0.129412
0.109804 0.113725 0.176471
0.411765 0.235294 0.290196
0.654902 0.247059 0.141176
0.847059 0.313725 0.121569
0.976471 0.360784 0.180392
1.000000 0.439216 0.301961
1.000000 0.501961 0.407843
0.180392 0.282353 0.180392
0.113725 0.321569 0.203922
0.470588 0.450980 0.305882
0.745098 0.388235 0.054902
0.905882 0.403922 0.098039
1.000000 0.427451 0.156863
1.000000 0.509804 0.321569
1.000000 0.529412 0.376471
0.254902 0.474510 0.337255
0.196078 0.490196 0.368627
0.364706 0.564706 0.474510
0.670588 0.650980 0.313725
0.886275 0.600000 0.223529
0.988235 0.564706 0.207843
1.000000 0.588235 0.341176
1.000000 0.603922 0.396078
0.313725 0.662745 0.533333
0.184314 0.678431 0.556863
0.325490 0.698039 0.600000
0.513725 0.721569 0.568627
0.780392 0.760784 0.411765
0.917647 0.713725 0.411765
0.992157 0.690196 0.423529
1.000000 0.698039 0.462745
0.392157 0.772549 0.647059
0.392157 0.776471 0.654902
0.470588 0.788235 0.682353
0.572549 0.792157 0.690196
0.607843 0.788235 0.615686
0.839216 0.807843 0.525490
0.933333 0.784314 0.541176
0.976471 0.760784 0.521569
0.466667 0.831373 0.705882
0.505882 0.839216 0.713725
0.564706 0.843137 0.729412
0.615686 0.839216 0.737255
0.662745 0.839216 0.721569
0.682353 0.831373 0.654902
0.874510 0.854902 0.600000
0.933333 0.827451 0.600000
0.517647 0.894118 0.760784
0.627451 0.917647 0.788235
0.643137 0.909804 0.788235
0.654902 0.898039 0.784314
0.670588 0.898039 0.780392
0.666667 0.909804 0.776471
0.733333 0.894118 0.745098
0.898039 0.898039 0.662745
0.113725 0.113725 0.305882
0.227451 0.133333 0.474510
0.486275 0.215686 0.615686
0.764706 0.329412 0.670588
0.850980 0.403922 0.564706
0.968627 0.329412 0.462745
1.000000 0.388235 0.462745
1.000000 0.458824 0.513725
0.223529 0.188235 0.333333
0.164706 0.172549 0.403922
0.450980 0.278431 0.607843
0.772549 0.396078 0.678431
0.858824 0.419608 0.537255
0.960784 0.384314 0.447059
1.000000 0.443137 0.462745
1.000000 0.494118 0.509804
0.266667 0.345098 0.388235
0.176471 0.333333 0.403922
0.431373 0.462745 0.588235
0.737255 0.521569 0.647059
0.870588 0.435294 0.458824
0.984314 0.435294 0.368627
1.000000 0.501961 0.447059
1.000000 0.513725 0.466667
0.262745 0.560784 0.423529
0.200000 0.588235 0.458824
0.368627 0.662745 0.564706
0.701961 0.682353 0.600000
0.886275 0.584314 0.396078
0.992157 0.525490 0.298039
1.000000 0.560784 0.403922
1.000000 0.568627 0.423529
0.321569 0.701961 0.572549
0.184314 0.721569 0.596078
0.356863 0.733333 0.639216
0.600000 0.745098 0.682353
0.784314 0.760784 0.505882
0.929412 0.705882 0.423529
0.992157 0.682353 0.474510
1.000000 0.678431 0.466667
0.372549 0.784314 0.670588
0.356863 0.792157 0.678431
0.439216 0.803922 0.701961
0.564706 0.796078 0.721569
0.662745 0.800000 0.694118
0.839216 0.811765 0.549020
0.933333 0.780392 0.552941
0.968627 0.764706 0.537255
0.450980 0.839216 0.717647
0.474510 0.847059 0.733333
0.545098 0.850980 0.749020
0.600000 0.847059 0.752941
0.686275 0.839216 0.745098
0.705882 0.827451 0.701961
0.878431 0.850980 0.615686
0.929412 0.827451 0.615686
0.458824 0.898039 0.768627
0.584314 0.917647 0.776471
0.619608 0.917647 0.784314
0.623529 0.909804 0.788235
0.666667 0.890196 0.788235
0.694118 0.901961 0.788235
0.725490 0.898039 0.772549
0.901961 0.898039 0.678431
0.203922 0.211765 0.596078
0.298039 0.215686 0.674510
0.458824 0.266667 0.745098
0.749020 0.376471 0.800000
0.905882 0.443137 0.796078
0.941176 0.505882 0.725490
0.980392 0.537255 0.686275
1.000000 0.537255 0.654902
0.298039 0.294118 0.607843
0.247059 0.274510 0.650980
0.419608 0.317647 0.717647
0.733333 0.443137 0.800000
0.898039 0.501961 0.796078
0.929412 0.545098 0.721569
0.976471 0.564706 0.678431
1.000000 0.545098 0.631373
0.317647 0.411765 0.592157
0.203922 0.388235 0.611765
0.392157 0.439216 0.686275
0.705882 0.541176 0.772549
0.874510 0.568627 0.776471
0.925490 0.584314 0.701961
0.984314 0.568627 0.650980
1.000000 0.533333 0.596078
0.345098 0.576471 0.631373
0.258824 0.568627 0.635294
0.439216 0.607843 0.670588
0.686275 0.678431 0.741176
0.827451 0.674510 0.741176
0.917647 0.607843 0.658824
0.988235 0.568627 0.588235
1.000000 0.556863 0.549020
0.247059 0.737255 0.627451
0.145098 0.749020 0.635294
0.345098 0.764706 0.666667
0.600000 0.772549 0.717647
0.788235 0.760784 0.701961
0.905882 0.701961 0.615686
0.976471 0.662745 0.556863
1.000000 0.635294 0.517647
0.372549 0.803922 0.682353
0.333333 0.807843 0.690196
0.423529 0.807843 0.713725
0.568627 0.807843 0.733333
0.725490 0.807843 0.756863
0.835294 0.815686 0.650980
0.937255 0.772549 0.588235
0.968627 0.756863 0.541176
0.427451 0.847059 0.733333
0.439216 0.854902 0.741176
0.501961 0.854902 0.752941
0.580392 0.854902 0.764706
0.698039 0.847059 0.776471
0.752941 0.839216 0.756863
0.878431 0.850980 0.643137
0.925490 0.823529 0.623529
0.392157 0.905882 0.768627
0.525490 0.909804 0.776471
0.568627 0.913725 0.788235
0.603922 0.913725 0.784314
0.662745 0.905882 0.796078
0.729412 0.898039 0.803922
0.741176 0.901961 0.800000
0.901961 0.894118 0.690196
0.305882 0.325490 0.749020
0.376471 0.317647 0.772549
0.486275 0.341176 0.823529
0.678431 0.411765 0.850980
0.870588 0.486275 0.862745
0.956863 0.521569 0.847059
0.976471 0.556863 0.796078
0.996078 0.580392 0.756863
0.368627 0.396078 0.741176
0.341176 0.372549 0.752941
0.462745 0.396078 0.800000
0.662745 0.458824 0.839216
0.858824 0.533333 0.858824
0.945098 0.564706 0.843137
0.968627 0.596078 0.788235
0.988235 0.600000 0.745098
0.384314 0.486275 0.725490
0.337255 0.466667 0.737255
0.458824 0.494118 0.768627
0.647059 0.537255 0.815686
0.843137 0.584314 0.847059
0.937255 0.611765 0.839216
0.964706 0.639216 0.788235
0.972549 0.631373 0.733333
0.431373 0.596078 0.717647
0.384314 0.580392 0.709804
0.470588 0.600000 0.729412
0.635294 0.643137 0.784314
0.815686 0.678431 0.827451
0.909804 0.678431 0.819608
0.949020 0.674510 0.772549
0.972549 0.643137 0.717647
0.443137 0.705882 0.737255
0.403922 0.705882 0.737255
0.478431 0.717647 0.745098
0.635294 0.733333 0.764706
0.776471 0.760784 0.792157
0.866667 0.756863 0.792157
0.929412 0.717647 0.745098
0.976471 0.654902 0.670588
0.345098 0.807843 0.729412
0.309804 0.815686 0.729412
0.400000 0.823529 0.733333
0.517647 0.827451 0.749020
0.725490 0.827451 0.776471
0.835294 0.811765 0.760784
0.921569 0.772549 0.705882
0.956863 0.741176 0.666667
0.423529 0.854902 0.749020
0.396078 0.858824 0.741176
0.454902 0.858824 0.760784
0.541176 0.858824 0.776471
0.686275 0.854902 0.792157
0.800000 0.847059 0.807843
0.878431 0.850980 0.733333
0.925490 0.823529 0.686275
0.345098 0.909804 0.780392
0.470588 0.909804 0.784314
0.521569 0.909804 0.788235
0.568627 0.913725 0.796078
0.643137 0.909804 0.807843
0.745098 0.901961 0.819608
0.788235 0.901961 0.819608
0.905882 0.894118 0.745098
0.407843 0.427451 0.827451
0.458824 0.415686 0.835294
0.541176 0.427451 0.866667
0.650980 0.447059 0.882353
0.811765 0.498039 0.898039
0.933333 0.537255 0.894118
0.960784 0.564706 0.882353
0.980392 0.592157 0.839216
0.462745 0.486275 0.815686
0.443137 0.466667 0.815686
0.525490 0.482353 0.847059
0.635294 0.498039 0.866667
0.800000 0.541176 0.894118
0.921569 0.572549 0.894118
0.960784 0.603922 0.886275
0.972549 0.615686 0.831373
0.482353 0.552941 0.800000
0.454902 0.533333 0.800000
0.529412 0.545098 0.827451
0.627451 0.560784 0.847059
0.780392 0.584314 0.878431
0.913725 0.619608 0.886275
0.964706 0.647059 0.878431
0.968627 0.647059 0.823529
0.494118 0.623529 0.784314
0.458824 0.607843 0.784314
0.517647 0.619608 0.803922
0.619608 0.635294 0.831373
0.768627 0.666667 0.858824
0.886275 0.682353 0.874510
0.960784 0.690196 0.870588
0.960784 0.686275 0.819608
0.494118 0.701961 0.792157
0.490196 0.698039 0.784314
0.533333 0.705882 0.792157
0.627451 0.721569 0.796078
0.749020 0.741176 0.831373
0.870588 0.756863 0.858824
0.933333 0.760784 0.862745
0.952941 0.737255 0.807843
0.494118 0.780392 0.800000
0.462745 0.776471 0.796078
0.525490 0.784314 0.800000
0.603922 0.788235 0.803922
0.733333 0.800000 0.815686
0.835294 0.811765 0.827451
0.905882 0.811765 0.843137
0.937255 0.780392 0.796078
0.396078 0.854902 0.796078
0.376471 0.854902 0.788235
0.443137 0.858824 0.796078
0.509804 0.862745 0.803922
0.631373 0.866667 0.807843
0.784314 0.862745 0.827451
0.878431 0.854902 0.811765
0.933333 0.823529 0.772549
0.309804 0.913725 0.803922
0.419608 0.913725 0.803922
0.478431 0.913725 0.803922
0.525490 0.913725 0.811765
0.600000 0.913725 0.823529
0.729412 0.913725 0.835294
0.839216 0.901961 0.850980
0.905882 0.894118 0.811765
0.505882 0.505882 0.874510
0.537255 0.494118 0.882353
0.596078 0.498039 0.901961
0.654902 0.498039 0.909804
0.764706 0.505882 0.917647
0.878431 0.529412 0.921569
0.945098 0.564706 0.921569
0.964706 0.607843 0.913725
0.533333 0.549020 0.862745
0.529412 0.537255 0.866667
0.584314 0.545098 0.886275
0.647059 0.545098 0.901961
0.756863 0.552941 0.909804
0.870588 0.564706 0.913725
0.945098 0.607843 0.921569
0.956863 0.627451 0.909804
0.537255 0.596078 0.854902
0.529412 0.584314 0.854902
0.584314 0.592157 0.874510
0.650980 0.596078 0.890196
0.749020 0.603922 0.905882
0.858824 0.615686 0.909804
0.945098 0.647059 0.913725
0.952941 0.658824 0.901961
0.529412 0.650980 0.839216
0.533333 0.643137 0.839216
0.580392 0.647059 0.858824
0.635294 0.650980 0.870588
0.737255 0.658824 0.890196
0.843137 0.678431 0.901961
0.937255 0.690196 0.909804
0.952941 0.701961 0.901961
0.533333 0.713725 0.831373
0.541176 0.709804 0.827451
0.584314 0.713725 0.831373
0.631373 0.717647 0.850980
0.725490 0.733333 0.870588
0.827451 0.741176 0.890196
0.921569 0.756863 0.905882
0.956863 0.752941 0.898039
0.529412 0.772549 0.839216
0.541176 0.768627 0.835294
0.580392 0.772549 0.843137
0.635294 0.776471 0.839216
0.713725 0.788235 0.839216
0.807843 0.796078 0.870588
0.901961 0.811765 0.894118
0.949020 0.807843 0.890196
0.509804 0.827451 0.847059
0.513725 0.827451 0.843137
0.556863 0.827451 0.847059
0.600000 0.831373 0.850980
0.682353 0.835294 0.854902
0.784314 0.839216 0.854902
0.866667 0.850980 0.870588
0.933333 0.850980 0.882353
0.443137 0.886275 0.854902
0.447059 0.886275 0.847059
0.482353 0.890196 0.850980
0.521569 0.894118 0.854902
0.564706 0.901961 0.862745
0.670588 0.898039 0.862745
0.803922 0.905882 0.870588
0.905882 0.890196 0.874510
