luts/UPVintage.cube
#Created by: Pixelmator Pro
#Color profile: "sRGB IEC61966-2.1"
TITLE "UPVintage"
#Data domain
#LUT size
LUT_3D_SIZE 7
DOMAIN_MIN 0.000000 0.000000 0.000000
DOMAIN_MAX 0.882353 0.882353 0.882353
0.0752 0.0733 0.0720
0.1286 0.0719 0.0705
0.2196 0.0799 0.0785
0.3742 0.0955 0.0923
0.5690 0.1233 0.1126
0.7188 0.1741 0.1462
0.8065 0.2530 0.2000
0.0839 0.1129 0.0892
0.1399 0.1256 0.0970
0.2831 0.1281 0.0731
0.4442 0.1326 0.0780
0.6257 0.1502 0.0884
0.7491 0.1827 0.1061
0.8221 0.2663 0.1781
0.1072 0.1792 0.1211
0.1442 0.1936 0.1195
0.2722 0.2242 0.1381
0.4868 0.2522 0.1252
0.6895 0.2709 0.1067
0.7808 0.3106 0.1333
0.8446 0.3747 0.1778
0.1539 0.3021 0.1690
0.1712 0.3217 0.1676
0.2892 0.3550 0.1697
0.4919 0.4104 0.2208
0.6782 0.4701 0.2381
0.8068 0.5165 0.2390
0.8592 0.5600 0.2721
0.2416 0.4817 0.2554
0.2519 0.4979 0.2613
0.3450 0.5310 0.2537
0.5215 0.5802 0.2787
0.6896 0.6307 0.3828
0.7964 0.6736 0.4345
0.8642 0.6941 0.4365
0.3804 0.6636 0.3883
0.3908 0.6718 0.3947
0.4449 0.6931 0.3942
0.5810 0.7096 0.4054
0.7036 0.7372 0.4644
0.8053 0.7588 0.5603
0.8585 0.7802 0.5992
0.5326 0.7753 0.5450
0.5375 0.7791 0.5491
0.5503 0.7892 0.5571
0.6223 0.7983 0.5554
0.7244 0.8076 0.5675
0.8134 0.8209 0.6114
0.8634 0.8305 0.6789
0.0782 0.0858 0.1050
0.1329 0.0827 0.1240
0.2246 0.0812 0.1178
0.3661 0.0959 0.1224
0.5570 0.1252 0.1382
0.7136 0.1793 0.1707
0.8045 0.2585 0.2260
0.0892 0.1246 0.1093
0.1408 0.1345 0.1268
0.2611 0.1317 0.1199
0.4331 0.1312 0.1152
0.6281 0.1385 0.1155
0.7451 0.1887 0.1491
0.8198 0.2727 0.2106
0.1146 0.1900 0.1308
0.1446 0.2010 0.1447
0.2764 0.2359 0.1639
0.4964 0.2589 0.1518
0.6895 0.2744 0.1465
0.7809 0.3077 0.1638
0.8459 0.3717 0.2095
0.1591 0.3148 0.1774
0.1798 0.3288 0.1867
0.2908 0.3630 0.1947
0.4961 0.4216 0.2488
0.6814 0.4782 0.2650
0.8091 0.5234 0.2715
0.8589 0.5605 0.3077
0.2477 0.4924 0.2646
0.2581 0.5089 0.2704
0.3432 0.5375 0.2807
0.5233 0.5860 0.3041
0.6912 0.6361 0.4058
0.7978 0.6769 0.4542
0.8650 0.6964 0.4566
0.3865 0.6689 0.3968
0.3972 0.6769 0.4034
0.4444 0.6947 0.4175
0.5793 0.7120 0.4280
0.7044 0.7392 0.4824
0.8063 0.7611 0.5729
0.8589 0.7819 0.6085
0.5356 0.7778 0.5504
0.5404 0.7816 0.5543
0.5523 0.7912 0.5642
0.6222 0.7994 0.5686
0.7248 0.8088 0.5787
0.8139 0.8221 0.6205
0.8638 0.8317 0.6859
0.0909 0.1142 0.1537
0.1228 0.1038 0.2202
0.2441 0.1050 0.2185
0.4049 0.0982 0.2066
0.5661 0.1246 0.2092
0.7096 0.1765 0.2391
0.8013 0.2579 0.2933
0.1006 0.1387 0.1601
0.1206 0.1492 0.2035
0.2520 0.1500 0.2209
0.4141 0.1440 0.2067
0.6042 0.1406 0.1981
0.7333 0.1927 0.2257
0.8142 0.2825 0.2851
0.1244 0.2203 0.1739
0.1650 0.2369 0.1853
0.2820 0.2654 0.2371
0.4838 0.2682 0.2301
0.6571 0.2802 0.2331
0.7686 0.3153 0.2502
0.8405 0.3762 0.2936
0.1840 0.3444 0.2082
0.2139 0.3552 0.2258
0.2907 0.3885 0.2725
0.5055 0.4497 0.3217
0.6907 0.4963 0.3342
0.8069 0.5330 0.3536
0.8584 0.5609 0.3861
0.2639 0.5214 0.2911
0.2884 0.5307 0.3050
0.3499 0.5529 0.3456
0.5271 0.6001 0.3708
0.6959 0.6492 0.4635
0.8014 0.6852 0.5015
0.8676 0.7014 0.5049
0.4033 0.6826 0.4211
0.4139 0.6904 0.4279
0.4631 0.6999 0.4602
0.5745 0.7182 0.4856
0.7058 0.7448 0.5264
0.8085 0.7669 0.6043
0.8602 0.7863 0.6318
0.5433 0.7844 0.5647
0.5477 0.7881 0.5684
0.5670 0.7952 0.5817
0.6220 0.8024 0.6011
0.7239 0.8120 0.6077
0.8149 0.8253 0.6435
0.8646 0.8345 0.7034
0.1115 0.1561 0.2410
0.1192 0.1577 0.3144
0.2466 0.1380 0.3834
0.4319 0.1429 0.3807
0.6062 0.1471 0.3726
0.7291 0.1829 0.3831
0.8097 0.2612 0.4231
0.1205 0.1798 0.2454
0.1277 0.1902 0.3030
0.2443 0.1836 0.3805
0.4401 0.1860 0.3850
0.6140 0.1884 0.3768
0.7437 0.2015 0.3825
0.8188 0.2790 0.4196
0.1501 0.2488 0.2734
0.1602 0.2675 0.3037
0.2498 0.2985 0.3715
0.4671 0.3047 0.4003
0.6352 0.2992 0.3874
0.7556 0.3157 0.3879
0.8345 0.3721 0.4191
0.1996 0.3975 0.3012
0.2281 0.4164 0.3129
0.3403 0.4515 0.3519
0.5164 0.4949 0.4383
0.6943 0.5142 0.4457
0.7900 0.5341 0.4612
0.8510 0.5619 0.4867
0.3064 0.5607 0.3511
0.3341 0.5678 0.3682
0.4085 0.5888 0.4147
0.5293 0.6252 0.4877
0.7021 0.6689 0.5491
0.8076 0.6961 0.5687
0.8693 0.7091 0.5777
0.4365 0.7030 0.4677
0.4582 0.7053 0.4809
0.5078 0.7130 0.5139
0.5808 0.7281 0.5639
0.7078 0.7539 0.5914
0.8121 0.7773 0.6504
0.8626 0.7937 0.6687
0.5553 0.7955 0.5889
0.5639 0.7977 0.5942
0.5905 0.8011 0.6124
0.6341 0.8081 0.6409
0.7200 0.8181 0.6564
0.8165 0.8307 0.6816
0.8660 0.8399 0.7322
0.1441 0.2228 0.3651
0.1517 0.2289 0.4172
0.2184 0.2104 0.5483
0.4615 0.2000 0.5675
0.6330 0.2117 0.5694
0.7514 0.2188 0.5735
0.8270 0.2805 0.5880
0.1539 0.2484 0.3704
0.1615 0.2581 0.4177
0.2220 0.2570 0.5451
0.4630 0.2462 0.5700
0.6382 0.2557 0.5734
0.7544 0.2639 0.5768
0.8313 0.3161 0.5911
0.1857 0.3143 0.3867
0.1946 0.3309 0.4186
0.2346 0.3658 0.5366
0.4653 0.3609 0.5751
0.6527 0.3723 0.5850
0.7622 0.3848 0.5851
0.8362 0.4222 0.5972
0.2552 0.4395 0.4447
0.2675 0.4573 0.4663
0.3050 0.5081 0.5325
0.4844 0.5386 0.5830
0.6796 0.5497 0.6058
0.7790 0.5501 0.6014
0.8443 0.5635 0.6047
0.3350 0.6114 0.4840
0.3454 0.6263 0.4944
0.4306 0.6435 0.5197
0.5814 0.6697 0.5718
0.7082 0.6945 0.6373
0.8127 0.7048 0.6430
0.8616 0.7094 0.6505
0.4828 0.7264 0.5345
0.5019 0.7289 0.5461
0.5521 0.7356 0.5745
0.6264 0.7488 0.6199
0.7090 0.7687 0.6697
0.8162 0.7909 0.7052
0.8662 0.8029 0.7142
0.5811 0.8072 0.6279
0.5916 0.8081 0.6341
0.6188 0.8108 0.6499
0.6656 0.8165 0.6776
0.7240 0.8259 0.7135
0.8180 0.8378 0.7302
0.8679 0.8463 0.7668
0.1965 0.3226 0.5103
0.2048 0.3310 0.5478
0.2286 0.3364 0.6488
0.4300 0.3100 0.6929
0.6621 0.3061 0.7062
0.7697 0.3278 0.7099
0.8400 0.3565 0.7150
0.2085 0.3492 0.5170
0.2170 0.3593 0.5525
0.2404 0.3729 0.6470
0.4324 0.3541 0.6946
0.6648 0.3499 0.7086
0.7723 0.3710 0.7123
0.8410 0.3969 0.7162
0.2431 0.4158 0.5321
0.2518 0.4288 0.5619
0.2767 0.4590 0.6414
0.4404 0.4590 0.6966
0.6708 0.4580 0.7136
0.7791 0.4742 0.7176
0.8440 0.4946 0.7191
0.3127 0.5167 0.5670
0.3222 0.5295 0.5841
0.3497 0.5664 0.6347
0.4624 0.5928 0.6975
0.6753 0.5937 0.7195
0.7896 0.6056 0.7257
0.8493 0.6147 0.7252
0.4189 0.6452 0.6231
0.4303 0.6540 0.6334
0.4624 0.6765 0.6610
0.5468 0.7019 0.6964
0.6856 0.7163 0.7244
0.8046 0.7224 0.7388
0.8569 0.7196 0.7376
0.5132 0.7548 0.6489
0.5194 0.7603 0.6536
0.5545 0.7696 0.6647
0.6345 0.7788 0.6851
0.7382 0.7941 0.7201
0.8194 0.8066 0.7598
0.8698 0.8113 0.7642
0.5985 0.8227 0.6700
0.6095 0.8236 0.6758
0.6398 0.8255 0.6907
0.6912 0.8298 0.7168
0.7576 0.8368 0.7508
0.8179 0.8462 0.7825
0.8694 0.8540 0.8005
0.2740 0.4532 0.6427
0.2820 0.4614 0.6622
0.3000 0.4729 0.7124
0.3882 0.4401 0.7755
0.6405 0.4280 0.7876
0.7867 0.4445 0.7935
0.8487 0.4712 0.7964
0.2869 0.4765 0.6479
0.2949 0.4850 0.6663
0.3131 0.4993 0.7140
0.3944 0.4757 0.7759
0.6419 0.4642 0.7885
0.7880 0.4787 0.7946
0.8498 0.5020 0.7970
0.3229 0.5329 0.6592
0.3302 0.5412 0.6751
0.3491 0.5585 0.7174
0.4123 0.5537 0.7773
0.6449 0.5459 0.7900
0.7918 0.5553 0.7966
0.8520 0.5700 0.7991
0.3884 0.6105 0.6764
0.3967 0.6180 0.6883
0.4172 0.6342 0.7204
0.4528 0.6463 0.7770
0.6489 0.6407 0.7904
0.7974 0.6466 0.7998
0.8559 0.6557 0.8025
0.4904 0.6924 0.7061
0.4971 0.6975 0.7130
0.5142 0.7108 0.7319
0.5390 0.7319 0.7661
0.6575 0.7357 0.7868
0.8011 0.7376 0.8041
0.8605 0.7461 0.8082
0.5731 0.7756 0.7433
0.5772 0.7794 0.7480
0.5878 0.7890 0.7601
0.6050 0.8046 0.7811
0.6968 0.8106 0.7929
0.8036 0.8177 0.8094
0.8651 0.8216 0.8166
0.6153 0.8376 0.7629
0.6173 0.8395 0.7652
0.6231 0.8446 0.7713
0.6766 0.8470 0.7792
0.7543 0.8511 0.7919
0.8315 0.8572 0.8078
0.8702 0.8616 0.8279
