luts/UPVintage.cube
#Created by: Pixelmator Pro
#Color profile: "sRGB IEC61966-2.1"
TITLE "UPVintage"
#Data domain
#LUT size
LUT_3D_SIZE 5
DOMAIN_MIN 0.000000 0.000000 0.000000
DOMAIN_MAX 0.823529 0.823529 0.823529
0.0752 0.0733 0.0720
0.1577 0.0743 0.0730
0.3390 0.0918 0.0893
0.6065 0.1312 0.1182
0.7764 0.2166 0.1735
0.0915 0.1342 0.1014
0.1796 0.1562 0.1114
0.4484 0.1654 0.0786
0.6754 0.1930 0.0978
0.8070 0.2585 0.1318
0.1418 0.2728 0.1573
0.2017 0.3003 0.1546
0.4443 0.3662 0.1975
0.7150 0.4373 0.1982
0.8432 0.4966 0.2104
0.2657 0.5220 0.2782
0.2893 0.5531 0.2790
0.4968 0.6008 0.2884
0.7179 0.6633 0.4187
0.8396 0.7088 0.4741
0.4815 0.7375 0.4864
0.4950 0.7467 0.4959
0.5854 0.7652 0.4998
0.7364 0.7866 0.5394
0.8455 0.8067 0.6365
0.0825 0.0961 0.1214
0.1671 0.0896 0.1532
0.3430 0.0928 0.1440
0.5917 0.1320 0.1627
0.7707 0.2250 0.2201
0.1003 0.1538 0.1303
0.1831 0.1731 0.1594
0.4121 0.1713 0.1499
0.6686 0.1913 0.1543
0.8066 0.2483 0.1850
0.1530 0.2952 0.1739
0.2029 0.3159 0.2002
0.4520 0.3875 0.2489
0.7228 0.4489 0.2509
0.8405 0.5027 0.2893
0.2769 0.5403 0.2956
0.3057 0.5629 0.3121
0.4987 0.6083 0.3342
0.7208 0.6709 0.4571
0.8416 0.7130 0.5045
0.4896 0.7434 0.4992
0.5025 0.7524 0.5084
0.5852 0.7677 0.5301
0.7372 0.7891 0.5624
0.8462 0.8093 0.6516
0.1068 0.1460 0.2196
0.1517 0.1336 0.3398
0.3909 0.1335 0.3450
0.6323 0.1370 0.3344
0.7765 0.2232 0.3711
0.1236 0.1887 0.2303
0.1526 0.2120 0.3189
0.4067 0.2120 0.3529
0.6486 0.2137 0.3396
0.7980 0.2518 0.3574
0.1796 0.3569 0.2702
0.2453 0.3866 0.2933
0.4667 0.4447 0.3929
0.7110 0.4681 0.4017
0.8274 0.5092 0.4317
0.3205 0.5855 0.3582
0.3668 0.5975 0.3869
0.4947 0.6335 0.4700
0.7277 0.6909 0.5547
0.8474 0.7230 0.5775
0.5113 0.7602 0.5370
0.5346 0.7648 0.5520
0.5969 0.7754 0.5954
0.7384 0.7963 0.6221
0.8490 0.8176 0.6936
0.1526 0.2398 0.3928
0.1678 0.2480 0.4903
0.4013 0.2180 0.5946
0.6648 0.2314 0.6026
0.8041 0.2673 0.6100
0.1722 0.2874 0.4025
0.1873 0.3077 0.4856
0.4031 0.3016 0.5966
0.6732 0.3118 0.6091
0.8080 0.3477 0.6154
0.2481 0.4230 0.4550
0.2685 0.4535 0.4976
0.4213 0.5093 0.5973
0.6988 0.5254 0.6292
0.8208 0.5391 0.6292
0.3679 0.6466 0.5227
0.3987 0.6658 0.5391
0.5633 0.6896 0.5844
0.7357 0.7220 0.6661
0.8477 0.7324 0.6740
0.5556 0.7821 0.6032
0.5789 0.7846 0.6171
0.6445 0.7934 0.6552
0.7370 0.8105 0.7123
0.8524 0.8305 0.7530
0.2398 0.3985 0.5954
0.2552 0.4135 0.6419
0.3535 0.3932 0.7434
0.6872 0.3782 0.7624
0.8238 0.4165 0.7676
0.2640 0.4444 0.6060
0.2792 0.4621 0.6478
0.3641 0.4631 0.7447
0.6891 0.4522 0.7643
0.8262 0.4819 0.7699
0.3408 0.5561 0.6300
0.3565 0.5756 0.6590
0.4013 0.6068 0.7477
0.6933 0.6017 0.7683
0.8333 0.6167 0.7758
0.4857 0.6928 0.6839
0.5008 0.7037 0.6977
0.5393 0.7338 0.7398
0.7015 0.7463 0.7681
0.8440 0.7546 0.7869
0.5825 0.8106 0.7216
0.5882 0.8161 0.7273
0.6465 0.8233 0.7424
0.7667 0.8334 0.7686
0.8546 0.8448 0.8062
