luts/UPVintage.cube
#Created by: Pixelmator Pro
#Color profile: "sRGB IEC61966-2.1"
TITLE "UPVintage"
#Data domain
DOMAIN_MIN 0.0000 0.0000 0.0000
DOMAIN_MAX 1.0000 1.0000 1.0000
#LUT size
LUT_3D_SIZE 35
0.0752 0.0733 0.0720
0.0869 0.0733 0.0716
0.0960 0.0726 0.0709
0.1060 0.0717 0.0701
0.1170 0.0712 0.0697
0.1286 0.0719 0.0705
0.1424 0.0730 0.0715
0.1577 0.0743 0.0730
0.1757 0.0757 0.0747
0.1962 0.0777 0.0764
0.2196 0.0799 0.0785
0.2456 0.0826 0.0810
0.2747 0.0850 0.0837
0.3059 0.0882 0.0865
0.3390 0.0918 0.0893
0.3742 0.0955 0.0923
0.4113 0.0997 0.0955
0.4501 0.1046 0.0994
0.4897 0.1102 0.1032
0.5296 0.1160 0.1078
0.5690 0.1233 0.1126
0.6065 0.1312 0.1182
0.6405 0.1402 0.1245
0.6699 0.1502 0.1314
0.6957 0.1617 0.1384
0.7188 0.1741 0.1462
0.7397 0.1872 0.1546
0.7586 0.2005 0.1634
0.7764 0.2166 0.1735
0.7920 0.2318 0.1839
0.8065 0.2530 0.2000
0.8198 0.2748 0.2176
0.8322 0.2954 0.2351
0.8435 0.3253 0.2602
0.8467 0.3571 0.2892
0.0753 0.0799 0.0734
0.0879 0.0836 0.0754
0.0990 0.0854 0.0749
0.1133 0.0847 0.0716
0.1261 0.0826 0.0694
0.1385 0.0810 0.0689
0.1522 0.0803 0.0691
0.1683 0.0799 0.0695
0.1872 0.0800 0.0698
0.2097 0.0800 0.0702
0.2346 0.0807 0.0705
0.2616 0.0818 0.0719
0.2899 0.0847 0.0747
0.3203 0.0879 0.0780
0.3530 0.0913 0.0815
0.3878 0.0953 0.0853
0.4244 0.0997 0.0894
0.4623 0.1048 0.0939
0.5014 0.1104 0.0983
0.5406 0.1166 0.1034
0.5789 0.1240 0.1087
0.6148 0.1319 0.1146
0.6473 0.1412 0.1211
0.6756 0.1514 0.1282
0.7005 0.1627 0.1354
0.7227 0.1750 0.1433
0.7431 0.1883 0.1518
0.7614 0.2015 0.1607
0.7790 0.2177 0.1708
0.7942 0.2324 0.1810
0.8085 0.2549 0.1982
0.8215 0.2764 0.2156
0.8337 0.2973 0.2334
0.8438 0.3286 0.2599
0.8468 0.3588 0.2884
0.0765 0.0869 0.0752
0.0873 0.0900 0.0757
0.0992 0.0926 0.0793
0.1111 0.0943 0.0787
0.1265 0.0940 0.0740
0.1446 0.0923 0.0697
0.1605 0.0912 0.0697
0.1767 0.0902 0.0702
0.1958 0.0903 0.0707
0.2184 0.0901 0.0711
0.2430 0.0906 0.0715
0.2709 0.0907 0.0718
0.3007 0.0910 0.0722
0.3330 0.0918 0.0725
0.3675 0.0928 0.0730
0.4033 0.0947 0.0744
0.4394 0.0995 0.0789
0.4764 0.1047 0.0846
0.5146 0.1106 0.0906
0.5525 0.1172 0.0970
0.5895 0.1245 0.1032
0.6236 0.1327 0.1095
0.6545 0.1423 0.1168
0.6817 0.1526 0.1242
0.7057 0.1639 0.1317
0.7269 0.1758 0.1398
0.7468 0.1894 0.1484
0.7647 0.2030 0.1574
0.7818 0.2188 0.1675
0.7966 0.2337 0.1781
0.8106 0.2568 0.1960
0.8234 0.2780 0.2133
0.8355 0.3002 0.2320
0.8442 0.3323 0.2594
0.8469 0.3607 0.2876
0.0788 0.0948 0.0785
0.0866 0.0974 0.0786
0.0980 0.0994 0.0797
0.1111 0.1025 0.0850
0.1242 0.1047 0.0848
0.1413 0.1045 0.0785
0.1641 0.1031 0.0712
0.1861 0.1020 0.0703
0.2083 0.1015 0.0707
0.2302 0.1017 0.0714
0.2550 0.1017 0.0723
0.2823 0.1021 0.0727
0.3124 0.1030 0.0731
0.3447 0.1038 0.0735
0.3787 0.1052 0.0743
0.4147 0.1065 0.0750
0.4525 0.1081 0.0761
0.4911 0.1098 0.0774
0.5309 0.1122 0.0790
0.5691 0.1168 0.0825
0.6039 0.1245 0.0906
0.6364 0.1335 0.0995
0.6646 0.1434 0.1086
0.6898 0.1540 0.1170
0.7126 0.1655 0.1254
0.7329 0.1773 0.1339
0.7518 0.1908 0.1428
0.7693 0.2050 0.1523
0.7856 0.2200 0.1621
0.8001 0.2371 0.1748
0.8136 0.2594 0.1924
0.8260 0.2802 0.2097
0.8378 0.3043 0.2302
0.8446 0.3366 0.2587
0.8470 0.3631 0.2862
0.0813 0.1034 0.0837
0.0867 0.1058 0.0838
0.0975 0.1076 0.0838
0.1101 0.1103 0.0857
0.1244 0.1135 0.0905
0.1393 0.1160 0.0915
0.1585 0.1164 0.0855
0.1845 0.1154 0.0769
0.2169 0.1147 0.0714
0.2435 0.1142 0.0719
0.2711 0.1137 0.0724
0.2986 0.1141 0.0734
0.3274 0.1151 0.0739
0.3589 0.1162 0.0749
0.3924 0.1175 0.0756
0.4282 0.1193 0.0765
0.4653 0.1214 0.0777
0.5037 0.1238 0.0792
0.5423 0.1268 0.0810
0.5803 0.1301 0.0833
0.6159 0.1343 0.0856
0.6481 0.1390 0.0887
0.6768 0.1446 0.0920
0.7006 0.1542 0.1011
0.7214 0.1665 0.1125
0.7411 0.1797 0.1234
0.7584 0.1923 0.1335
0.7755 0.2074 0.1439
0.7907 0.2215 0.1543
0.8046 0.2410 0.1690
0.8175 0.2626 0.1868
0.8294 0.2829 0.2040
0.8409 0.3096 0.2270
0.8451 0.3413 0.2572
0.8472 0.3659 0.2840
0.0839 0.1129 0.0892
0.0877 0.1152 0.0893
0.0975 0.1166 0.0892
0.1095 0.1193 0.0894
0.1235 0.1222 0.0911
0.1399 0.1256 0.0970
0.1575 0.1288 0.0990
0.1792 0.1301 0.0931
0.2091 0.1294 0.0851
0.2474 0.1283 0.0735
0.2831 0.1281 0.0731
0.3151 0.1279 0.0735
0.3470 0.1289 0.0748
0.3773 0.1297 0.0756
0.4101 0.1309 0.0766
0.4442 0.1326 0.0780
0.4805 0.1349 0.0791
0.5179 0.1377 0.0809
0.5552 0.1411 0.0828
0.5916 0.1453 0.0853
0.6257 0.1502 0.0884
0.6562 0.1562 0.0917
0.6835 0.1628 0.0951
0.7078 0.1693 0.0988
0.7292 0.1756 0.1021
0.7491 0.1827 0.1061
0.7666 0.1934 0.1144
0.7825 0.2084 0.1286
0.7966 0.2232 0.1420
0.8100 0.2457 0.1605
0.8221 0.2663 0.1781
0.8337 0.2867 0.1961
0.8427 0.3167 0.2239
0.8456 0.3462 0.2546
0.8474 0.3691 0.2808
0.0876 0.1229 0.0951
0.0894 0.1254 0.0953
0.0974 0.1272 0.0947
0.1096 0.1292 0.0943
0.1231 0.1325 0.0950
0.1388 0.1356 0.0975
0.1579 0.1397 0.1038
0.1786 0.1435 0.1068
0.2043 0.1453 0.1014
0.2377 0.1459 0.0940
0.2791 0.1451 0.0833
0.3242 0.1446 0.0745
0.3616 0.1446 0.0752
0.3971 0.1453 0.0762
0.4315 0.1468 0.0778
0.4647 0.1486 0.0794
0.4993 0.1508 0.0808
0.5347 0.1537 0.0828
0.5702 0.1570 0.0853
0.6046 0.1617 0.0879
0.6365 0.1672 0.0908
0.6653 0.1736 0.0943
0.6912 0.1804 0.0982
0.7143 0.1881 0.1022
0.7349 0.1960 0.1061
0.7543 0.2044 0.1100
0.7721 0.2132 0.1141
0.7883 0.2210 0.1179
0.8031 0.2311 0.1247
0.8161 0.2486 0.1401
0.8276 0.2694 0.1622
0.8386 0.2951 0.1871
0.8430 0.3261 0.2212
0.8460 0.3519 0.2508
0.8475 0.3726 0.2763
0.0915 0.1342 0.1014
0.0923 0.1365 0.1019
0.0986 0.1387 0.1008
0.1101 0.1409 0.1004
0.1233 0.1441 0.1000
0.1384 0.1475 0.1013
0.1568 0.1512 0.1040
0.1796 0.1562 0.1114
0.2049 0.1606 0.1155
0.2337 0.1634 0.1103
0.2704 0.1650 0.1038
0.3141 0.1652 0.0950
0.3633 0.1640 0.0805
0.4114 0.1650 0.0774
0.4484 0.1654 0.0786
0.4858 0.1672 0.0805
0.5216 0.1698 0.0828
0.5551 0.1727 0.0854
0.5882 0.1765 0.0878
0.6197 0.1809 0.0907
0.6490 0.1864 0.0939
0.6754 0.1930 0.0978
0.6998 0.2004 0.1017
0.7216 0.2086 0.1057
0.7415 0.2171 0.1098
0.7598 0.2255 0.1139
0.7771 0.2360 0.1189
0.7927 0.2451 0.1232
0.8070 0.2585 0.1318
0.8202 0.2725 0.1416
0.8325 0.2839 0.1500
0.8426 0.3069 0.1741
0.8438 0.3341 0.2153
0.8464 0.3574 0.2454
0.8477 0.3764 0.2704
0.0958 0.1471 0.1075
0.0968 0.1493 0.1080
0.1005 0.1519 0.1072
0.1116 0.1540 0.1065
0.1248 0.1569 0.1059
0.1396 0.1606 0.1061
0.1569 0.1651 0.1077
0.1787 0.1699 0.1117
0.2062 0.1750 0.1190
0.2355 0.1816 0.1252
0.2672 0.1852 0.1202
0.3067 0.1878 0.1141
0.3522 0.1893 0.1065
0.4026 0.1892 0.0960
0.4568 0.1880 0.0802
0.5018 0.1897 0.0819
0.5393 0.1919 0.0842
0.5753 0.1959 0.0875
0.6082 0.2004 0.0911
0.6365 0.2050 0.0945
0.6628 0.2104 0.0979
0.6872 0.2168 0.1020
0.7091 0.2239 0.1061
0.7293 0.2320 0.1104
0.7484 0.2407 0.1145
0.7654 0.2488 0.1183
0.7822 0.2607 0.1245
0.7969 0.2702 0.1296
0.8107 0.2850 0.1397
0.8235 0.2987 0.1496
0.8356 0.3124 0.1599
0.8442 0.3359 0.1880
0.8464 0.3560 0.2208
0.8472 0.3698 0.2440
0.8480 0.3798 0.2622
0.1016 0.1617 0.1142
0.1023 0.1639 0.1148
0.1038 0.1670 0.1142
0.1136 0.1692 0.1134
0.1264 0.1720 0.1128
0.1414 0.1759 0.1125
0.1583 0.1810 0.1136
0.1793 0.1864 0.1156
0.2054 0.1914 0.1196
0.2371 0.1980 0.1281
0.2704 0.2059 0.1354
0.3050 0.2108 0.1312
0.3458 0.2142 0.1252
0.3925 0.2173 0.1186
0.4440 0.2188 0.1104
0.4989 0.2187 0.0978
0.5524 0.2191 0.0863
0.5909 0.2216 0.0889
0.6231 0.2267 0.0936
0.6527 0.2331 0.0983
0.6778 0.2395 0.1028
0.7000 0.2460 0.1071
0.7202 0.2528 0.1116
0.7389 0.2599 0.1160
0.7568 0.2685 0.1201
0.7729 0.2771 0.1248
0.7882 0.2886 0.1317
0.8020 0.2985 0.1379
0.8151 0.3137 0.1491
0.8273 0.3268 0.1588
0.8399 0.3423 0.1686
0.8474 0.3657 0.2001
0.8481 0.3838 0.2321
0.8487 0.3974 0.2555
0.8495 0.4084 0.2748
0.1072 0.1792 0.1211
0.1079 0.1814 0.1216
0.1088 0.1840 0.1220
0.1159 0.1871 0.1205
0.1291 0.1899 0.1198
0.1442 0.1936 0.1195
0.1613 0.1986 0.1196
0.1811 0.2048 0.1209
0.2060 0.2111 0.1240
0.2367 0.2175 0.1289
0.2722 0.2242 0.1381
0.3088 0.2343 0.1471
0.3456 0.2402 0.1440
0.3876 0.2453 0.1387
0.4346 0.2495 0.1325
0.4868 0.2522 0.1252
0.5407 0.2544 0.1163
0.5932 0.2552 0.1036
0.6363 0.2575 0.0960
0.6642 0.2634 0.1011
0.6895 0.2709 0.1067
0.7127 0.2794 0.1126
0.7320 0.2867 0.1177
0.7492 0.2936 0.1223
0.7659 0.3010 0.1266
0.7808 0.3106 0.1333
0.7944 0.3211 0.1412
0.8076 0.3317 0.1478
0.8209 0.3449 0.1552
0.8331 0.3568 0.1626
0.8446 0.3747 0.1778
0.8488 0.3968 0.2153
0.8499 0.4142 0.2449
0.8504 0.4286 0.2685
0.8509 0.4400 0.2883
0.1142 0.1983 0.1289
0.1150 0.2005 0.1295
0.1160 0.2030 0.1300
0.1199 0.2073 0.1285
0.1329 0.2105 0.1278
0.1474 0.2140 0.1274
0.1652 0.2184 0.1268
0.1846 0.2250 0.1276
0.2086 0.2324 0.1299
0.2378 0.2401 0.1333
0.2722 0.2464 0.1393
0.3112 0.2550 0.1498
0.3506 0.2659 0.1604
0.3885 0.2738 0.1589
0.4316 0.2796 0.1537
0.4788 0.2851 0.1475
0.5298 0.2898 0.1415
0.5810 0.2936 0.1345
0.6287 0.2963 0.1263
0.6697 0.2997 0.1161
0.6995 0.3048 0.1108
0.7213 0.3130 0.1171
0.7413 0.3218 0.1234
0.7598 0.3316 0.1304
0.7751 0.3382 0.1338
0.7900 0.3479 0.1382
0.8028 0.3566 0.1451
0.8152 0.3686 0.1556
0.8268 0.3801 0.1657
0.8377 0.3905 0.1749
0.8486 0.4088 0.1919
0.8509 0.4298 0.2310
0.8516 0.4469 0.2592
0.8523 0.4612 0.2823
0.8530 0.4731 0.3025
0.1225 0.2206 0.1373
0.1234 0.2229 0.1378
0.1244 0.2255 0.1383
0.1263 0.2299 0.1376
0.1371 0.2337 0.1364
0.1519 0.2374 0.1358
0.1693 0.2415 0.1350
0.1898 0.2472 0.1352
0.2127 0.2554 0.1369
0.2408 0.2638 0.1394
0.2738 0.2718 0.1440
0.3116 0.2794 0.1511
0.3535 0.2889 0.1635
0.3945 0.3015 0.1765
0.4337 0.3107 0.1763
0.4768 0.3181 0.1710
0.5234 0.3248 0.1659
0.5722 0.3308 0.1604
0.6182 0.3362 0.1547
0.6603 0.3414 0.1488
0.6969 0.3456 0.1421
0.7279 0.3542 0.1369
0.7497 0.3594 0.1300
0.7684 0.3679 0.1305
0.7843 0.3785 0.1395
0.7988 0.3896 0.1500
0.8103 0.3974 0.1585
0.8217 0.4082 0.1697
0.8322 0.4179 0.1798
0.8426 0.4288 0.1911
0.8518 0.4456 0.2111
0.8526 0.4649 0.2477
0.8536 0.4808 0.2735
0.8543 0.4951 0.2960
0.8551 0.5071 0.3166
0.1318 0.2456 0.1469
0.1327 0.2480 0.1474
0.1336 0.2505 0.1480
0.1351 0.2543 0.1487
0.1421 0.2596 0.1462
0.1575 0.2632 0.1453
0.1743 0.2672 0.1447
0.1960 0.2716 0.1436
0.2185 0.2799 0.1450
0.2454 0.2890 0.1472
0.2771 0.2984 0.1513
0.3137 0.3072 0.1566
0.3543 0.3155 0.1650
0.3977 0.3263 0.1790
0.4406 0.3408 0.1960
0.4805 0.3510 0.1972
0.5226 0.3595 0.1922
0.5673 0.3674 0.1879
0.6111 0.3750 0.1828
0.6516 0.3823 0.1783
0.6880 0.3884 0.1735
0.7221 0.3940 0.1651
0.7500 0.4041 0.1639
0.7720 0.4154 0.1669
0.7879 0.4239 0.1727
0.8026 0.4335 0.1797
0.8162 0.4410 0.1810
0.8284 0.4497 0.1850
0.8382 0.4574 0.1951
0.8480 0.4685 0.2090
0.8542 0.4844 0.2339
0.8550 0.5009 0.2642
0.8560 0.5160 0.2877
0.8567 0.5294 0.3094
0.8571 0.5413 0.3298
0.1418 0.2728 0.1573
0.1427 0.2751 0.1578
0.1436 0.2776 0.1583
0.1451 0.2811 0.1590
0.1488 0.2874 0.1567
0.1641 0.2913 0.1560
0.1811 0.2957 0.1553
0.2017 0.3003 0.1546
0.2259 0.3063 0.1544
0.2516 0.3159 0.1565
0.2822 0.3261 0.1597
0.3177 0.3360 0.1642
0.3570 0.3458 0.1714
0.3994 0.3553 0.1810
0.4443 0.3662 0.1975
0.4878 0.3826 0.2185
0.5274 0.3946 0.2220
0.5678 0.4040 0.2178
0.6077 0.4132 0.2141
0.6463 0.4222 0.2100
0.6823 0.4298 0.2031
0.7150 0.4373 0.1982
0.7441 0.4454 0.1973
0.7694 0.4551 0.1993
0.7904 0.4684 0.2060
0.8062 0.4772 0.2102
0.8194 0.4840 0.2122
0.8320 0.4910 0.2127
0.8432 0.4966 0.2104
0.8527 0.5086 0.2275
0.8566 0.5228 0.2549
0.8573 0.5376 0.2796
0.8582 0.5512 0.3009
0.8590 0.5639 0.3211
0.8596 0.5752 0.3408
0.1539 0.3021 0.1690
0.1549 0.3043 0.1696
0.1560 0.3068 0.1702
0.1576 0.3103 0.1711
0.1604 0.3160 0.1703
0.1712 0.3217 0.1676
0.1890 0.3264 0.1668
0.2086 0.3309 0.1662
0.2340 0.3358 0.1655
0.2599 0.3448 0.1667
0.2892 0.3550 0.1697
0.3228 0.3661 0.1742
0.3615 0.3769 0.1802
0.4028 0.3875 0.1885
0.4465 0.3977 0.2007
0.4919 0.4104 0.2208
0.5349 0.4274 0.2447
0.5726 0.4404 0.2506
0.6088 0.4507 0.2475
0.6442 0.4607 0.2430
0.6782 0.4701 0.2381
0.7094 0.4800 0.2362
0.7381 0.4890 0.2357
0.7637 0.4974 0.2370
0.7869 0.5061 0.2373
0.8068 0.5165 0.2390
0.8230 0.5252 0.2408
0.8350 0.5316 0.2438
0.8462 0.5365 0.2426
0.8571 0.5444 0.2447
0.8592 0.5600 0.2721
0.8599 0.5731 0.2930
0.8608 0.5851 0.3112
0.8618 0.5969 0.3293
0.8626 0.6079 0.3478
0.1678 0.3342 0.1822
0.1688 0.3364 0.1828
0.1699 0.3389 0.1834
0.1715 0.3424 0.1843
0.1737 0.3470 0.1855
0.1804 0.3546 0.1815
0.1985 0.3591 0.1807
0.2179 0.3640 0.1798
0.2415 0.3697 0.1797
0.2691 0.3761 0.1793
0.2985 0.3860 0.1817
0.3309 0.3971 0.1858
0.3676 0.4085 0.1914
0.4077 0.4204 0.1991
0.4501 0.4318 0.2094
0.4946 0.4427 0.2241
0.5390 0.4557 0.2462
0.5796 0.4739 0.2742
0.6138 0.4876 0.2819
0.6460 0.4988 0.2788
0.6767 0.5095 0.2765
0.7060 0.5202 0.2763
0.7339 0.5304 0.2776
0.7597 0.5392 0.2770
0.7831 0.5460 0.2741
0.8039 0.5530 0.2722
0.8215 0.5593 0.2703
0.8372 0.5687 0.2734
0.8487 0.5736 0.2742
0.8585 0.5811 0.2850
0.8617 0.5927 0.2978
0.8628 0.6055 0.3099
0.8639 0.6178 0.3223
0.8647 0.6283 0.3374
0.8656 0.6385 0.3535
0.1832 0.3682 0.1976
0.1842 0.3704 0.1982
0.1854 0.3728 0.1990
0.1871 0.3762 0.2000
0.1893 0.3808 0.2013
0.1938 0.3882 0.1986
0.2090 0.3940 0.1962
0.2290 0.3988 0.1955
0.2514 0.4045 0.1953
0.2789 0.4104 0.1940
0.3091 0.4184 0.1951
0.3408 0.4299 0.1993
0.3764 0.4419 0.2045
0.4147 0.4540 0.2119
0.4556 0.4660 0.2213
0.4987 0.4781 0.2342
0.5421 0.4895 0.2508
0.5834 0.5028 0.2754
0.6201 0.5208 0.3049
0.6504 0.5349 0.3165
0.6780 0.5466 0.3175
0.7049 0.5575 0.3186
0.7313 0.5675 0.3193
0.7570 0.5764 0.3174
0.7801 0.5835 0.3143
0.8008 0.5891 0.3103
0.8194 0.5936 0.3058
0.8354 0.6000 0.3057
0.8486 0.6062 0.3095
0.8602 0.6143 0.3196
0.8643 0.6233 0.3291
0.8653 0.6342 0.3352
0.8662 0.6454 0.3410
0.8671 0.6567 0.3474
0.8680 0.6681 0.3575
0.2003 0.4045 0.2146
0.2015 0.4066 0.2153
0.2027 0.4090 0.2159
0.2045 0.4123 0.2169
0.2069 0.4167 0.2182
0.2106 0.4230 0.2180
0.2204 0.4311 0.2135
0.2418 0.4360 0.2127
0.2637 0.4415 0.2125
0.2890 0.4476 0.2123
0.3210 0.4539 0.2118
0.3531 0.4639 0.2146
0.3868 0.4760 0.2197
0.4236 0.4880 0.2264
0.4636 0.5005 0.2357
0.5049 0.5130 0.2475
0.5464 0.5251 0.2623
0.5870 0.5362 0.2784
0.6236 0.5495 0.3066
0.6551 0.5669 0.3423
0.6819 0.5805 0.3580
0.7067 0.5909 0.3598
0.7315 0.6003 0.3587
0.7556 0.6086 0.3572
0.7781 0.6156 0.3546
0.7988 0.6214 0.3513
0.8174 0.6264 0.3469
0.8325 0.6309 0.3462
0.8460 0.6354 0.3484
0.8580 0.6403 0.3530
0.8666 0.6498 0.3624
0.8676 0.6610 0.3632
0.8682 0.6715 0.3654
0.8691 0.6824 0.3663
0.8701 0.6932 0.3664
0.2201 0.4424 0.2339
0.2212 0.4444 0.2346
0.2225 0.4467 0.2353
0.2243 0.4499 0.2364
0.2266 0.4540 0.2379
0.2295 0.4594 0.2397
0.2365 0.4685 0.2346
0.2558 0.4744 0.2326
0.2778 0.4800 0.2322
0.3020 0.4861 0.2323
0.3322 0.4922 0.2314
0.3663 0.4998 0.2324
0.3996 0.5108 0.2371
0.4348 0.5227 0.2437
0.4730 0.5348 0.2520
0.5125 0.5473 0.2631
0.5522 0.5594 0.2749
0.5908 0.5705 0.2912
0.6264 0.5807 0.3131
0.6584 0.5924 0.3433
0.6866 0.6080 0.3828
0.7109 0.6196 0.3973
0.7335 0.6286 0.3973
0.7559 0.6364 0.3964
0.7775 0.6434 0.3948
0.7976 0.6495 0.3919
0.8150 0.6546 0.3914
0.8299 0.6585 0.3897
0.8437 0.6625 0.3902
0.8556 0.6649 0.3893
0.8662 0.6718 0.3996
0.8690 0.6832 0.4008
0.8704 0.6957 0.3951
0.8711 0.7055 0.3890
0.8706 0.7158 0.3891
0.2416 0.4817 0.2554
0.2429 0.4836 0.2561
0.2442 0.4858 0.2569
0.2461 0.4888 0.2580
0.2486 0.4928 0.2595
0.2519 0.4979 0.2613
0.2575 0.5056 0.2594
0.2710 0.5137 0.2545
0.2935 0.5189 0.2535
0.3175 0.5249 0.2534
0.3450 0.5310 0.2537
0.3786 0.5374 0.2534
0.4140 0.5457 0.2559
0.4479 0.5571 0.2623
0.4843 0.5686 0.2703
0.5215 0.5802 0.2787
0.5594 0.5917 0.2907
0.5958 0.6021 0.3080
0.6297 0.6116 0.3286
0.6608 0.6207 0.3523
0.6896 0.6307 0.3828
0.7152 0.6432 0.4185
0.7375 0.6533 0.4344
0.7583 0.6609 0.4342
0.7780 0.6676 0.4340
0.7964 0.6736 0.4345
0.8131 0.6790 0.4340
0.8279 0.6835 0.4335
0.8415 0.6873 0.4333
0.8535 0.6901 0.4327
0.8642 0.6941 0.4365
0.8709 0.7015 0.4409
0.8716 0.7126 0.4348
0.8727 0.7250 0.4224
0.8717 0.7360 0.4199
0.2657 0.5220 0.2782
0.2669 0.5239 0.2789
0.2682 0.5259 0.2796
0.2700 0.5288 0.2807
0.2726 0.5325 0.2822
0.2759 0.5372 0.2841
0.2803 0.5431 0.2858
0.2893 0.5531 0.2790
0.3115 0.5582 0.2781
0.3352 0.5634 0.2776
0.3612 0.5692 0.2781
0.3920 0.5752 0.2782
0.4277 0.5814 0.2785
0.4627 0.5900 0.2830
0.4968 0.6008 0.2884
0.5326 0.6110 0.2984
0.5676 0.6211 0.3115
0.6016 0.6304 0.3281
0.6337 0.6389 0.3474
0.6634 0.6473 0.3667
0.6915 0.6547 0.3877
0.7179 0.6633 0.4187
0.7416 0.6739 0.4538
0.7617 0.6824 0.4708
0.7799 0.6892 0.4731
0.7968 0.6951 0.4740
0.8126 0.7001 0.4743
0.8271 0.7050 0.4743
0.8396 0.7088 0.4741
0.8514 0.7121 0.4740
0.8620 0.7151 0.4742
0.8716 0.7189 0.4788
0.8729 0.7287 0.4759
0.8740 0.7394 0.4649
0.8735 0.7506 0.4529
0.2918 0.5614 0.3037
0.2931 0.5630 0.3045
0.2944 0.5648 0.3053
0.2963 0.5674 0.3064
0.2988 0.5707 0.3080
0.3020 0.5750 0.3099
0.3058 0.5801 0.3122
0.3131 0.5882 0.3086
0.3304 0.5953 0.3041
0.3544 0.6000 0.3036
0.3793 0.6052 0.3038
0.4073 0.6106 0.3048
0.4405 0.6165 0.3026
0.4772 0.6222 0.3045
0.5114 0.6301 0.3115
0.5444 0.6388 0.3221
0.5770 0.6477 0.3350
0.6085 0.6559 0.3506
0.6383 0.6638 0.3666
0.6669 0.6716 0.3831
0.6937 0.6782 0.4014
0.7200 0.6844 0.4242
0.7437 0.6918 0.4564
0.7652 0.7006 0.4918
0.7826 0.7082 0.5074
0.7984 0.7141 0.5103
0.8130 0.7192 0.5111
0.8268 0.7238 0.5114
0.8389 0.7278 0.5113
0.8501 0.7317 0.5111
0.8600 0.7345 0.5108
0.8697 0.7376 0.5120
0.8745 0.7437 0.5124
0.8751 0.7529 0.5059
0.8759 0.7627 0.4886
0.3196 0.5987 0.3306
0.3208 0.6001 0.3313
0.3222 0.6016 0.3321
0.3242 0.6038 0.3333
0.3268 0.6067 0.3348
0.3300 0.6104 0.3367
0.3340 0.6148 0.3390
0.3398 0.6208 0.3394
0.3501 0.6294 0.3315
0.3729 0.6339 0.3300
0.3976 0.6382 0.3297
0.4246 0.6424 0.3303
0.4563 0.6472 0.3320
0.4918 0.6518 0.3338
0.5264 0.6570 0.3383
0.5572 0.6640 0.3478
0.5867 0.6716 0.3599
0.6155 0.6790 0.3726
0.6435 0.6866 0.3865
0.6704 0.6933 0.4033
0.6967 0.6998 0.4210
0.7216 0.7053 0.4403
0.7454 0.7105 0.4630
0.7669 0.7168 0.4943
0.7856 0.7244 0.5272
0.8011 0.7307 0.5409
0.8147 0.7362 0.5442
0.8274 0.7409 0.5445
0.8389 0.7449 0.5444
0.8495 0.7486 0.5444
0.8591 0.7517 0.5439
0.8682 0.7548 0.5446
0.8761 0.7583 0.5453
0.8767 0.7659 0.5419
0.8769 0.7741 0.5302
0.3481 0.6333 0.3581
0.3490 0.6346 0.3587
0.3500 0.6360 0.3593
0.3519 0.6378 0.3605
0.3544 0.6403 0.3620
0.3575 0.6434 0.3638
0.3613 0.6472 0.3661
0.3664 0.6514 0.3692
0.3767 0.6583 0.3645
0.3961 0.6638 0.3608
0.4207 0.6672 0.3610
0.4462 0.6710 0.3622
0.4739 0.6746 0.3647
0.5061 0.6786 0.3658
0.5392 0.6826 0.3684
0.5702 0.6873 0.3753
0.5966 0.6938 0.3853
0.6233 0.7005 0.3971
0.6493 0.7071 0.4108
0.6749 0.7133 0.4259
0.6999 0.7193 0.4423
0.7240 0.7244 0.4599
0.7470 0.7292 0.4774
0.7684 0.7333 0.5001
0.7875 0.7391 0.5299
0.8038 0.7457 0.5586
0.8169 0.7514 0.5702
0.8286 0.7562 0.5736
0.8393 0.7602 0.5736
0.8495 0.7638 0.5731
0.8587 0.7671 0.5731
0.8670 0.7697 0.5726
0.8753 0.7727 0.5736
0.8776 0.7781 0.5735
0.8781 0.7844 0.5664
0.3804 0.6636 0.3883
0.3817 0.6646 0.3891
0.3831 0.6657 0.3900
0.3850 0.6672 0.3911
0.3876 0.6692 0.3927
0.3908 0.6718 0.3947
0.3949 0.6749 0.3971
0.4000 0.6785 0.4003
0.4077 0.6835 0.4003
0.4203 0.6901 0.3938
0.4449 0.6931 0.3942
0.4690 0.6958 0.3955
0.4945 0.6990 0.3982
0.5224 0.7024 0.4008
0.5520 0.7058 0.4027
0.5810 0.7096 0.4054
0.6071 0.7146 0.4124
0.6308 0.7204 0.4232
0.6555 0.7262 0.4355
0.6796 0.7317 0.4489
0.7036 0.7372 0.4644
0.7269 0.7422 0.4797
0.7491 0.7465 0.4961
0.7700 0.7500 0.5129
0.7890 0.7535 0.5340
